;FLAVOR:RepRap
;TIME:14828
;Generated with Cura_SteamEngine 2.3.1
M190 S60
M104 S200
M109 S200
G28 ;Home
G1 Z15.0 F6000 ;Move the platform down 15mm
;Prime the extruder
G92 E0
G1 F200 E3
G92 E0
;LAYER_COUNT:264
;LAYER:0
M107
G1 F1500 E-6.5
G0 F3600 X71.962 Y33.848 Z.3
;TYPE:SKIRT
G1 F1500 E0
G1 F900 X72.228 Y33.418 E0.02523
G1 X72.558 Y33.035 E0.05045
G1 X72.945 Y32.709 E0.07569
G1 X73.378 Y32.448 E0.10092
G1 X73.846 Y32.258 E0.12612
G1 X74.339 Y32.145 E0.15135
G1 X74.809 Y32.11 E0.17486
G1 X145.191 Y32.111 E3.68624
G1 X145.695 Y32.151 E3.71146
G1 X146.186 Y32.27 E3.73666
G1 X146.653 Y32.465 E3.76191
G1 X147.083 Y32.73 E3.78711
G1 X147.466 Y33.06 E3.81233
G1 X147.792 Y33.447 E3.83758
G1 X148.053 Y33.88 E3.8628
G1 X148.243 Y34.348 E3.888
G1 X148.356 Y34.841 E3.91324
G1 X148.391 Y35.311 E3.93675
G1 X148.39 Y87.697 E6.5503
G1 X148.35 Y88.201 E6.57552
G1 X148.231 Y88.692 E6.60073
G1 X148.036 Y89.159 E6.62597
G1 X147.851 Y89.475 E6.64424
G1 X146.747 Y91.127 E6.74337
G1 X143.87 Y95.802 E7.01724
G1 X141.27 Y100.614 E7.29011
G1 X138.943 Y105.573 E7.5634
G1 X136.877 Y110.709 E7.83959
G1 X135.999 Y113.201 E7.97141
G1 X134.385 Y118.47 E8.24633
G1 X133.072 Y123.817 E8.52102
G1 X132.531 Y126.499 E8.65752
G1 X132.079 Y129.145 E8.79145
G1 X131.379 Y134.599 E9.06578
G1 X130.988 Y140.08 E9.33992
G1 X130.9 Y144.202 E9.54562
G1 X130.89 Y184.691 E11.56562
G1 X130.85 Y185.195 E11.59084
G1 X130.731 Y185.686 E11.61605
G1 X130.536 Y186.153 E11.6413
G1 X130.27 Y186.583 E11.66652
G1 X129.94 Y186.965 E11.69171
G1 X129.554 Y187.291 E11.71691
G1 X129.121 Y187.552 E11.74214
G1 X128.652 Y187.742 E11.76738
G1 X128.159 Y187.855 E11.79262
G1 X127.69 Y187.89 E11.81608
G1 X100.309 Y187.89 E13.18212
G1 X99.805 Y187.85 E13.20735
G1 X99.314 Y187.731 E13.23255
G1 X98.847 Y187.537 E13.25778
G1 X98.417 Y187.271 E13.28301
G1 X98.034 Y186.941 E13.30823
G1 X97.708 Y186.554 E13.33348
G1 X97.447 Y186.121 E13.3587
G1 X97.257 Y185.653 E13.3839
G1 X97.144 Y185.16 E13.40913
G1 X97.109 Y184.691 E13.4326
G1 X97.1 Y144.255 E15.44996
G1 X96.944 Y138.729 E15.72576
G1 X96.479 Y133.263 E15.99944
G1 X95.708 Y127.857 E16.27188
G1 X94.625 Y122.452 E16.5469
G1 X93.989 Y119.858 E16.68014
G1 X93.255 Y117.191 E16.81815
G1 X91.577 Y111.972 E17.09165
G1 X89.61 Y106.866 E17.36464
G1 X87.343 Y101.848 E17.63935
G1 X86.131 Y99.441 E17.7738
G1 X83.455 Y94.648 E18.04767
G1 X80.112 Y89.411 E18.35764
G1 X79.874 Y88.964 E18.38291
G1 X79.71 Y88.486 E18.40812
G1 X79.623 Y87.988 E18.43334
G1 X79.609 Y87.695 E18.44797
G1 X79.6 Y82.93 E18.6857
G1 X79.444 Y77.401 E18.96165
G1 X78.979 Y71.935 E19.23534
G1 X78.208 Y66.529 E19.50777
G1 X77.125 Y61.124 E19.78279
G1 X76.489 Y58.53 E19.91604
G1 X75.755 Y55.863 E20.05404
G1 X74.081 Y50.656 E20.32692
G1 X71.826 Y44.854 E20.63747
G1 X71.681 Y44.37 E20.66268
G1 X71.609 Y43.695 E20.69655
G1 X71.609 Y35.31 E21.11488
G1 X71.649 Y34.806 E21.1401
G1 X71.768 Y34.315 E21.16531
G1 X71.962 Y33.848 E21.19053
G0 F3600 X75 Y35.501
;TYPE:SUPPORT
G1 F900 X145 Y35.501 E24.68285
G1 X145 Y87.501 E27.27714
G1 X127.899 Y87.501 E28.13031
G1 X127.5 Y87.9 E28.15846
G1 X127.5 Y184.499 E32.97781
G1 X100.5 Y184.499 E34.32484
G1 X100.5 Y87.9 E39.14419
G1 X100.101 Y87.501 E39.17234
G1 X83 Y87.501 E40.02551
G1 X83 Y50.49 E41.872
G1 X82.947 Y49.594 E41.91678
G1 X82.761 Y48.686 E41.96302
G1 X82.463 Y47.815 E42.00894
G1 X82.064 Y46.998 E42.05431
G1 X81.553 Y46.239 E42.09995
G1 X80.939 Y45.54 E42.14637
G1 X80.267 Y44.947 E42.19108
G1 X79.507 Y44.439 E42.23669
G1 X78.676 Y44.032 E42.28286
G1 X77.832 Y43.746 E42.32731
G1 X76.901 Y43.553 E42.37475
G1 X76.009 Y43.501 E42.41933
G1 X75 Y43.501 E42.46967
G1 X75 Y35.501 E42.86879
G1 F1500 E36.36879
G0 F3600 X101.309 Y44.745
G0 X101.562 Y44.826
G1 F1500 E42.86879
G1 F900 X101.419 Y45.264 E42.89178
G1 X101.334 Y45.708 E42.91433
G1 X101.306 Y46.176 E42.93772
G1 X101.334 Y46.643 E42.96106
G1 X101.419 Y47.087 E42.98361
G1 X101.562 Y47.525 E43.0066
G1 X101.76 Y47.947 E43.02986
G1 X102.006 Y48.336 E43.05282
G1 X102.301 Y48.691 E43.07585
G1 X102.584 Y48.956 E43.09519
G1 X102.584 Y49.017 E43.09823
G1 X102.95 Y49.429 E43.12573
G1 X103.376 Y49.48 E43.14713
G1 X103.411 Y49.499 E43.14912
G1 X103.843 Y49.672 E43.17234
G1 X104.298 Y49.788 E43.19576
G1 X104.747 Y49.844 E43.21834
G1 X105.214 Y49.844 E43.24163
G1 X105.663 Y49.788 E43.26421
G1 X106.118 Y49.672 E43.28763
G1 X106.549 Y49.499 E43.3108
G1 X106.945 Y49.282 E43.33333
G1 X107.325 Y49.005 E43.35679
G1 X107.66 Y48.691 E43.3797
G1 X107.955 Y48.336 E43.40273
G1 X108.201 Y47.947 E43.42569
G1 X108.399 Y47.525 E43.44895
G1 X108.542 Y47.087 E43.47193
G1 X108.627 Y46.643 E43.49449
G1 X108.654 Y46.176 E43.51783
G1 X108.627 Y45.708 E43.54121
G1 X108.542 Y45.264 E43.56377
G1 X108.399 Y44.826 E43.58675
G1 X108.201 Y44.401 E43.61014
G1 X107.952 Y44.012 E43.63319
G1 X107.663 Y43.664 E43.65576
G1 X107.325 Y43.346 E43.67891
G1 X106.945 Y43.069 E43.70237
G1 X106.549 Y42.852 E43.7249
G1 X106.118 Y42.679 E43.74807
G1 X105.662 Y42.564 E43.77153
G1 X105.216 Y42.507 E43.79396
G1 X104.745 Y42.507 E43.81746
G1 X104.299 Y42.564 E43.83989
G1 X103.843 Y42.679 E43.86335
G1 X103.412 Y42.852 E43.88652
G1 X103.016 Y43.069 E43.90905
G1 X102.636 Y43.346 E43.93251
G1 X102.298 Y43.664 E43.95567
G1 X102.009 Y44.012 E43.97823
G1 X101.76 Y44.401 E44.00128
G1 X101.562 Y44.826 E44.02467
G1 F1500 E37.52467
G0 F3600 X101.309 Y44.745
G0 X101.072 Y45.676
G0 X101.072 Y46.675
G0 X101.315 Y47.622
G0 X101.791 Y48.491
G0 X102.468 Y49.209
G0 X103.298 Y49.739
G0 X111.769 Y54.302
G1 F1500 E44.02467
G1 F900 X111.553 Y54.915 E44.05709
G1 X111.505 Y55.341 E44.07848
G1 X111.51 Y55.837 E44.10323
G1 X111.637 Y56.334 E44.12882
G1 X111.824 Y56.749 E44.15153
G1 X112.295 Y57.395 E44.19142
G1 X112.933 Y57.766 E44.22824
G1 X113.384 Y57.928 E44.25214
G1 X113.789 Y57.996 E44.27263
G1 X114.197 Y57.996 E44.29299
G1 X114.793 Y57.905 E44.32307
G1 X115.202 Y57.689 E44.34614
G1 X115.658 Y57.409 E44.37284
G1 X115.951 Y57.065 E44.39538
G1 X116.183 Y56.756 E44.41466
G1 X116.381 Y56.258 E44.4414
G1 X116.473 Y55.888 E44.46042
G1 X116.507 Y55.344 E44.48761
G1 X116.426 Y54.92 E44.50915
G1 X116.331 Y54.592 E44.52619
G1 X116.162 Y54.239 E44.54571
G1 X115.955 Y53.944 E44.56369
G1 X115.549 Y53.495 E44.59389
G1 X114.977 Y53.202 E44.62595
G1 X114.481 Y53.023 E44.65226
G1 X114 Y53.008 E44.67627
G1 X113.495 Y53.023 E44.70148
G1 X112.967 Y53.225 E44.72968
G1 X112.44 Y53.518 E44.75976
G1 X112.093 Y53.888 E44.78507
G1 X111.769 Y54.302 E44.8113
G0 F3600 X120.37 Y48.058
G1 F900 X120.66 Y48.412 E44.83413
G1 X120.911 Y48.647 E44.85128
G1 X121.302 Y48.933 E44.87545
G1 X121.634 Y49.113 E44.89429
G1 X121.995 Y49.257 E44.91368
G1 X122.432 Y49.373 E44.93624
G1 X122.801 Y49.419 E44.95479
G1 X123.229 Y49.419 E44.97615
G1 X123.622 Y49.368 E44.99592
G1 X124.034 Y49.262 E45.01714
G1 X124.415 Y49.111 E45.03759
G1 X124.742 Y48.931 E45.05621
G1 X125.117 Y48.663 E45.07921
G1 X125.382 Y48.404 E45.09769
G1 X125.654 Y48.083 E45.11868
G1 X125.89 Y47.704 E45.14096
G1 X126.065 Y47.302 E45.16283
G1 X126.174 Y46.955 E45.18098
G1 X126.251 Y46.521 E45.20297
G1 X126.266 Y46.065 E45.22573
G1 X126.233 Y45.711 E45.24347
G1 X126.152 Y45.306 E45.26407
G1 X126.027 Y44.948 E45.28299
G1 X125.858 Y44.583 E45.30306
G1 X125.624 Y44.237 E45.3239
G1 X125.389 Y43.955 E45.34221
G1 X125.082 Y43.665 E45.36328
G1 X124.745 Y43.419 E45.3841
G1 X124.385 Y43.224 E45.40452
G1 X124.007 Y43.085 E45.42462
G1 X123.65 Y42.987 E45.44309
G1 X123.242 Y42.932 E45.46362
G1 X122.801 Y42.932 E45.48563
G1 X122.404 Y42.984 E45.5056
G1 X122.002 Y43.093 E45.52638
G1 X121.674 Y43.216 E45.54386
G1 X121.285 Y43.426 E45.56591
G1 X120.951 Y43.672 E45.58661
G1 X120.667 Y43.932 E45.60582
G1 X120.388 Y44.261 E45.62734
G1 X120.178 Y44.59 E45.64681
G1 X120.01 Y44.949 E45.66659
G1 X119.868 Y45.357 E45.68814
G1 X119.806 Y45.72 E45.70651
G1 X119.775 Y46.112 E45.72613
G1 X119.793 Y46.548 E45.7479
G1 X119.857 Y46.926 E45.76703
G1 X119.99 Y47.345 E45.78896
G1 X120.153 Y47.706 E45.80872
G1 X120.37 Y48.058 E45.82935
G1 F1500 E39.32935
G0 F3600 X122.752 Y65.745
G0 X122.784 Y66.007
G1 F1500 E45.82935
G1 F900 X122.338 Y66.064 E45.85178
G1 X121.882 Y66.179 E45.87525
G1 X121.451 Y66.352 E45.89842
G1 X121.055 Y66.569 E45.92094
G1 X120.675 Y66.846 E45.9444
G1 X120.337 Y67.164 E45.96756
G1 X120.048 Y67.512 E45.99013
G1 X119.799 Y67.901 E46.01317
G1 X119.601 Y68.326 E46.03656
G1 X119.458 Y68.764 E46.05955
G1 X119.446 Y68.825 E46.06265
G1 X119.353 Y68.972 E46.07133
G1 X119.293 Y69.456 E46.09566
G1 X119.348 Y69.622 E46.10438
G1 X119.345 Y69.676 E46.10708
G1 X119.373 Y70.143 E46.13042
G1 X119.458 Y70.587 E46.15297
G1 X119.601 Y71.025 E46.17596
G1 X119.799 Y71.447 E46.19922
G1 X120.045 Y71.836 E46.22218
G1 X120.34 Y72.191 E46.24521
G1 X120.675 Y72.505 E46.26812
G1 X121.055 Y72.782 E46.29158
G1 X121.451 Y72.999 E46.3141
G1 X121.882 Y73.172 E46.33727
G1 X122.338 Y73.287 E46.36074
G1 X122.784 Y73.344 E46.38317
G1 X123.255 Y73.344 E46.40667
G1 X123.701 Y73.287 E46.4291
G1 X124.157 Y73.172 E46.45256
G1 X124.588 Y72.999 E46.47573
G1 X124.984 Y72.782 E46.49826
G1 X125.364 Y72.505 E46.52172
G1 X125.699 Y72.191 E46.54463
G1 X125.994 Y71.836 E46.56766
G1 X126.24 Y71.447 E46.59062
G1 X126.438 Y71.025 E46.61387
G1 X126.581 Y70.587 E46.63686
G1 X126.666 Y70.143 E46.65941
G1 X126.693 Y69.676 E46.68275
G1 X126.666 Y69.208 E46.70614
G1 X126.581 Y68.764 E46.72869
G1 X126.438 Y68.326 E46.75168
G1 X126.24 Y67.901 E46.77507
G1 X125.991 Y67.512 E46.79811
G1 X125.702 Y67.164 E46.82068
G1 X125.364 Y66.846 E46.84384
G1 X124.984 Y66.569 E46.8673
G1 X124.588 Y66.352 E46.88982
G1 X124.157 Y66.179 E46.91299
G1 X124.091 Y66.163 E46.91638
G1 X123.946 Y66.057 E46.92534
G1 X123.768 Y66.081 E46.9343
G1 X123.702 Y66.064 E46.9377
G1 X123.255 Y66.007 E46.96019
G1 X122.784 Y66.007 E46.98368
G1 F1500 E40.48368
G0 F3600 X122.288 Y65.804
G0 X108.134 Y68.889
G1 F1500 E46.98368
G1 F900 X107.995 Y68.468 E47.0058
G1 X107.792 Y68.044 E47.02926
G1 X107.575 Y67.721 E47.04867
G1 X107.339 Y67.436 E47.06713
G1 X107.034 Y67.164 E47.08752
G1 X106.726 Y66.935 E47.10667
G1 X106.37 Y66.733 E47.12709
G1 X105.981 Y66.584 E47.14787
G1 X105.572 Y66.483 E47.16889
G1 X105.208 Y66.432 E47.18723
G1 X104.765 Y66.432 E47.20933
G1 X104.376 Y66.485 E47.22891
G1 X103.967 Y66.589 E47.24997
G1 X103.623 Y66.723 E47.26839
G1 X103.252 Y66.918 E47.2893
G1 X102.917 Y67.168 E47.31015
G1 X102.604 Y67.458 E47.33144
G1 X102.375 Y67.728 E47.3491
G1 X102.141 Y68.095 E47.37082
G1 X101.972 Y68.441 E47.39003
G1 X101.845 Y68.83 E47.41044
G1 X101.758 Y69.225 E47.43062
G1 X101.733 Y69.616 E47.45017
G1 X101.752 Y70.036 E47.47114
G1 X101.823 Y70.442 E47.49171
G1 X101.944 Y70.837 E47.51232
G1 X102.12 Y71.22 E47.53335
G1 X102.329 Y71.562 E47.55334
G1 X102.612 Y71.909 E47.57568
G1 X102.904 Y72.166 E47.59509
G1 X103.233 Y72.418 E47.61576
G1 X103.609 Y72.624 E47.63715
G1 X103.994 Y72.77 E47.6577
G1 X104.358 Y72.865 E47.67646
G1 X104.763 Y72.919 E47.69685
G1 X105.189 Y72.919 E47.7181
G1 X105.586 Y72.867 E47.73808
G1 X105.971 Y72.771 E47.75787
G1 X106.356 Y72.617 E47.77856
G1 X106.736 Y72.414 E47.80005
G1 X107.062 Y72.167 E47.82046
G1 X107.35 Y71.902 E47.83999
G1 X107.624 Y71.571 E47.86142
G1 X107.849 Y71.203 E47.88294
G1 X108.027 Y70.8 E47.90492
G1 X108.133 Y70.449 E47.92321
G1 X108.201 Y70.118 E47.94007
G1 X108.223 Y69.629 E47.96449
G1 X108.202 Y69.262 E47.98283
G1 X108.134 Y68.889 E48.00175
G0 F3600 X113.648 Y113.008
G1 F900 X113.073 Y113.168 E48.03153
G1 X112.44 Y113.513 E48.06749
G1 X112.048 Y113.932 E48.09612
G1 X111.741 Y114.355 E48.12219
G1 X111.561 Y114.927 E48.15211
G1 X111.505 Y115.332 E48.17251
G1 X111.505 Y115.807 E48.19621
G1 X111.52 Y115.863 E48.1991
G1 X111.52 Y116.109 E48.21137
G1 X111.807 Y116.701 E48.2442
G1 X112.073 Y117.127 E48.26925
G1 X112.496 Y117.503 E48.29749
G1 X112.886 Y117.743 E48.32033
G1 X113.356 Y117.925 E48.34548
G1 X113.796 Y117.995 E48.36771
G1 X114.239 Y117.995 E48.38981
G1 X115.652 Y117.708 E48.46174
G1 X116.03 Y117.368 E48.48711
G1 X116.409 Y116.157 E48.55041
G1 X116.491 Y115.81 E48.5682
G1 X116.491 Y115.581 E48.57963
G1 X116.506 Y115.223 E48.5975
G1 X116.369 Y114.705 E48.62423
G1 X115.995 Y113.722 E48.67671
G1 X114.937 Y113.181 E48.73599
G1 X114.44 Y113.026 E48.76196
G1 X114.015 Y113.008 E48.78319
G1 X113.648 Y113.008 E48.8015
G0 F3600 X113.395 Y172.634
G1 F900 X112.888 Y172.792 E48.82799
G1 X111.842 Y174.228 E48.91662
G1 X111.764 Y174.394 E48.92577
G1 X111.763 Y174.394 E48.92582
G1 X111.534 Y174.815 E48.94973
G1 X111.506 Y175.439 E48.9809
G1 X111.506 Y176.329 E49.0253
G1 X113.007 Y178.329 E49.15005
G1 X113.529 Y178.462 E49.17693
G1 X115.226 Y177.684 E49.27007
G1 X115.774 Y177.309 E49.3032
G1 X116.174 Y176.734 E49.33814
G1 X116.342 Y176.365 E49.35837
G1 X116.821 Y174.789 E49.44055
G1 X116.646 Y174.289 E49.46698
G1 X115.357 Y173.398 E49.54515
G1 X115.036 Y173.219 E49.56349
G1 X113.395 Y172.634 E49.6504
G1 F1500 E43.1504
G0 F3600 X112.326 Y173.29
G1 F1500 E49.6504
G1 F900 X100.659 Y173.29 E50.23247
G1 F1500 E43.73247
G0 F3600 X100.659 Y170.624
G1 F1500 E50.23247
G1 F900 X127.339 Y170.624 E51.56354
G1 F1500 E45.06354
G0 F3600 X127.339 Y167.958
G1 F1500 E51.56354
G1 F900 X100.659 Y167.958 E52.89461
G1 F1500 E46.39461
G0 F3600 X100.659 Y165.292
G1 F1500 E52.89461
G1 F900 X127.339 Y165.292 E54.22569
G1 F1500 E47.72569
G0 F3600 X127.339 Y162.626
G1 F1500 E54.22569
G1 F900 X100.659 Y162.626 E55.55676
G1 F1500 E49.05676
G0 F3600 X100.659 Y159.96
G1 F1500 E55.55676
G1 F900 X127.339 Y159.96 E56.88783
G1 F1500 E50.38783
G0 F3600 X127.339 Y157.294
G1 F1500 E56.88783
G1 F900 X100.659 Y157.294 E58.2189
G1 F1500 E51.7189
G0 F3600 X100.659 Y154.628
G1 F1500 E58.2189
G1 F900 X127.339 Y154.628 E59.54997
G1 F1500 E53.04997
G0 F3600 X127.339 Y151.962
G1 F1500 E59.54997
G1 F900 X100.659 Y151.962 E60.88104
G1 F1500 E54.38104
G0 F3600 X100.659 Y149.296
G1 F1500 E60.88104
G1 F900 X127.339 Y149.296 E62.21211
G1 F1500 E55.71211
G0 F3600 X127.339 Y146.63
G1 F1500 E62.21211
G1 F900 X100.659 Y146.63 E63.54318
G1 F1500 E57.04318
G0 F3600 X100.659 Y143.964
G1 F1500 E63.54318
G1 F900 X127.339 Y143.964 E64.87425
G1 F1500 E58.37425
G0 F3600 X127.339 Y141.298
G1 F1500 E64.87425
G1 F900 X100.659 Y141.298 E66.20532
G1 F1500 E59.70532
G0 F3600 X100.659 Y138.632
G1 F1500 E66.20532
G1 F900 X127.339 Y138.632 E67.53639
G1 F1500 E61.03639
G0 F3600 X127.339 Y135.966
G1 F1500 E67.53639
G1 F900 X100.659 Y135.966 E68.86746
G1 F1500 E62.36746
G0 F3600 X100.659 Y133.3
G1 F1500 E68.86746
G1 F900 X127.339 Y133.3 E70.19853
G1 F1500 E63.69853
G0 F3600 X127.339 Y130.634
G1 F1500 E70.19853
G1 F900 X100.659 Y130.634 E71.5296
G1 F1500 E65.0296
G0 F3600 X100.659 Y127.968
G1 F1500 E71.5296
G1 F900 X127.339 Y127.968 E72.86067
G1 F1500 E66.36067
G0 F3600 X127.339 Y125.302
G1 F1500 E72.86067
G1 F900 X100.659 Y125.302 E74.19174
G1 F1500 E67.69174
G0 F3600 X100.659 Y122.636
G1 F1500 E74.19174
G1 F900 X127.339 Y122.636 E75.52282
G1 F1500 E69.02282
G0 F3600 X127.339 Y119.97
G1 F1500 E75.52282
G1 F900 X100.659 Y119.97 E76.85389
G1 F1500 E70.35389
G0 F3600 X100.66 Y117.304
G1 F1500 E76.85389
G1 F900 X112.031 Y117.304 E77.42119
G0 F3600 X111.972 Y117.253
G1 F900 X111.972 Y173.779 E80.24128
G1 F1500 E73.74128
G0 F3600 X111.345 Y175.956
G1 F1500 E80.24128
G1 F900 X100.659 Y175.956 E80.77441
G1 F1500 E74.27441
G0 F3600 X100.659 Y178.622
G1 F1500 E80.77441
G1 F900 X113.505 Y178.622 E81.4153
G0 F3600 X113.566 Y178.622
G1 F900 X127.339 Y178.622 E82.10243
G1 F1500 E75.60243
G0 F3600 X127.339 Y175.956
G1 F1500 E82.10243
G1 F900 X116.633 Y175.956 E82.63656
G0 F3600 X115.48 Y173.29
G1 F900 X127.339 Y173.29 E83.22821
G0 F3600 X127.339 Y181.288
G1 F900 X100.659 Y181.288 E84.55928
G1 F1500 E78.05928
G0 F3600 X100.659 Y183.954
G1 F1500 E84.55928
G1 F900 X127.339 Y183.954 E85.89035
G1 F1500 E79.39035
G0 F3600 X125.302 Y184.339
G1 F1500 E85.89035
G1 F900 X125.302 Y72.748 E91.45765
G1 F1500 E84.95765
G0 F3600 X126.08 Y71.982
G1 F1500 E91.45765
G1 F900 X144.84 Y71.982 E92.39359
G1 F1500 E85.89359
G0 F3600 X144.84 Y69.316
G1 F1500 E92.39359
G1 F900 X126.832 Y69.316 E93.29201
G1 F1500 E86.79201
G0 F3600 X126.928 Y69.177
G0 X126.685 Y68.23
G0 X126.205 Y67.356
G0 X125.533 Y66.642
G0 X125.368 Y66.65
