;FLAVOR:RepRap
;TIME:1189
;Generated with Cura_SteamEngine 2.3.1
M190 S60
M104 S200
M109 S200
G28 ;Home
G1 Z15.0 F6000 ;Move the platform down 15mm
;Prime the extruder
G92 E0
G1 F200 E3
G92 E0
;LAYER_COUNT:10
;LAYER:0
M107
G1 F1500 E-6.5
G0 F5400 X76.366 Y81.568 Z.3
;TYPE:SKIRT
G1 F1500 E0
G1 F1800 X76.758 Y81.202 E0.02676
G1 X77.2 Y80.898 E0.05352
G1 X77.683 Y80.664 E0.0803
G1 X78.195 Y80.504 E0.10706
G1 X78.724 Y80.421 E0.13377
G1 X79.011 Y80.41 E0.1481
G1 X140.991 Y80.411 E3.2403
G1 X141.526 Y80.451 E3.26706
G1 X142.049 Y80.57 E3.29382
G1 X142.548 Y80.765 E3.32055
G1 X143.013 Y81.033 E3.34733
G1 X143.433 Y81.366 E3.37407
G1 X143.799 Y81.758 E3.40082
G1 X144.102 Y82.2 E3.42756
G1 X144.337 Y82.683 E3.45436
G1 X144.497 Y83.194 E3.48107
G1 X144.58 Y83.724 E3.50784
G1 X144.591 Y84.011 E3.52216
G1 X144.587 Y135.991 E6.11546
G1 X144.547 Y136.526 E6.14222
G1 X144.428 Y137.049 E6.16898
G1 X144.233 Y137.548 E6.19571
G1 X143.965 Y138.013 E6.22249
G1 X143.632 Y138.433 E6.24923
G1 X143.24 Y138.799 E6.27598
G1 X142.798 Y139.103 E6.30275
G1 X142.315 Y139.337 E6.32952
G1 X141.803 Y139.497 E6.35629
G1 X141.273 Y139.58 E6.38305
G1 X140.986 Y139.591 E6.39738
G1 X79.007 Y139.567 E9.48952
G1 X78.472 Y139.527 E9.51629
G1 X77.949 Y139.408 E9.54305
G1 X77.45 Y139.212 E9.5698
G1 X76.985 Y138.945 E9.59655
G1 X76.565 Y138.611 E9.62332
G1 X76.199 Y138.219 E9.65008
G1 X75.896 Y137.777 E9.67681
G1 X75.662 Y137.294 E9.70359
G1 X75.502 Y136.782 E9.73035
G1 X75.419 Y136.252 E9.75711
G1 X75.408 Y135.967 E9.77134
G1 X75.411 Y84.01 E12.36349
G1 X75.451 Y83.475 E12.39025
G1 X75.57 Y82.952 E12.41701
G1 X75.765 Y82.453 E12.44374
G1 X76.033 Y81.988 E12.47052
G1 X76.366 Y81.568 E12.49726
G0 F5400 X76.761 Y81.735
G1 F1800 X77.147 Y81.409 E12.52246
G1 X77.58 Y81.148 E12.54769
G1 X78.049 Y80.958 E12.57293
G1 X78.541 Y80.845 E12.59812
G1 X79.011 Y80.81 E12.62163
G1 X140.991 Y80.811 E15.71383
G1 X141.495 Y80.851 E15.73905
G1 X141.986 Y80.97 E15.76426
G1 X142.453 Y81.165 E15.7895
G1 X142.883 Y81.43 E15.8147
G1 X143.266 Y81.76 E15.83993
G1 X143.592 Y82.147 E15.86517
G1 X143.853 Y82.58 E15.89039
G1 X144.043 Y83.048 E15.91559
G1 X144.156 Y83.541 E15.94083
G1 X144.191 Y84.011 E15.96434
G1 X144.187 Y135.991 E18.55763
G1 X144.147 Y136.495 E18.58286
G1 X144.028 Y136.987 E18.60811
G1 X143.833 Y137.453 E18.63331
G1 X143.568 Y137.883 E18.65851
G1 X143.237 Y138.266 E18.68377
G1 X142.851 Y138.592 E18.70897
G1 X142.418 Y138.853 E18.7342
G1 X141.949 Y139.043 E18.75944
G1 X141.457 Y139.156 E18.78463
G1 X140.986 Y139.191 E18.80819
G1 X79.007 Y139.167 E21.90034
G1 X78.503 Y139.127 E21.92556
G1 X78.011 Y139.008 E21.95081
G1 X77.545 Y138.813 E21.97602
G1 X77.115 Y138.547 E22.00124
G1 X76.732 Y138.217 E22.02646
G1 X76.406 Y137.83 E22.05171
G1 X76.145 Y137.397 E22.07693
G1 X75.956 Y136.928 E22.10216
G1 X75.843 Y136.436 E22.12735
G1 X75.808 Y135.967 E22.15081
G1 X75.811 Y84.01 E24.74295
G1 X75.851 Y83.506 E24.76818
G1 X75.97 Y83.014 E24.79343
G1 X76.165 Y82.548 E24.81863
G1 X76.43 Y82.118 E24.84383
G1 X76.761 Y81.735 E24.86909
G1 F1500 E18.36909
G0 F5400 X79.629 Y83.335
G0 X79.629 Y84.628
G0 X79.671 Y84.67
G0 X79.601 Y84.6
;TYPE:WALL-INNER
G1 F1500 E24.86909
G1 F1800 X140.2 Y84.601 E27.89238
G1 X140.4 Y84.601 E27.90236
G1 X140.4 Y84.801 E27.90882
G1 X140.399 Y135.4 E30.43322
G1 X79.8 Y135.399 E33.45651
G1 X79.6 Y135.399 E33.46649
G1 X79.6 Y135.199 E33.47295
G1 X79.601 Y84.6 E35.99735
G0 F5400 X79.671 Y84.67
G0 X85.923 Y86.596
G0 X86.015 Y86.633
G1 F1800 X85.934 Y86.88 E36.01032
G1 X85.868 Y87.204 E36.02681
G1 X85.852 Y87.461 E36.03966
G1 X85.868 Y87.789 E36.05604
G1 X85.915 Y88.045 E36.06903
G1 X86.011 Y88.357 E36.08531
G1 X86.139 Y88.632 E36.10045
G1 X86.277 Y88.85 E36.11332
G1 X86.486 Y89.109 E36.12992
G1 X86.731 Y89.335 E36.14655
G1 X86.94 Y89.486 E36.15942
G1 X87.198 Y89.627 E36.17408
G1 X87.477 Y89.739 E36.18908
G1 X87.796 Y89.815 E36.20544
G1 X88.056 Y89.848 E36.21852
G1 X88.386 Y89.845 E36.23498
G1 X88.642 Y89.81 E36.24787
G1 X88.932 Y89.736 E36.26281
G1 X89.226 Y89.615 E36.27867
G1 X89.49 Y89.463 E36.29387
G1 X89.699 Y89.312 E36.30673
G1 X89.913 Y89.11 E36.32141
G1 X90.068 Y88.925 E36.33345
G1 X90.258 Y88.638 E36.35062
G1 X90.39 Y88.356 E36.36616
G1 X90.482 Y88.05 E36.3821
G1 X90.534 Y87.795 E36.39508
G1 X90.551 Y87.462 E36.41172
G1 X90.537 Y87.252 E36.42222
G1 X90.478 Y86.924 E36.43885
G1 X90.373 Y86.607 E36.45551
G1 X90.252 Y86.357 E36.46936
G1 X90.115 Y86.14 E36.48217
G1 X89.912 Y85.888 E36.49831
G1 X89.665 Y85.665 E36.51491
G1 X89.455 Y85.514 E36.52782
G1 X89.167 Y85.361 E36.54409
G1 X88.921 Y85.262 E36.55732
G1 X88.601 Y85.188 E36.5737
G1 X88.345 Y85.154 E36.58659
G1 X88.015 Y85.158 E36.60305
G1 X87.753 Y85.192 E36.61623
G1 X87.435 Y85.279 E36.63268
G1 X87.194 Y85.376 E36.64564
G1 X86.906 Y85.54 E36.66218
G1 X86.701 Y85.689 E36.67482
G1 X86.486 Y85.891 E36.68954
G1 X86.323 Y86.091 E36.70241
G1 X86.141 Y86.368 E36.71894
G1 X86.015 Y86.633 E36.73358
G0 F5400 X85.923 Y86.596
G0 X84.843 Y92.875
G0 X84.905 Y92.952
G1 F1800 X80.612 Y113.061 E37.75943
G1 X84.908 Y132.976 E38.77585
G1 X94.142 Y132.865 E39.23657
G1 X98.371 Y113.061 E40.24687
G1 X94.078 Y92.952 E41.27272
G1 X84.905 Y92.952 E41.73036
G0 F5400 X84.843 Y92.875
G0 X93.485 Y92.137
G0 X93.57 Y92.086
G1 F1800 X101.995 Y96.645 E42.20828
G1 X118.129 Y96.622 E43.01321
G1 X126.428 Y92.085 E43.48508
G1 X126.428 Y91.373 E43.52061
G1 X118.007 Y86.768 E43.99945
G1 X101.993 Y86.768 E44.79839
G1 X93.57 Y91.374 E45.27734
G1 X93.57 Y92.086 E45.31286
G0 F5400 X93.485 Y92.137
G0 X94.103 Y92.921
G0 X105.112 Y113.179
G0 X105.198 Y113.229
G1 F1800 X105.198 Y118.771 E45.58935
G1 X109.998 Y121.542 E45.86587
G1 X114.797 Y118.771 E46.14233
G1 X114.797 Y113.23 E46.41878
G1 X109.998 Y110.458 E46.69527
G1 X105.198 Y113.229 E46.97178
G0 F5400 X105.112 Y113.179
G0 X105.164 Y118.791
G0 X107.316 Y124.276
G0 X107.367 Y124.361
G1 F1800 X104.74 Y129.323 E47.25189
G1 X107.369 Y134.24 E47.53006
G1 X112.669 Y134.214 E47.79449
G1 X115.259 Y129.322 E48.07064
G1 X112.633 Y124.361 E48.35069
G1 X107.367 Y124.361 E48.61341
G0 F5400 X107.316 Y124.276
G0 X112.653 Y124.327
G0 X128.866 Y126.187
G0 X128.965 Y126.2
G1 F1800 X128.948 Y126.462 E48.62651
G1 X128.964 Y126.793 E48.64304
G1 X129.015 Y127.048 E48.65601
G1 X129.109 Y127.355 E48.67203
G1 X129.237 Y127.632 E48.68725
G1 X129.373 Y127.848 E48.69999
G1 X129.585 Y128.113 E48.71692
G1 X129.833 Y128.336 E48.73356
G1 X130.038 Y128.485 E48.7462
G1 X130.295 Y128.627 E48.76085
G1 X130.577 Y128.74 E48.77601
G1 X130.895 Y128.814 E48.7923
G1 X131.151 Y128.848 E48.80518
G1 X131.487 Y128.844 E48.82195
G1 X131.739 Y128.81 E48.83463
G1 X132.031 Y128.736 E48.84966
G1 X132.327 Y128.615 E48.86561
G1 X132.591 Y128.461 E48.88086
G1 X132.805 Y128.305 E48.89407
G1 X133.034 Y128.084 E48.90995
G1 X133.201 Y127.884 E48.92295
G1 X133.338 Y127.667 E48.93575
G1 X133.483 Y127.371 E48.9522
G1 X133.575 Y127.086 E48.96714
G1 X133.632 Y126.792 E48.98208
G1 X133.649 Y126.463 E48.99852
G1 X133.631 Y126.204 E49.01147
G1 X133.575 Y125.916 E49.02611
G1 X133.483 Y125.632 E49.041
G1 X133.35 Y125.356 E49.05629
G1 X133.213 Y125.139 E49.06909
G1 X133.011 Y124.891 E49.08505
G1 X132.764 Y124.665 E49.10175
G1 X132.552 Y124.513 E49.11476
G1 X132.264 Y124.359 E49.13106
G1 X132.019 Y124.262 E49.1442
G1 X131.7 Y124.187 E49.16055
G1 X131.445 Y124.154 E49.17338
G1 X131.109 Y124.157 E49.19014
G1 X130.849 Y124.193 E49.20324
G1 X130.534 Y124.278 E49.21952
G1 X130.291 Y124.378 E49.23263
G1 X130.009 Y124.538 E49.2488
G1 X129.8 Y124.689 E49.26167
G1 X129.622 Y124.856 E49.27384
G1 X129.395 Y125.117 E49.2911
G1 X129.236 Y125.375 E49.30622
G1 X129.113 Y125.632 E49.32043
G1 X129.034 Y125.877 E49.33328
G1 X128.965 Y126.2 E49.34976
G0 F5400 X128.866 Y126.187
G0 X127.902 Y120.731
G0 X127.964 Y120.653
G1 F1800 X135.689 Y120.557 E49.73519
G1 X139.161 Y103.792 E50.58934
G1 X135.637 Y86.768 E51.45668
G1 X127.961 Y86.768 E51.83964
G1 X124.435 Y103.792 E52.707
G1 X127.964 Y120.653 E53.56642
G0 F5400 X128.288 Y120.249
;TYPE:WALL-OUTER
G1 F1800 X135.363 Y120.161 E53.91942
G1 X138.753 Y103.792 E54.7534
G1 X135.311 Y87.168 E55.60037
G1 X128.287 Y87.168 E55.9508
G1 X124.844 Y103.792 E56.79777
G1 X128.288 Y120.249 E57.6366
G0 F5400 X128.294 Y120.749
G0 X130.221 Y124.303
G0 X130.466 Y124.738
G1 F1800 X130.226 Y124.875 E57.65039
G1 X130.055 Y124.998 E57.6609
G1 X129.911 Y125.134 E57.67078
G1 X129.718 Y125.355 E57.68542
G1 X129.588 Y125.567 E57.69783
G1 X129.485 Y125.781 E57.70968
G1 X129.421 Y125.98 E57.7201
G1 X129.362 Y126.255 E57.73414
G1 X129.349 Y126.465 E57.74463
G1 X129.362 Y126.744 E57.75857
G1 X129.403 Y126.95 E57.76905
G1 X129.483 Y127.212 E57.78271
G1 X129.589 Y127.44 E57.79526
G1 X129.7 Y127.616 E57.80564
G1 X129.877 Y127.838 E57.8198
G1 X130.085 Y128.025 E57.83376
G1 X130.253 Y128.147 E57.84412
G1 X130.467 Y128.265 E57.85631
G1 X130.697 Y128.357 E57.86867
G1 X130.967 Y128.42 E57.8825
G1 X131.175 Y128.448 E57.89297
G1 X131.458 Y128.444 E57.90709
G1 X131.663 Y128.417 E57.91741
G1 X131.905 Y128.355 E57.92987
G1 X132.15 Y128.255 E57.94307
G1 X132.372 Y128.126 E57.95588
G1 X132.547 Y127.998 E57.9667
G1 X132.741 Y127.811 E57.98014
G1 X132.877 Y127.648 E57.99073
G1 X132.988 Y127.472 E58.00111
G1 X133.111 Y127.221 E58.01506
G1 X133.187 Y126.986 E58.02738
G1 X133.234 Y126.744 E58.03968
G1 X133.248 Y126.466 E58.05357
G1 X133.234 Y126.256 E58.06407
G1 X133.187 Y126.016 E58.07627
G1 X133.111 Y125.781 E58.08859
G1 X133 Y125.55 E58.10138
G1 X132.888 Y125.373 E58.11183
G1 X132.719 Y125.166 E58.12516
G1 X132.512 Y124.976 E58.13918
G1 X132.341 Y124.854 E58.14966
G1 X132.096 Y124.723 E58.16352
G1 X131.899 Y124.645 E58.17409
G1 X131.628 Y124.581 E58.18798
G1 X131.421 Y124.554 E58.19839
G1 X131.139 Y124.557 E58.21246
G1 X130.929 Y124.586 E58.22304
G1 X130.662 Y124.658 E58.23684
G1 X130.466 Y124.738 E58.2474
G0 F5400 X130.221 Y124.303
G0 X131.107 Y124.118
G0 X131.707 Y124.148
G0 X132.28 Y124.323
G0 X132.789 Y124.634
G0 X133.245 Y125.116
G0 X140.329 Y135.33
G0 X140.799 Y135.8
G1 F1800 X79.4 Y135.799 E61.31061
G1 X79.2 Y135.799 E61.32059
G1 X79.2 Y135.599 E61.32705
G1 X79.201 Y84.2 E63.89135
G1 X140.6 Y84.201 E66.95456
G1 X140.8 Y84.201 E66.96454
G1 X140.8 Y84.401 E66.971
G1 X140.799 Y135.8 E69.53531
G0 F5400 X140.329 Y135.33
G0 X115.247 Y129.556
G0 X114.806 Y129.322
G1 F1800 X112.392 Y124.761 E69.79276
G1 X107.608 Y124.761 E70.03144
G1 X105.193 Y129.322 E70.28892
G1 X107.608 Y133.839 E70.54446
G1 X112.428 Y133.815 E70.78493
G1 X114.806 Y129.322 E71.03855
G0 F5400 X115.247 Y129.556
G0 X115.299 Y129.322
G0 X112.653 Y124.327
G0 X109.747 Y121.512
G0 X109.998 Y121.08
G1 F1800 X114.397 Y118.54 E71.29197
G1 X114.397 Y113.461 E71.54536
G1 X109.998 Y110.92 E71.79881
G1 X105.598 Y113.46 E72.05228
G1 X105.598 Y118.54 E72.30572
G1 X109.998 Y121.08 E72.55919
G0 F5400 X109.747 Y121.512
G0 X105.164 Y118.791
G0 X98.45 Y113.165
G0 X97.962 Y113.061
G1 F1800 X93.754 Y93.352 E73.56464
G1 X85.229 Y93.352 E73.98995
G1 X81.021 Y113.061 E74.9954
G1 X85.23 Y132.572 E75.9912
G1 X93.818 Y132.469 E76.41969
G1 X97.962 Y113.061 E77.40978
G0 F5400 X98.45 Y113.165
G0 X94.103 Y92.921
G0 X88.928 Y89.839
G0 X88.806 Y89.355
G1 F1800 X89.05 Y89.255 E77.42294
G1 X89.273 Y89.127 E77.43577
G1 X89.443 Y89.004 E77.44624
G1 X89.621 Y88.835 E77.45848
G1 X89.747 Y88.685 E77.46825
G1 X89.908 Y88.442 E77.4828
G1 X90.015 Y88.213 E77.49541
G1 X90.094 Y87.952 E77.50901
G1 X90.136 Y87.745 E77.51955
G1 X90.15 Y87.465 E77.53354
G1 X90.139 Y87.301 E77.54174
G1 X90.089 Y87.023 E77.55583
G1 X90.001 Y86.757 E77.56981
G1 X89.902 Y86.551 E77.58121
G1 X89.789 Y86.373 E77.59173
G1 X89.621 Y86.164 E77.60511
G1 X89.413 Y85.977 E77.61906
G1 X89.243 Y85.854 E77.62953
G1 X88.998 Y85.724 E77.64337
G1 X88.801 Y85.645 E77.65396
G1 X88.529 Y85.582 E77.66789
G1 X88.321 Y85.554 E77.67836
G1 X88.043 Y85.558 E77.69223
G1 X87.832 Y85.585 E77.70284
G1 X87.563 Y85.659 E77.71676
G1 X87.368 Y85.737 E77.72724
G1 X87.124 Y85.876 E77.74125
G1 X86.957 Y85.998 E77.75157
G1 X86.779 Y86.165 E77.76374
G1 X86.646 Y86.328 E77.77424
G1 X86.49 Y86.565 E77.78839
G1 X86.387 Y86.782 E77.80038
G1 X86.321 Y86.982 E77.81088
G1 X86.266 Y87.256 E77.82483
G1 X86.253 Y87.464 E77.83522
G1 X86.266 Y87.743 E77.84916
G1 X86.304 Y87.95 E77.85966
G1 X86.385 Y88.213 E77.87339
G1 X86.491 Y88.44 E77.88589
G1 X86.603 Y88.617 E77.89634
G1 X86.779 Y88.835 E77.91032
G1 X86.985 Y89.025 E77.9243
G1 X87.154 Y89.147 E77.9347
G1 X87.369 Y89.265 E77.94693
G1 X87.598 Y89.357 E77.95924
G1 X87.868 Y89.421 E77.97309
G1 X88.079 Y89.448 E77.9837
G1 X88.357 Y89.445 E77.99757
G1 X88.565 Y89.417 E78.00804
G1 X88.806 Y89.355 E78.02046
G0 F5400 X88.928 Y89.839
G0 X93.47 Y91.611
G0 X93.97 Y91.611
G1 F1800 X93.97 Y91.848 E78.03228
G1 X94.101 Y91.918 E78.03969
G1 X102.096 Y96.245 E78.49323
G1 X118.027 Y96.222 E79.28803
G1 X125.899 Y91.918 E79.73564
G1 X126.028 Y91.848 E79.74296
G1 X126.028 Y91.61 E79.75483
G1 X125.899 Y91.539 E79.76218
G1 X117.905 Y87.168 E80.21673
G1 X102.095 Y87.168 E81.00549
G1 X94.1 Y91.54 E81.46011
G1 X93.97 Y91.611 E81.4675
G0 F5400 X93.389 Y91.692
;TYPE:SKIN
G1 F1800 X90.417 Y88.719 E81.67722
G0 X90.347 Y88.649
G0 F5400 X90.19 Y89.058
G1 F1800 X93.903 Y92.771 E81.9392
G0 X93.973 Y92.841
G0 F5400 X93.337 Y92.771
G1 F1800 X89.917 Y89.352 E82.18046
G0 X89.847 Y89.282
G0 F5400 X89.603 Y89.603
G1 F1800 X92.771 Y92.771 E82.40398
G0 X92.841 Y92.841
G0 F5400 X92.206 Y92.771
G1 F1800 X89.238 Y89.803 E82.61339
G0 X89.168 Y89.733
G0 F5400 X88.818 Y89.95
G1 F1800 X91.64 Y92.771 E82.81246
G0 X91.71 Y92.841
G0 F5400 X91.074 Y92.771
G1 F1800 X88.328 Y90.025 E83.00621
G0 X88.258 Y89.955
G0 F5400 X87.718 Y89.981
G1 F1800 X90.508 Y92.771 E83.20306
G0 X90.578 Y92.841
G0 F5400 X89.943 Y92.771
G1 F1800 X86.718 Y89.546 E83.4306
G0 X86.648 Y89.476
G0 F5400 X86.154 Y88.983
G1 F1800 X81.951 Y84.779 E83.72718
G0 X81.881 Y84.709
G0 F5400 X82.517 Y84.779
G1 F1800 X85.721 Y87.983 E83.95324
G0 X85.791 Y88.053
G0 F5400 X85.677 Y87.374
G1 F1800 X83.082 Y84.779 E84.13633
G0 X83.012 Y84.709
G0 F5400 X83.648 Y84.779
G1 F1800 X85.75 Y86.881 E84.28463
G0 X85.82 Y86.951
G0 F5400 X85.897 Y86.462
G1 F1800 X84.214 Y84.779 E84.40338
G0 X84.144 Y84.709
G0 F5400 X84.779 Y84.779
G1 F1800 X86.101 Y86.101 E84.49665
G0 X86.171 Y86.171
G0 F5400 X86.344 Y85.779
G1 F1800 X85.345 Y84.779 E84.56717
G0 X85.275 Y84.709
G0 F5400 X85.911 Y84.779
G1 F1800 X86.641 Y85.509 E84.61868
G0 X86.711 Y85.579
G0 F5400 X86.73 Y85.033
G1 F1800 X87.207 Y84.944 E84.64821
G1 X87.718 Y84.889 E84.66764
G1 X88.271 Y84.877 E84.68226
G1 X88.919 Y84.959 E84.70181
G0 F5400 X89.305 Y84.779
G1 F1800 X94.943 Y90.417 E85.09961
G0 X95.013 Y90.487
G0 F5400 X95.308 Y90.217
G1 F1800 X89.871 Y84.779 E85.48325
G0 X89.801 Y84.709
G0 F5400 X90.436 Y84.779
G1 F1800 X95.674 Y90.017 E85.85282
G0 X95.744 Y90.087
G0 F5400 X96.039 Y89.817
G1 F1800 X91.002 Y84.779 E86.20824
G0 X90.932 Y84.709
G0 F5400 X91.568 Y84.779
G1 F1800 X96.405 Y89.617 E86.54955
G0 X96.475 Y89.687
G0 F5400 X96.771 Y89.417
G1 F1800 X92.133 Y84.779 E86.87679
G0 X92.063 Y84.709
G0 F5400 X92.699 Y84.779
G1 F1800 X97.137 Y89.217 E87.18992
G0 X97.207 Y89.287
G0 F5400 X97.502 Y89.017
G1 F1800 X93.265 Y84.779 E87.48889
G0 X93.195 Y84.709
G0 F5400 X93.83 Y84.779
G1 F1800 X97.868 Y88.817 E87.7738
G0 X97.938 Y88.887
G0 F5400 X98.234 Y88.618
G1 F1800 X94.396 Y84.779 E88.04462
G0 X94.326 Y84.709
G0 F5400 X94.962 Y84.779
G1 F1800 X98.6 Y88.418 E88.30134
G0 X98.67 Y88.488
G0 F5400 X98.965 Y88.217
G1 F1800 X95.528 Y84.779 E88.54387
G0 X95.458 Y84.709
G0 F5400 X96.093 Y84.779
G1 F1800 X99.331 Y88.017 E88.77233
G0 X99.401 Y88.087
G0 F5400 X99.697 Y87.817
G1 F1800 X96.659 Y84.779 E88.98668
G0 X96.589 Y84.709
G0 F5400 X97.225 Y84.779
G1 F1800 X100.063 Y87.618 E89.18695
G0 X100.133 Y87.688
G0 F5400 X100.428 Y87.418
G1 F1800 X97.79 Y84.779 E89.37311
G0 X97.72 Y84.709
G0 F5400 X98.356 Y84.779
G1 F1800 X100.794 Y87.218 E89.54516
G0 X100.864 Y87.288
G0 F5400 X101.16 Y87.017
G1 F1800 X98.922 Y84.779 E89.70306
G0 X98.852 Y84.709
G0 F5400 X99.487 Y84.779
G1 F1800 X101.525 Y86.817 E89.84686
G0 X101.595 Y86.887
G0 F5400 X101.891 Y86.618
G1 F1800 X100.053 Y84.779 E89.97657
G0 X99.983 Y84.709
G0 F5400 X100.619 Y84.779
