;FLAVOR:RepRap
;TIME:9023
;Generated with Cura_SteamEngine 2.3.1
M190 S60
M104 S200
M109 S200
G28 ;Home
G1 Z15.0 F6000 ;Move the platform down 15mm
;Prime the extruder
G92 E0
G1 F200 E3
G92 E0
;LAYER_COUNT:55
;LAYER:0
M107
G1 F1500 E-6.5
G0 F5400 X94.281 Y37.509 Z.3
;TYPE:SKIRT
G1 F1500 E0
G1 F1800 X94.476 Y37.042 E0.02525
G1 X94.742 Y36.612 E0.05047
G1 X95.053 Y36.249 E0.07432
G1 X95.233 Y36.068 E0.08706
G1 X95.617 Y35.738 E0.11232
G1 X96.047 Y35.474 E0.13749
G1 X96.515 Y35.28 E0.16277
G1 X97.006 Y35.163 E0.18795
G1 X97.502 Y35.124 E0.21277
G1 X122.491 Y35.123 E1.45948
G1 X122.995 Y35.163 E1.4847
G1 X123.486 Y35.282 E1.50991
G1 X123.953 Y35.476 E1.53513
G1 X124.383 Y35.742 E1.56036
G1 X124.716 Y36.023 E1.5821
G1 X124.902 Y36.203 E1.59501
G1 X125.237 Y36.583 E1.62028
G1 X125.507 Y37.01 E1.64549
G1 X125.707 Y37.474 E1.6707
G1 X125.831 Y37.964 E1.69591
G1 X125.877 Y38.499 E1.7227
G1 X125.928 Y76.926 E3.63984
G1 X126.238 Y82.391 E3.91292
G1 X126.856 Y87.843 E4.18667
G1 X127.787 Y93.267 E4.46123
G1 X128.347 Y95.87 E4.59407
G1 X129.003 Y98.546 E4.73152
G1 X130.54 Y103.837 E5.00641
G1 X132.356 Y108.982 E5.27861
G1 X134.471 Y114.039 E5.55208
G1 X136.865 Y118.965 E5.82533
G1 X139.531 Y123.739 E6.09812
G1 X142.773 Y128.809 E6.39836
G1 X143.086 Y129.444 E6.43368
G1 X143.192 Y129.737 E6.44923
G1 X143.326 Y130.225 E6.47447
G1 X143.383 Y130.826 E6.50459
G1 X143.378 Y181.494 E9.03243
G1 X143.338 Y181.998 E9.05765
G1 X143.219 Y182.49 E9.08291
G1 X143.024 Y182.956 E9.10811
G1 X142.759 Y183.386 E9.13331
G1 X142.531 Y183.663 E9.15121
G1 X142.472 Y183.727 E9.15555
G1 X142.344 Y183.858 E9.16469
G1 X142.221 Y183.977 E9.17323
G1 X141.831 Y184.299 E9.19846
G1 X141.395 Y184.555 E9.22368
G1 X140.925 Y184.739 E9.24886
G1 X140.431 Y184.847 E9.27409
G1 X139.996 Y184.877 E9.29584
G1 X80.006 Y184.877 E12.28876
G1 X79.502 Y184.837 E12.31398
G1 X79.011 Y184.718 E12.33919
G1 X78.544 Y184.524 E12.36442
G1 X78.114 Y184.258 E12.38964
G1 X77.834 Y184.027 E12.40775
G1 X77.768 Y183.966 E12.41224
G1 X77.649 Y183.85 E12.42053
G1 X77.531 Y183.729 E12.42896
G1 X77.208 Y183.34 E12.45418
G1 X76.95 Y182.906 E12.47937
G1 X76.763 Y182.436 E12.50461
G1 X76.653 Y181.942 E12.52986
G1 X76.622 Y181.495 E12.55221
G1 X76.622 Y130.692 E15.08678
G1 X76.662 Y130.188 E15.11201
G1 X76.781 Y129.697 E15.13721
G1 X76.975 Y129.23 E15.16244
G1 X77.136 Y128.952 E15.17847
G1 X79.789 Y124.856 E15.42194
G1 X82.52 Y120.116 E15.69486
G1 X84.988 Y115.21 E15.96885
G1 X87.17 Y110.181 E16.24235
G1 X88.155 Y107.623 E16.3791
G1 X89.051 Y105.076 E16.5138
G1 X90.655 Y99.823 E16.78782
G1 X91.958 Y94.491 E17.06167
G1 X92.488 Y91.833 E17.19688
G1 X93.335 Y86.415 E17.47047
G1 X93.876 Y80.928 E17.74555
G1 X94.027 Y78.231 E17.88031
G1 X94.112 Y74.167 E18.08311
G1 X94.122 Y38.504 E19.86234
G1 X94.162 Y38 E19.88757
G1 X94.281 Y37.509 E19.91277
G0 F5400 X96.46 Y129.162
;TYPE:SUPPORT
G1 F1800 X96.88 Y129.347 E19.93567
G1 X96.912 Y129.395 E19.93855
G1 X96.912 Y130.004 E19.96893
G1 X96.843 Y130.011 E19.97239
G1 X96.77 Y130.012 E19.97603
G1 X96.557 Y130.002 E19.98667
G1 X96.437 Y129.974 E19.99282
G1 X96.417 Y129.956 E19.99416
G1 X96.401 Y129.928 E19.99577
G1 X96.232 Y129.756 E20.0078
G1 X96.093 Y129.658 E20.01629
G1 X96.232 Y129.573 E20.02441
G1 X96.46 Y129.162 E20.04786
G1 F1500 E13.54786
G0 F5400 X96.181 Y129.397
G0 X96.12 Y129.449
G0 X90.325 Y134.36
G0 X90.264 Y134.412
G0 X90.265 Y134.413
G0 X90.482 Y134.26
G1 F1500 E20.04786
G1 F1800 X90.649 Y134.524 E20.06345
G1 X90.777 Y134.797 E20.07849
G1 X90.872 Y135.086 E20.09367
G1 X90.929 Y135.387 E20.10895
G1 X90.948 Y135.699 E20.12455
G1 X90.929 Y136.012 E20.14019
G1 X90.872 Y136.312 E20.15543
G1 X90.777 Y136.601 E20.1706
G1 X90.647 Y136.877 E20.18582
G1 X90.485 Y137.136 E20.20106
G1 X90.283 Y137.379 E20.21683
G1 X90.064 Y137.582 E20.23173
G1 X89.805 Y137.772 E20.24775
G1 X89.552 Y137.911 E20.26216
G1 X89.258 Y138.028 E20.27794
G1 X88.944 Y138.108 E20.29411
G1 X88.665 Y138.144 E20.30814
G1 X88.336 Y138.144 E20.32456
G1 X88.057 Y138.108 E20.33859
G1 X87.743 Y138.028 E20.35476
G1 X87.449 Y137.911 E20.37054
G1 X87.196 Y137.772 E20.38495
G1 X86.937 Y137.582 E20.40097
G1 X86.718 Y137.379 E20.41587
G1 X86.516 Y137.136 E20.43163
G1 X86.354 Y136.877 E20.44687
G1 X86.224 Y136.601 E20.4621
G1 X86.129 Y136.312 E20.47727
G1 X86.072 Y136.012 E20.49251
G1 X86.053 Y135.699 E20.50815
G1 X86.072 Y135.387 E20.52375
G1 X86.129 Y135.086 E20.53903
G1 X86.224 Y134.797 E20.55421
G1 X86.352 Y134.524 E20.56925
G1 X86.519 Y134.26 E20.58484
G1 X86.718 Y134.019 E20.60043
G1 X86.937 Y133.817 E20.61529
G1 X87.196 Y133.627 E20.63132
G1 X87.449 Y133.488 E20.64572
G1 X87.743 Y133.371 E20.66151
G1 X88.057 Y133.291 E20.67767
G1 X88.336 Y133.255 E20.69171
G1 X88.665 Y133.255 E20.70812
G1 X88.944 Y133.291 E20.72216
G1 X89.258 Y133.371 E20.73832
G1 X89.552 Y133.488 E20.75411
G1 X89.805 Y133.627 E20.76851
G1 X90.064 Y133.817 E20.78454
G1 X90.283 Y134.019 E20.7994
G1 X90.482 Y134.26 E20.81499
G0 F5400 X90.644 Y134.907
G1 F1800 X90.644 Y136.493 E20.89412
G0 F5400 X90.771 Y135.966
G1 F1800 X86.227 Y135.966 E21.12082
G1 F1500 E14.62082
G0 F5400 X87.978 Y137.922
G1 F1500 E21.12082
G1 F1800 X87.978 Y133.476 E21.34263
G1 F1500 E14.84263
G0 F5400 X88.36 Y133.519
G0 X88.627 Y133.486
G0 X88.706 Y133.477
G0 X123.274 Y129.393
G0 X123.353 Y129.384
G0 X123.353 Y129.385
G0 X123.089 Y129.386
G1 F1500 E21.34263
G1 F1800 X123.118 Y129.347 E21.34506
G1 X123.525 Y129.169 E21.36722
G1 X123.525 Y129.333 E21.3754
G1 X123.857 Y129.751 E21.40203
G1 X123.575 Y129.987 E21.42038
G1 X123.444 Y130.01 E21.42701
G1 X123.089 Y130.017 E21.44473
G1 X123.089 Y129.386 E21.47621
G1 F1500 E14.97621
G0 F5400 X123.342 Y129.76
G0 X123.339 Y129.747
G0 X123.353 Y129.826
G0 X131.082 Y170.974
G0 X131.097 Y171.053
G0 X131.098 Y171.053
G0 X131.056 Y170.791
G1 F1500 E21.47621
G1 F1800 X131.335 Y170.755 E21.49024
G1 X131.664 Y170.755 E21.50666
G1 X131.943 Y170.791 E21.52069
G1 X132.257 Y170.871 E21.53686
G1 X132.551 Y170.988 E21.55264
G1 X132.804 Y171.127 E21.56705
G1 X133.063 Y171.317 E21.58307
G1 X133.282 Y171.519 E21.59794
G1 X133.481 Y171.76 E21.61353
G1 X133.648 Y172.024 E21.62911
G1 X133.776 Y172.297 E21.64416
G1 X133.871 Y172.586 E21.65933
G1 X133.928 Y172.886 E21.67457
G1 X133.946 Y173.199 E21.69021
G1 X133.928 Y173.513 E21.7059
G1 X133.871 Y173.812 E21.72109
G1 X133.776 Y174.101 E21.73626
G1 X133.646 Y174.377 E21.75148
G1 X133.484 Y174.636 E21.76673
G1 X133.282 Y174.879 E21.78249
G1 X133.063 Y175.082 E21.79739
G1 X132.804 Y175.272 E21.81341
G1 X132.551 Y175.411 E21.82782
G1 X132.257 Y175.528 E21.8436
G1 X131.943 Y175.608 E21.85977
G1 X131.664 Y175.644 E21.8738
G1 X131.335 Y175.644 E21.89022
G1 X131.056 Y175.608 E21.90425
G1 X130.742 Y175.528 E21.92042
G1 X130.448 Y175.411 E21.9362
G1 X130.195 Y175.272 E21.95061
G1 X129.936 Y175.082 E21.96663
G1 X129.717 Y174.879 E21.98153
G1 X129.515 Y174.636 E21.99729
G1 X129.353 Y174.377 E22.01254
G1 X129.223 Y174.101 E22.02776
G1 X129.128 Y173.812 E22.04293
G1 X129.071 Y173.513 E22.05812
G1 X129.053 Y173.199 E22.07381
G1 X129.071 Y172.886 E22.08945
G1 X129.128 Y172.586 E22.10469
G1 X129.223 Y172.297 E22.11986
G1 X129.351 Y172.024 E22.13491
G1 X129.518 Y171.76 E22.15049
G1 X129.717 Y171.519 E22.16608
G1 X129.936 Y171.317 E22.18095
G1 X130.195 Y171.127 E22.19697
G1 X130.448 Y170.988 E22.21138
G1 X130.742 Y170.871 E22.22716
G1 X131.056 Y170.791 E22.24333
G0 F5400 X130.634 Y171.086
G1 F1800 X130.634 Y175.312 E22.45416
G1 F1500 E15.95416
G0 F5400 X129.216 Y173.29
G1 F1500 E22.45416
G1 F1800 X133.781 Y173.29 E22.68191
G1 F1500 E16.18191
G0 F5400 X133.3 Y174.608
G1 F1500 E22.68191
G1 F1800 X133.3 Y171.792 E22.8224
G1 F1500 E16.3224
G0 F5400 X134.224 Y171.028
G0 X134.371 Y171.112
G0 X134.291 Y171.17
;TYPE:WALL-INNER
G1 F1500 E22.8224
G1 F1800 X134.015 Y170.837 E22.84398
G1 X133.7 Y170.541 E22.86555
G1 X133.349 Y170.286 E22.88719
G1 X132.969 Y170.077 E22.90883
G1 X132.566 Y169.917 E22.93046
G1 X132.147 Y169.809 E22.95205
G1 X131.716 Y169.755 E22.97372
G1 X131.283 Y169.755 E22.99532
G1 X130.852 Y169.809 E23.01699
G1 X130.433 Y169.917 E23.03858
G1 X130.03 Y170.077 E23.06021
G1 X129.65 Y170.286 E23.08185
G1 X129.299 Y170.541 E23.10349
G1 X128.984 Y170.837 E23.12506
G1 X128.708 Y171.17 E23.14664
G1 X128.475 Y171.536 E23.16828
G1 X128.291 Y171.929 E23.18993
G1 X128.157 Y172.341 E23.21155
G1 X128.075 Y172.767 E23.23319
G1 X128.049 Y173.199 E23.25478
G1 X128.075 Y173.632 E23.27642
G1 X128.157 Y174.058 E23.29807
G1 X128.291 Y174.471 E23.31973
G1 X128.475 Y174.861 E23.34124
G1 X128.708 Y175.229 E23.36297
G1 X128.984 Y175.562 E23.38455
G1 X129.299 Y175.858 E23.40612
G1 X129.65 Y176.113 E23.42776
G1 X130.03 Y176.322 E23.4494
G1 X130.433 Y176.482 E23.47103
G1 X130.852 Y176.59 E23.49262
G1 X131.283 Y176.644 E23.51429
G1 X131.716 Y176.644 E23.53589
G1 X132.147 Y176.59 E23.55756
G1 X132.566 Y176.482 E23.57915
G1 X132.969 Y176.322 E23.60078
G1 X133.349 Y176.113 E23.62242
G1 X133.7 Y175.858 E23.64406
G1 X134.015 Y175.562 E23.66563
G1 X134.291 Y175.229 E23.6872
G1 X134.524 Y174.861 E23.70894
G1 X134.708 Y174.471 E23.73045
G1 X134.842 Y174.058 E23.75211
G1 X134.924 Y173.632 E23.77375
G1 X134.95 Y173.199 E23.7954
G1 X134.924 Y172.767 E23.81699
G1 X134.842 Y172.341 E23.83863
G1 X134.708 Y171.929 E23.86025
G1 X134.524 Y171.536 E23.88189
G1 X134.291 Y171.17 E23.90354
G0 F5400 X134.371 Y171.112
G0 X139.518 Y181.017
G0 X139.588 Y181.087
G1 F1800 X80.412 Y181.087 E26.85584
G1 X80.411 Y131.299 E29.33978
G1 X80.411 Y131.099 E29.34975
G1 X80.611 Y131.099 E29.35622
G1 X95.748 Y131.099 E30.1114
G1 X95.918 Y130.834 E30.12711
G1 X95.949 Y130.854 E30.12895
G1 X96.111 Y130.926 E30.1378
G1 X96.423 Y130.997 E30.15376
G1 X96.738 Y131.012 E30.16949
G1 X96.904 Y131.011 E30.17778
G1 X97.587 Y130.938 E30.21204
G1 X97.867 Y130.609 E30.2336
G1 X97.912 Y130.367 E30.24588
G1 X97.912 Y38.913 E34.80854
G1 X122.088 Y38.913 E36.01468
G1 X122.089 Y130.377 E40.57784
G1 X122.182 Y130.786 E40.59877
G1 X122.688 Y131.038 E40.62697
G1 X123.047 Y131.018 E40.64491
G1 X123.536 Y131.009 E40.66931
G1 X124.012 Y130.927 E40.6934
G1 X124.029 Y130.913 E40.6945
G1 X124.041 Y130.95 E40.6952
G1 X124.134 Y130.968 E40.69993
G1 X124.193 Y131.099 E40.70709
G1 X139.588 Y131.099 E41.47515
G1 X139.588 Y181.087 E43.96906
G0 F5400 X139.518 Y181.017
G0 X129.629 Y176.146
G0 X112.804 Y164.042
G0 X112.717 Y163.994
G1 F1800 X112.883 Y163.641 E43.98853
G1 X113.003 Y163.271 E44.00793
G1 X113.077 Y162.888 E44.02739
G1 X113.101 Y162.499 E44.04684
G1 X113.077 Y162.111 E44.06623
G1 X113.003 Y161.728 E44.08569
G1 X112.883 Y161.358 E44.1051
G1 X112.717 Y161.005 E44.12456
G1 X112.508 Y160.676 E44.14401
G1 X112.26 Y160.377 E44.16339
G1 X111.976 Y160.109 E44.18287
G1 X111.66 Y159.881 E44.20231
G1 X111.32 Y159.694 E44.22167
G1 X110.958 Y159.55 E44.2411
G1 X110.581 Y159.453 E44.26053
G1 X110.194 Y159.404 E44.27999
G1 X109.806 Y159.404 E44.29934
G1 X109.419 Y159.453 E44.31881
G1 X109.042 Y159.55 E44.33823
G1 X108.68 Y159.694 E44.35766
G1 X108.34 Y159.881 E44.37702
G1 X108.024 Y160.109 E44.39646
G1 X107.74 Y160.377 E44.41595
G1 X107.492 Y160.676 E44.43533
G1 X107.283 Y161.005 E44.45477
G1 X107.117 Y161.358 E44.47423
G1 X106.997 Y161.728 E44.49364
G1 X106.923 Y162.111 E44.5131
G1 X106.899 Y162.499 E44.53249
G1 X106.923 Y162.888 E44.55194
G1 X106.997 Y163.271 E44.5714
G1 X107.117 Y163.641 E44.59081
G1 X107.283 Y163.994 E44.61027
G1 X107.492 Y164.323 E44.62971
G1 X107.74 Y164.622 E44.64909
G1 X108.024 Y164.89 E44.66858
G1 X108.34 Y165.118 E44.68802
G1 X108.68 Y165.305 E44.70737
G1 X109.042 Y165.449 E44.72681
G1 X109.419 Y165.546 E44.74623
G1 X109.806 Y165.595 E44.76569
G1 X110.194 Y165.595 E44.78505
G1 X110.581 Y165.546 E44.80451
G1 X110.958 Y165.449 E44.82393
G1 X111.32 Y165.305 E44.84337
G1 X111.66 Y165.118 E44.86273
G1 X111.976 Y164.89 E44.88217
G1 X112.26 Y164.622 E44.90165
G1 X112.508 Y164.323 E44.92103
G1 X112.717 Y163.994 E44.94048
G0 F5400 X112.804 Y164.042
G0 X113.116 Y162.893
G0 X113.116 Y162.106
G0 X112.92 Y161.344
G0 X112.54 Y160.653
G0 X90.764 Y138.435
G0 X90.701 Y138.358
G1 F1800 X91.016 Y138.062 E44.96204
G1 X91.292 Y137.729 E44.98362
G1 X91.525 Y137.361 E45.00535
G1 X91.709 Y136.971 E45.02687
G1 X91.843 Y136.558 E45.04853
G1 X91.925 Y136.132 E45.07017
G1 X91.952 Y135.699 E45.09182
G1 X91.925 Y135.267 E45.11341
G1 X91.843 Y134.841 E45.13505
G1 X91.709 Y134.429 E45.15667
G1 X91.525 Y134.036 E45.17832
G1 X91.292 Y133.67 E45.19996
G1 X91.016 Y133.337 E45.22154
G1 X90.701 Y133.041 E45.24311
G1 X90.35 Y132.786 E45.26475
G1 X89.97 Y132.577 E45.28639
G1 X89.567 Y132.417 E45.30802
G1 X89.148 Y132.309 E45.32961
G1 X88.717 Y132.255 E45.35128
G1 X88.284 Y132.255 E45.37288
G1 X87.853 Y132.309 E45.39455
G1 X87.434 Y132.417 E45.41614
G1 X87.031 Y132.577 E45.43777
G1 X86.651 Y132.786 E45.45941
G1 X86.3 Y133.041 E45.48105
G1 X85.985 Y133.337 E45.50262
G1 X85.709 Y133.67 E45.5242
G1 X85.476 Y134.036 E45.54584
G1 X85.292 Y134.429 E45.56749
G1 X85.158 Y134.841 E45.58911
G1 X85.076 Y135.267 E45.61075
G1 X85.049 Y135.699 E45.63234
G1 X85.076 Y136.132 E45.65399
G1 X85.158 Y136.558 E45.67563
G1 X85.292 Y136.971 E45.69729
G1 X85.476 Y137.361 E45.71881
G1 X85.709 Y137.729 E45.74054
G1 X85.985 Y138.062 E45.76212
G1 X86.3 Y138.358 E45.78368
G1 X86.651 Y138.613 E45.80533
G1 X87.031 Y138.822 E45.82696
G1 X87.434 Y138.982 E45.8486
G1 X87.853 Y139.09 E45.87018
G1 X88.284 Y139.144 E45.89185
G1 X88.717 Y139.144 E45.91346
G1 X89.148 Y139.09 E45.93513
G1 X89.567 Y138.982 E45.95671
G1 X89.97 Y138.822 E45.97835
G1 X90.35 Y138.613 E45.99998
G1 X90.701 Y138.358 E46.02163
G0 F5400 X90.764 Y138.435
G0 X91.56 Y137.38
G0 X91.746 Y136.985
G0 X91.815 Y136.614
G0 X95.021 Y131.064
G0 X95.767 Y131.134
G0 X97.605 Y130.973
G0 X97.903 Y130.626
G0 X108.287 Y108.103
G0 X108.34 Y108.019
G1 F1800 X108.68 Y108.206 E46.04099
G1 X109.042 Y108.35 E46.06042
G1 X109.419 Y108.447 E46.07984
G1 X109.806 Y108.496 E46.09931
G1 X110.194 Y108.496 E46.11866
G1 X110.581 Y108.447 E46.13813
G1 X110.958 Y108.35 E46.15755
G1 X111.32 Y108.206 E46.17698
G1 X111.66 Y108.019 E46.19634
G1 X111.976 Y107.791 E46.21578
G1 X112.26 Y107.523 E46.23526
G1 X112.508 Y107.224 E46.25464
G1 X112.717 Y106.895 E46.27409
G1 X112.883 Y106.542 E46.29355
G1 X113.003 Y106.172 E46.31296
G1 X113.077 Y105.789 E46.33242
G1 X113.101 Y105.401 E46.35181
G1 X113.077 Y105.012 E46.37126
G1 X113.003 Y104.629 E46.39072
G1 X112.883 Y104.259 E46.41012
G1 X112.717 Y103.906 E46.42959
G1 X112.508 Y103.577 E46.44903
G1 X112.26 Y103.278 E46.46841
G1 X111.976 Y103.01 E46.48789
G1 X111.66 Y102.782 E46.50733
G1 X111.32 Y102.595 E46.52669
G1 X110.958 Y102.451 E46.54613
G1 X110.581 Y102.354 E46.56555
G1 X110.194 Y102.305 E46.58501
G1 X109.806 Y102.305 E46.60437
G1 X109.419 Y102.354 E46.62383
G1 X109.042 Y102.451 E46.64325
G1 X108.68 Y102.595 E46.66269
G1 X108.34 Y102.782 E46.68205
G1 X108.024 Y103.01 E46.70149
G1 X107.74 Y103.278 E46.72097
G1 X107.492 Y103.577 E46.74035
G1 X107.283 Y103.906 E46.7598
G1 X107.117 Y104.259 E46.77926
G1 X106.997 Y104.629 E46.79866
G1 X106.923 Y105.012 E46.81813
G1 X106.899 Y105.401 E46.83757
G1 X106.923 Y105.789 E46.85696
G1 X106.997 Y106.172 E46.87643
G1 X107.117 Y106.542 E46.89583
G1 X107.283 Y106.895 E46.91529
G1 X107.492 Y107.224 E46.93474
G1 X107.74 Y107.523 E46.95412
G1 X108.024 Y107.791 E46.9736
G1 X108.34 Y108.019 E46.99304
G0 F5400 X108.287 Y108.103
G0 X107.46 Y107.247
G0 X107.08 Y106.556
G0 X106.884 Y105.794
G0 X106.884 Y105.007
G0 X109.8 Y51.495
G0 X109.806 Y51.396
G1 F1800 X110.194 Y51.396 E47.0124
G1 X110.581 Y51.347 E47.03186
G1 X110.958 Y51.25 E47.05128
G1 X111.32 Y51.106 E47.07072
G1 X111.66 Y50.919 E47.09008
G1 X111.976 Y50.691 E47.10952
G1 X112.26 Y50.423 E47.129
G1 X112.508 Y50.124 E47.14838
G1 X112.717 Y49.795 E47.16783
G1 X112.883 Y49.442 E47.18729
G1 X113.003 Y49.072 E47.20669
G1 X113.077 Y48.689 E47.22615
G1 X113.101 Y48.301 E47.24555
G1 X113.077 Y47.912 E47.26499
G1 X113.003 Y47.529 E47.28445
G1 X112.883 Y47.159 E47.30386
G1 X112.717 Y46.806 E47.32332
G1 X112.508 Y46.477 E47.34277
G1 X112.26 Y46.178 E47.36215
G1 X111.976 Y45.91 E47.38163
G1 X111.66 Y45.682 E47.40107
G1 X111.32 Y45.495 E47.42043
G1 X110.958 Y45.351 E47.43987
