;FLAVOR:RepRap
;TIME:2439
;Generated with Cura_SteamEngine 2.3.1
M190 S60
M104 S200
M109 S200
G28 ;Home
G1 Z15.0 F6000 ;Move the platform down 15mm
;Prime the extruder
G92 E0
G1 F200 E3
G92 E0
;LAYER_COUNT:150
;LAYER:0
M107
G1 F1500 E-6.5
G0 F3600 X97.346 Y76.255 Z.3
;TYPE:SKIRT
G1 F1500 E0
G1 F900 X97.703 Y75.854 E0.02679
G1 X98.116 Y75.512 E0.05354
G1 X98.575 Y75.234 E0.08031
G1 X99.069 Y75.027 E0.10703
G1 X99.59 Y74.897 E0.13382
G1 X100.205 Y74.844 E0.16462
G1 X102.72 Y74.845 E0.29009
G1 X103.255 Y74.885 E0.31686
G1 X103.778 Y75.004 E0.34362
G1 X104.277 Y75.2 E0.37036
G1 X104.742 Y75.467 E0.39712
G1 X105.162 Y75.801 E0.42389
G1 X105.473 Y76.127 E0.44637
G1 X110.233 Y81.783 E0.81517
G1 X114.007 Y85.718 E1.08719
G1 X115.959 Y87.587 E1.22202
G1 X119.831 Y91.007 E1.47976
G1 X120.206 Y91.391 E1.50653
G1 X120.519 Y91.826 E1.53327
G1 X120.764 Y92.303 E1.56002
G1 X120.935 Y92.811 E1.58677
G1 X121.031 Y93.361 E1.61462
G1 X121.422 Y97.427 E1.81841
G1 X122.199 Y102.831 E2.09079
G1 X123.286 Y108.216 E2.36487
G1 X123.921 Y110.795 E2.49738
G1 X125.574 Y116.425 E2.79011
G1 X125.687 Y116.949 E2.81686
G1 X125.72 Y117.439 E2.84136
G1 X125.72 Y121.934 E3.06561
G1 X125.68 Y122.469 E3.09238
G1 X125.561 Y122.992 E3.11914
G1 X125.366 Y123.491 E3.14587
G1 X125.098 Y123.956 E3.17264
G1 X124.765 Y124.376 E3.19939
G1 X124.215 Y124.861 E3.23597
G1 X119.367 Y128.331 E3.53341
G1 X115.118 Y131.765 E3.80597
G1 X111.08 Y135.424 E4.07783
G1 X107.24 Y139.323 E4.35085
G1 X105.389 Y141.37 E4.48854
G1 X105.001 Y141.74 E4.51529
G1 X104.562 Y142.048 E4.54204
G1 X104.082 Y142.287 E4.56879
G1 X103.572 Y142.453 E4.59555
G1 X103.043 Y142.54 E4.6223
G1 X102.71 Y142.555 E4.63893
G1 X100.194 Y142.549 E4.76445
G1 X99.66 Y142.508 E4.79117
G1 X99.137 Y142.388 E4.81794
G1 X98.638 Y142.191 E4.84471
G1 X98.174 Y141.923 E4.87144
G1 X97.755 Y141.588 E4.8982
G1 X97.39 Y141.195 E4.92496
G1 X97.087 Y140.752 E4.95174
G1 X96.854 Y140.269 E4.97849
G1 X96.695 Y139.757 E5.00524
G1 X96.609 Y139.158 E5.03543
G1 X96.439 Y136.236 E5.18146
G1 X96.433 Y136.027 E5.19189
G1 X96.433 Y132.867 E5.34954
G1 X96.441 Y132.626 E5.36157
G1 X96.773 Y127.67 E5.60938
G1 X96.859 Y123.589 E5.81303
G1 X96.819 Y91.058 E7.43601
G1 X96.439 Y84.748 E7.75139
G1 X96.432 Y84.514 E7.76306
G1 X96.449 Y81.126 E7.9321
G1 X96.455 Y80.938 E7.94148
G1 X96.61 Y78.238 E8.0764
G1 X96.68 Y77.706 E8.10317
G1 X96.829 Y77.191 E8.12992
G1 X97.053 Y76.703 E8.15671
G1 X97.346 Y76.255 E8.18342
G0 F3600 X97.736 Y76.407
G1 F900 X98.088 Y76.044 E8.20864
G1 X98.492 Y75.74 E8.23387
G1 X98.939 Y75.505 E8.25906
G1 X99.418 Y75.342 E8.28431
G1 X99.916 Y75.257 E8.30951
G1 X100.205 Y75.244 E8.32394
G1 X102.72 Y75.245 E8.44942
G1 X103.224 Y75.285 E8.47464
G1 X103.716 Y75.404 E8.4999
G1 X104.182 Y75.599 E8.5251
G1 X104.612 Y75.865 E8.55032
G1 X104.995 Y76.195 E8.57555
G1 X105.167 Y76.385 E8.58833
G1 X109.936 Y82.052 E8.95785
G1 X113.724 Y86.001 E9.23085
G1 X115.687 Y87.881 E9.36646
G1 X119.566 Y91.307 E9.62466
G1 X119.918 Y91.67 E9.64988
G1 X120.207 Y92.085 E9.67511
G1 X120.428 Y92.539 E9.7003
G1 X120.575 Y93.023 E9.72554
G1 X120.633 Y93.399 E9.74452
G1 X121.025 Y97.48 E9.94906
G1 X121.804 Y102.895 E10.222
G1 X122.899 Y108.316 E10.49791
G1 X123.534 Y110.896 E10.63047
G1 X125.19 Y116.538 E10.92383
G1 X125.294 Y117.032 E10.94901
G1 X125.32 Y117.439 E10.96936
G1 X125.32 Y121.934 E11.19361
G1 X125.28 Y122.438 E11.21884
G1 X125.161 Y122.929 E11.24404
G1 X124.967 Y123.396 E11.26927
G1 X124.701 Y123.826 E11.2945
G1 X124.371 Y124.209 E11.31972
G1 X123.983 Y124.536 E11.34504
G1 X119.111 Y128.023 E11.64394
G1 X114.861 Y131.458 E11.91657
G1 X110.8 Y135.138 E12.18999
G1 X106.941 Y139.056 E12.46435
G1 X105.092 Y141.101 E12.6019
G1 X104.725 Y141.448 E12.62709
G1 X104.307 Y141.733 E12.65233
G1 X103.85 Y141.949 E12.67755
G1 X103.364 Y142.089 E12.70278
G1 X102.711 Y142.155 E12.73553
G1 X100.195 Y142.149 E12.86105
G1 X99.691 Y142.108 E12.88628
G1 X99.2 Y141.988 E12.9115
G1 X98.734 Y141.792 E12.93672
G1 X98.305 Y141.525 E12.96193
G1 X97.923 Y141.194 E12.98715
G1 X97.598 Y140.807 E13.01236
G1 X97.338 Y140.373 E13.0376
G1 X97.149 Y139.904 E13.06283
G1 X97.037 Y139.411 E13.08805
G1 X97.008 Y139.135 E13.10189
G1 X96.838 Y136.213 E13.24792
G1 X96.833 Y136.027 E13.2572
G1 X96.833 Y132.867 E13.41486
G1 X96.84 Y132.653 E13.42554
G1 X97.173 Y127.684 E13.674
G1 X97.259 Y123.597 E13.87795
G1 X97.219 Y91.05 E15.50172
G1 X96.838 Y84.724 E15.8179
G1 X96.832 Y84.516 E15.82828
G1 X96.849 Y81.128 E15.99731
G1 X96.854 Y80.961 E16.00565
G1 X97.009 Y78.261 E16.14057
G1 X97.078 Y77.76 E16.1658
G1 X97.225 Y77.276 E16.19104
G1 X97.446 Y76.821 E16.21628
G1 X97.736 Y76.407 E16.24149
G1 F1500 E9.74149
G0 F3600 X99.806 Y139.352
G0 X103.112 Y139.352
G0 X108.83 Y104.362
G0 X113.758 Y116.774
G0 X113.758 Y118.067
G0 X113.8 Y118.109
G0 X113.73 Y118.039
;TYPE:WALL-INNER
G1 F1500 E16.24149
G1 F900 X121.53 Y118.039 E16.63064
G1 X121.53 Y121.339 E16.79527
G1 X113.73 Y121.339 E17.18442
G1 X113.73 Y118.039 E17.34906
G0 F3600 X113.33 Y117.639
;TYPE:WALL-OUTER
G1 F900 X121.93 Y117.639 E17.77811
G1 X121.93 Y121.739 E17.98266
G1 X113.33 Y121.739 E18.41172
G1 X113.33 Y117.639 E18.61627
G0 F3600 X113.8 Y118.109
G0 X113.909 Y118.435
;TYPE:SKIN
G1 F900 X116.632 Y121.157 E18.80835
G0 X116.702 Y121.227
G0 F3600 X117.197 Y121.157
G1 F900 X114.258 Y118.218 E19.01572
G0 X114.188 Y118.148
G0 F3600 X114.824 Y118.218
G1 F900 X117.763 Y121.157 E19.22308
G0 X117.833 Y121.227
G0 F3600 X118.329 Y121.157
G1 F900 X115.389 Y118.218 E19.43048
G0 X115.319 Y118.148
G0 F3600 X115.955 Y118.218
G1 F900 X118.895 Y121.157 E19.63787
G0 X118.965 Y121.227
G0 F3600 X119.46 Y121.157
G1 F900 X116.521 Y118.218 E19.84524
G0 X116.451 Y118.148
G0 F3600 X117.086 Y118.218
G1 F900 X120.026 Y121.157 E20.05263
G0 X120.096 Y121.227
G0 F3600 X120.592 Y121.157
G1 F900 X117.653 Y118.219 E20.25996
G0 X117.583 Y118.149
G0 F3600 X118.219 Y118.219
G1 F900 X121.157 Y121.157 E20.46725
G0 X121.227 Y121.227
G0 F3600 X121.349 Y120.783
G1 F900 X118.784 Y118.219 E20.64819
G0 X118.714 Y118.149
G0 F3600 X119.35 Y118.219
G1 F900 X121.349 Y120.218 E20.78923
G0 X121.419 Y120.288
G0 F3600 X121.349 Y119.652
G1 F900 X119.916 Y118.219 E20.89034
G0 X119.846 Y118.149
G0 F3600 X120.481 Y118.219
G1 F900 X121.349 Y119.086 E20.95155
G0 X121.419 Y119.156
G0 F3600 X121.349 Y118.52
G1 F900 X121.047 Y118.219 E20.97282
G0 F3600 X116.066 Y121.157
G1 F900 X113.909 Y119.001 E21.12497
G0 X113.839 Y118.931
G0 F3600 X113.909 Y119.566
G1 F900 X115.5 Y121.157 E21.23722
G0 X115.57 Y121.227
G0 F3600 X114.935 Y121.157
G1 F900 X113.909 Y120.132 E21.30958
G0 X113.839 Y120.062
G0 F3600 X113.909 Y120.698
G1 F900 X114.369 Y121.157 E21.342
G0 F3600 X114.369 Y120.939
G1 F1500 E14.842
G0 F3600 X116.788 Y118.079
G0 X116.788 Y116.774
G0 X116.788 Y104.365
G0 X116.788 Y103.06
G0 X116.788 Y103.03
G0 X116.858 Y103.1
;TYPE:WALL-INNER
G1 F1500 E21.342
G1 F900 X101.859 Y103.1 E22.0903
G1 X101.859 Y138.099 E23.83641
G1 X101.059 Y138.099 E23.87632
G1 X101.059 Y79.3 E26.80982
G1 X101.859 Y79.3 E26.84973
G1 X101.859 Y94.3 E27.59808
G1 X116.858 Y94.3 E28.34638
G1 X116.858 Y103.1 E28.78542
G0 F3600 X117.258 Y103.5
;TYPE:WALL-OUTER
G1 F900 X102.259 Y103.5 E29.53372
G1 X102.259 Y138.499 E31.27983
G1 X100.659 Y138.499 E31.35965
G1 X100.659 Y78.9 E34.33306
G1 X102.259 Y78.9 E34.41288
G1 X102.259 Y93.9 E35.16124
G1 X117.258 Y93.9 E35.90954
G1 X117.258 Y103.5 E36.38848
G0 F3600 X116.788 Y103.03
G0 X116.495 Y102.919
;TYPE:SKIN
G1 F900 X108.056 Y94.48 E36.9839
G0 X107.986 Y94.41
G0 F3600 X108.622 Y94.48
G1 F900 X116.677 Y102.535 E37.55223
G0 X116.747 Y102.605
G0 F3600 X116.677 Y101.969
G1 F900 X109.187 Y94.48 E38.08065
G0 X109.117 Y94.41
G0 F3600 X109.753 Y94.48
G1 F900 X116.677 Y101.404 E38.56918
G0 X116.747 Y101.474
G0 F3600 X116.677 Y100.838
G1 F900 X110.319 Y94.48 E39.01777
G0 X110.249 Y94.41
G0 F3600 X110.884 Y94.48
G1 F900 X116.677 Y100.272 E39.42646
G0 X116.747 Y100.342
G0 F3600 X116.677 Y99.707
G1 F900 X111.45 Y94.48 E39.79525
G0 X111.38 Y94.41
G0 F3600 X112.016 Y94.48
G1 F900 X116.677 Y99.141 E40.12411
G0 X116.747 Y99.211
G0 F3600 X116.677 Y98.575
G1 F900 X112.582 Y94.48 E40.41304
G0 X112.512 Y94.41
G0 F3600 X113.147 Y94.48
G1 F900 X116.677 Y98.009 E40.66206
G0 X116.747 Y98.079
G0 F3600 X116.677 Y97.444
G1 F900 X113.713 Y94.48 E40.87119
G0 X113.643 Y94.41
G0 F3600 X114.279 Y94.48
G1 F900 X116.677 Y96.878 E41.04038
G0 X116.747 Y96.948
G0 F3600 X116.677 Y96.312
G1 F900 X114.844 Y94.48 E41.16967
G0 X114.774 Y94.41
G0 F3600 X115.41 Y94.48
G1 F900 X116.677 Y95.747 E41.25907
G0 X116.747 Y95.817
G0 F3600 X116.677 Y95.181
G1 F900 X115.976 Y94.48 E41.30852
G0 X115.906 Y94.41
G0 F3600 X116.541 Y94.48
G1 F900 X116.677 Y94.615 E41.31808
G0 F3600 X115.93 Y102.919
G1 F900 X107.49 Y94.48 E41.91354
G0 X107.42 Y94.41
G0 F3600 X106.925 Y94.48
G1 F900 X115.364 Y102.919 E42.50895
G0 X115.434 Y102.989
G0 F3600 X114.798 Y102.919
G1 F900 X106.359 Y94.48 E43.10437
G0 X106.289 Y94.41
G0 F3600 X105.793 Y94.48
G1 F900 X114.233 Y102.919 E43.69982
G0 X114.303 Y102.989
G0 F3600 X113.667 Y102.919
G1 F900 X105.228 Y94.48 E44.29524
G0 X105.158 Y94.41
G0 F3600 X104.662 Y94.48
G1 F900 X113.101 Y102.919 E44.89066
G0 X113.171 Y102.989
G0 F3600 X112.536 Y102.919
G1 F900 X104.096 Y94.48 E45.48611
G0 X104.026 Y94.41
G0 F3600 X103.531 Y94.48
G1 F900 X111.97 Y102.919 E46.08153
G0 X112.04 Y102.989
G0 F3600 X111.404 Y102.919
G1 F900 X102.965 Y94.48 E46.67694
G0 X102.895 Y94.41
G0 F3600 X102.399 Y94.48
G1 F900 X110.838 Y102.919 E47.27236
G0 X110.908 Y102.989
G0 F3600 X110.273 Y102.919
G1 F900 X101.833 Y94.48 E47.86781
G0 X101.763 Y94.41
G0 F3600 X101.457 Y94.103
G1 F900 X101.457 Y93.538 E47.89889
G1 X101.457 Y92.972 E47.93002
G1 X101.457 Y92.406 E47.96115
G1 X101.457 Y91.841 E47.99223
G1 X101.457 Y91.275 E48.02336
G1 X101.457 Y90.709 E48.0545
G1 X101.457 Y90.144 E48.08557
G1 X101.457 Y89.578 E48.11671
G1 X101.457 Y89.012 E48.14784
G1 X101.457 Y88.447 E48.17892
G1 X101.457 Y87.881 E48.21005
G1 X101.457 Y87.315 E48.24118
G1 X101.457 Y86.75 E48.27226
G1 X101.457 Y86.184 E48.30339
G1 X101.457 Y85.618 E48.33452
G1 X101.457 Y85.053 E48.3656
G1 X101.457 Y84.487 E48.39673
G1 X101.457 Y83.921 E48.42786
G1 X101.457 Y83.355 E48.459
G1 X101.457 Y82.79 E48.49007
G1 X101.457 Y82.224 E48.52121
G1 X101.457 Y81.658 E48.55234
G1 X101.457 Y81.093 E48.58341
G1 X101.457 Y80.527 E48.61455
G1 X101.457 Y79.961 E48.64568
G1 X101.609 Y79.548 E48.66599
G0 F3600 X101.678 Y79.616
G0 X101.237 Y94.449
G1 F900 X109.707 Y102.919 E49.26359
G0 X109.777 Y102.989
G0 F3600 X109.141 Y102.919
G1 F900 X101.237 Y95.015 E49.82126
G0 X101.167 Y94.945
G0 F3600 X101.237 Y95.581
G1 F900 X108.576 Y102.919 E50.33903
G0 X108.646 Y102.989
G0 F3600 X108.01 Y102.919
G1 F900 X101.237 Y96.146 E50.8169
G0 X101.167 Y96.076
G0 F3600 X101.237 Y96.712
G1 F900 X107.444 Y102.919 E51.25484
G0 X107.514 Y102.989
G0 F3600 X106.879 Y102.919
G1 F900 X101.237 Y97.278 E51.65288
G0 X101.167 Y97.208
G0 F3600 X101.237 Y97.843
G1 F900 X106.313 Y102.919 E52.01102
G0 X106.383 Y102.989
G0 F3600 X105.747 Y102.919
G1 F900 X101.237 Y98.409 E52.32922
G0 X101.167 Y98.339
G0 F3600 X101.237 Y98.975
G1 F900 X105.182 Y102.919 E52.60753
G0 X105.252 Y102.989
G0 F3600 X104.616 Y102.919
G1 F900 X101.237 Y99.54 E52.84594
G0 X101.167 Y99.47
G0 F3600 X101.237 Y100.106
G1 F900 X104.05 Y102.919 E53.04441
G0 X104.12 Y102.989
G0 F3600 X103.485 Y102.919
G1 F900 X101.237 Y100.672 E53.20298
G0 X101.167 Y100.602
G0 F3600 X101.237 Y101.237
G1 F900 X102.919 Y102.919 E53.32166
G0 X102.989 Y102.989
G0 F3600 X102.353 Y102.919
G1 F900 X101.237 Y101.803 E53.4004
G0 X101.167 Y101.733
G0 F3600 X101.512 Y102.644
G1 F900 X101.458 Y103.155 E53.43539
G1 X101.458 Y103.72 E53.46654
G1 X101.458 Y104.286 E53.49774
G1 X101.458 Y104.852 E53.52894
G1 X101.458 Y105.417 E53.56009
G1 X101.458 Y105.983 E53.59129
G1 X101.458 Y106.549 E53.6225
G1 X101.458 Y107.114 E53.65364
G1 X101.458 Y107.68 E53.68485
G1 X101.458 Y108.246 E53.71605
G1 X101.458 Y108.812 E53.74725
G1 X101.458 Y109.378 E53.77838
G1 X101.458 Y109.943 E53.80946
G1 X101.458 Y110.509 E53.84059
G1 X101.458 Y111.075 E53.87173
G1 X101.458 Y111.64 E53.9028
G1 X101.458 Y112.206 E53.93394
G1 X101.458 Y112.772 E53.96507
G1 X101.458 Y113.337 E53.99615
G1 X101.458 Y113.903 E54.02728
G1 X101.458 Y114.469 E54.05841
G1 X101.458 Y115.035 E54.08954
G1 X101.458 Y115.6 E54.12062
G1 X101.458 Y116.166 E54.15175
G1 X101.458 Y116.732 E54.18288
G1 X101.458 Y117.297 E54.21396
G1 X101.458 Y117.863 E54.24509
G1 X101.458 Y118.429 E54.27623
G1 X101.458 Y118.994 E54.3073
G1 X101.458 Y119.56 E54.33844
G1 X101.458 Y120.126 E54.36957
G1 X101.458 Y120.691 E54.40064
G1 X101.458 Y121.257 E54.43178
G1 X101.458 Y121.823 E54.46291
G1 X101.458 Y122.388 E54.49399
G1 X101.458 Y122.954 E54.52512
G1 X101.458 Y123.52 E54.55625
G1 X101.458 Y124.086 E54.58738
G1 X101.458 Y124.651 E54.61846
G1 X101.458 Y125.217 E54.64959
G1 X101.458 Y125.783 E54.68072
G1 X101.458 Y126.348 E54.7118
G1 X101.458 Y126.914 E54.74293
G1 X101.458 Y127.48 E54.77407
G1 X101.458 Y128.045 E54.80514
G1 X101.458 Y128.611 E54.83628
G1 X101.458 Y129.177 E54.86741
G1 X101.458 Y129.742 E54.89849
G1 X101.458 Y130.308 E54.92962
G1 X101.458 Y130.874 E54.96075
G1 X101.458 Y131.439 E54.99183
G1 X101.458 Y132.005 E55.02296
G1 X101.458 Y132.571 E55.05409
G1 X101.458 Y133.136 E55.08517
G1 X101.458 Y133.702 E55.1163
G1 X101.458 Y134.268 E55.14743
G1 X101.458 Y134.834 E55.17857
G1 X101.458 Y135.399 E55.20964
G1 X101.458 Y135.965 E55.24077
G1 X101.458 Y136.531 E55.27191
G1 X101.458 Y137.096 E55.30298
G1 X101.458 Y137.662 E55.33412
G0 F3600 X101.459 Y137.699
;TIME_ELAPSED:87.331669
;LAYER:1
M106 S255
G1 F1500 E48.83412
G0 F5400 X101.459 Y137.699 Z.5
G0 X101.819 Y121.269
G0 X103.124 Y121.269
G0 X112.465 Y121.269
G0 X113.77 Y121.269
G0 X113.8 Y121.269
G0 X113.73 Y121.339
;TYPE:WALL-INNER
G1 F1500 E55.33412
G1 F1350 X113.73 Y118.039 E55.44387
G1 X121.53 Y118.039 E55.7033
G1 X121.53 Y121.339 E55.81306
G1 X113.73 Y121.339 E56.07249
G0 F5400 X113.33 Y121.739
;TYPE:WALL-OUTER
G1 F900 X113.33 Y117.639 E56.20886
G1 X121.93 Y117.639 E56.4949
G1 X121.93 Y121.739 E56.63126
G1 X113.33 Y121.739 E56.9173
G0 F5400 X113.8 Y121.269
G0 X114.166 Y121.158
;TYPE:SKIN
G1 F900 X117.107 Y118.217 E57.05563
G0 X117.177 Y118.147
G0 F5400 X117.672 Y118.218
G1 F900 X114.732 Y121.158 E57.19392
G0 X114.662 Y121.228
G0 F5400 X115.298 Y121.158
G1 F900 X118.238 Y118.218 E57.33221
G0 X118.308 Y118.148
G0 F5400 X118.803 Y118.218
G1 F900 X115.863 Y121.158 E57.4705
G0 X115.793 Y121.228
G0 F5400 X116.429 Y121.158
G1 F900 X119.369 Y118.218 E57.60879
G0 X119.439 Y118.148
G0 F5400 X119.935 Y118.218
G1 F900 X116.995 Y121.158 E57.74708
G0 X116.925 Y121.228
G0 F5400 X117.56 Y121.158
G1 F900 X120.5 Y118.218 E57.88537
G0 X120.57 Y118.148
G0 F5400 X121.066 Y118.218
G1 F900 X118.126 Y121.158 E58.02365
G0 X118.056 Y121.228
G0 F5400 X118.692 Y121.158
G1 F900 X121.348 Y118.501 E58.14861
G0 X121.418 Y118.431
G0 F5400 X121.348 Y119.067
G1 F900 X119.257 Y121.158 E58.24696
G0 X119.187 Y121.228
G0 F5400 X119.823 Y121.158
G1 F900 X121.348 Y119.633 E58.31869
G0 X121.418 Y119.563
G0 F5400 X121.348 Y120.198
G1 F900 X120.389 Y121.158 E58.36383
G0 X120.319 Y121.228
G0 F5400 X120.954 Y121.158
G1 F900 X121.348 Y120.764 E58.38236
G0 F5400 X116.541 Y118.217
G1 F900 X113.909 Y120.849 E58.50616
G0 X113.839 Y120.919
G0 F5400 X113.909 Y120.283
G1 F900 X115.976 Y118.217 E58.60336
G0 X116.046 Y118.147
G0 F5400 X115.41 Y118.217
G1 F900 X113.909 Y119.718 E58.67396
G0 X113.839 Y119.788
G0 F5400 X113.909 Y119.152
G1 F900 X114.844 Y118.217 E58.71794
G0 X114.914 Y118.147
G0 F5400 X114.279 Y118.217
G1 F900 X113.909 Y118.586 E58.73532
G0 F5400 X114.13 Y118.586
G1 F1500 E52.23532
G0 F5400 X116.788 Y118.079
G0 X116.788 Y116.774
G0 X116.788 Y104.365
G0 X116.788 Y103.06
G0 X116.788 Y103.03
G0 X116.858 Y103.1
;TYPE:WALL-INNER
G1 F1500 E58.73532
G1 F1350 X101.859 Y103.1 E59.23419
G1 X101.859 Y138.099 E60.39826
G1 X101.059 Y138.099 E60.42487
G1 X101.059 Y79.3 E62.38053
G1 X101.859 Y79.3 E62.40714
G1 X101.859 Y94.3 E62.90604
G1 X116.858 Y94.3 E63.40491
G1 X116.858 Y103.1 E63.6976
G0 F5400 X117.258 Y103.5
;TYPE:WALL-OUTER
G1 F900 X102.259 Y103.5 E64.19647
