;FLAVOR:RepRap
;TIME:385
;Generated with Cura_SteamEngine 2.3.1
M190 S60
M104 S200
M109 S200
G28 ;Home
G1 Z15.0 F6000 ;Move the platform down 15mm
;Prime the extruder
G92 E0
G1 F200 E3
G92 E0
;LAYER_COUNT:37
;LAYER:0
M107
G1 F1500 E-6.5
G0 F5400 X93.498 Y102.957 Z.3
;TYPE:SKIRT
G1 F1500 E0
G1 F1800 X95.149 Y101.56 E0.1079
G1 X95.606 Y101.227 E0.13611
G1 X96.349 Y100.861 E0.17743
G1 X98.382 Y100.111 E0.28554
G1 X98.924 Y99.954 E0.31369
G1 X99.484 Y99.874 E0.34191
G1 X99.77 Y99.864 E0.35619
G1 X102.016 Y99.866 E0.46825
G1 X102.743 Y99.933 E0.50467
G1 X108.194 Y100.946 E0.78128
G1 X113.583 Y101.634 E1.05232
G1 X119.007 Y102.017 E1.3236
G1 X123.211 Y102.114 E1.53339
G1 X123.774 Y102.167 E1.5616
G1 X124.324 Y102.299 E1.58982
G1 X124.849 Y102.507 E1.61799
G1 X125.341 Y102.787 E1.64624
G1 X125.787 Y103.133 E1.6744
G1 X126.181 Y103.539 E1.70262
G1 X126.583 Y104.113 E1.73759
G1 X128.827 Y108 E1.9615
G1 X129.075 Y108.508 E1.98971
G1 X129.248 Y109.047 E2.01795
G1 X129.343 Y109.604 E2.04614
G1 X129.359 Y110.169 E2.07434
G1 X129.296 Y110.731 E2.10255
G1 X129.153 Y111.278 E2.13076
G1 X128.827 Y112 E2.17028
G1 X126.583 Y115.887 E2.3942
G1 X126.267 Y116.355 E2.42237
G1 X125.887 Y116.774 E2.45059
G1 X125.452 Y117.136 E2.47883
G1 X124.971 Y117.432 E2.50701
G1 X124.453 Y117.658 E2.5352
G1 X123.908 Y117.808 E2.5634
G1 X123.188 Y117.886 E2.59953
G1 X120.405 Y117.934 E2.7384
G1 X114.913 Y118.245 E3.01283
G1 X109.556 Y118.854 E3.28182
G1 X102.709 Y120.074 E3.6288
G1 X102.023 Y120.136 E3.66316
G1 X99.836 Y120.145 E3.77227
G1 X99.272 Y120.107 E3.80047
G1 X98.468 Y119.91 E3.84177
G1 X96.429 Y119.178 E3.94985
G1 X95.912 Y118.95 E3.97804
G1 X95.22 Y118.486 E4.01961
G1 X93.552 Y117.096 E4.12794
G1 X93.145 Y116.704 E4.15613
G1 X92.659 Y116.04 E4.19718
G1 X91.572 Y114.178 E4.30475
G1 X91.322 Y113.67 E4.33299
G1 X91.089 Y112.87 E4.37456
G1 X90.704 Y110.733 E4.4829
G1 X90.644 Y110.171 E4.51109
G1 X90.699 Y109.348 E4.55224
G1 X91.065 Y107.214 E4.66026
G1 X91.199 Y106.665 E4.68846
G1 X91.535 Y105.904 E4.72996
G1 X92.61 Y104.025 E4.83796
G1 X92.925 Y103.555 E4.86619
G1 X93.498 Y102.957 E4.90751
G0 F5400 X93.757 Y103.263
G1 F1800 X95.408 Y101.866 E5.01541
G1 X95.842 Y101.551 E5.04216
G1 X96.487 Y101.237 E5.07795
G1 X98.52 Y100.487 E5.18606
G1 X99.036 Y100.339 E5.21284
G1 X99.769 Y100.264 E5.2496
G1 X102.015 Y100.266 E5.36166
G1 X102.669 Y100.327 E5.39443
G1 X108.121 Y101.34 E5.67108
G1 X113.539 Y102.032 E5.94358
G1 X118.991 Y102.417 E6.21626
G1 X123.202 Y102.514 E6.42641
G1 X123.736 Y102.566 E6.45317
G1 X124.256 Y102.697 E6.47993
G1 X124.751 Y102.904 E6.50669
G1 X125.209 Y103.182 E6.53342
G1 X125.621 Y103.525 E6.56017
G1 X125.978 Y103.925 E6.58692
G1 X126.237 Y104.313 E6.61019
G1 X128.481 Y108.2 E6.83411
G1 X128.714 Y108.683 E6.86087
G1 X128.872 Y109.196 E6.88765
G1 X128.953 Y109.726 E6.91439
G1 X128.953 Y110.262 E6.94114
G1 X128.875 Y110.793 E6.96791
G1 X128.718 Y111.305 E6.99463
G1 X128.481 Y111.8 E7.02201
G1 X126.237 Y115.687 E7.24593
G1 X125.935 Y116.13 E7.27268
G1 X125.57 Y116.523 E7.29944
G1 X125.151 Y116.858 E7.3262
G1 X124.687 Y117.127 E7.35296
G1 X124.189 Y117.324 E7.37968
G1 X123.666 Y117.445 E7.40646
G1 X123.181 Y117.486 E7.43074
G1 X120.376 Y117.535 E7.5707
G1 X114.898 Y117.845 E7.84444
G1 X109.489 Y118.459 E8.11603
G1 X102.639 Y119.68 E8.46316
G1 X102.022 Y119.736 E8.49407
G1 X99.835 Y119.745 E8.60318
G1 X99.3 Y119.707 E8.62994
G1 X98.604 Y119.533 E8.66573
G1 X96.565 Y118.801 E8.77382
G1 X96.075 Y118.583 E8.80057
G1 X95.476 Y118.179 E8.83662
G1 X93.808 Y116.789 E8.94494
G1 X93.423 Y116.416 E8.97169
G1 X93.004 Y115.838 E9.0073
G1 X91.917 Y113.976 E9.11487
G1 X91.682 Y113.494 E9.14162
G1 X91.483 Y112.799 E9.17769
G1 X91.098 Y110.662 E9.28602
G1 X91.043 Y110.129 E9.31276
G1 X91.093 Y109.415 E9.34846
G1 X91.459 Y107.281 E9.45648
G1 X91.589 Y106.761 E9.48323
G1 X91.882 Y106.102 E9.51921
G1 X92.957 Y104.223 E9.62721
G1 X93.257 Y103.779 E9.65394
G1 X93.757 Y103.263 E9.68979
G0 F5400 X94.015 Y103.568
G1 F1800 X95.666 Y102.171 E9.79769
G1 X96.077 Y101.876 E9.82293
G1 X96.625 Y101.612 E9.85327
G1 X98.658 Y100.862 E9.96138
G1 X99.145 Y100.725 E9.98662
G1 X99.769 Y100.664 E10.0179
G1 X102.015 Y100.666 E10.12996
G1 X102.596 Y100.72 E10.15907
G1 X108.066 Y101.736 E10.43663
G1 X113.497 Y102.43 E10.70979
G1 X118.975 Y102.817 E10.98377
G1 X123.193 Y102.914 E11.19426
G1 X123.696 Y102.965 E11.21949
G1 X124.184 Y103.095 E11.24468
G1 X124.646 Y103.301 E11.26992
G1 X125.07 Y103.577 E11.29516
G1 X125.445 Y103.915 E11.32035
G1 X125.89 Y104.513 E11.35753
G1 X128.134 Y108.4 E11.58145
G1 X128.352 Y108.857 E11.60671
G1 X128.495 Y109.342 E11.63194
G1 X128.559 Y109.843 E11.65714
G1 X128.544 Y110.348 E11.68234
G1 X128.449 Y110.845 E11.70759
G1 X128.278 Y111.32 E11.73278
G1 X128.134 Y111.6 E11.74848
G1 X125.89 Y115.487 E11.9724
G1 X125.604 Y115.903 E11.99759
G1 X125.255 Y116.27 E12.02286
G1 X124.853 Y116.576 E12.04806
G1 X124.408 Y116.816 E12.07329
G1 X123.931 Y116.982 E12.09848
G1 X123.433 Y117.072 E12.12373
G1 X123.175 Y117.087 E12.13662
G1 X120.346 Y117.136 E12.27778
G1 X114.867 Y117.447 E12.55157
G1 X109.418 Y118.065 E12.82517
G1 X102.568 Y119.286 E13.1723
G1 X102.02 Y119.336 E13.19976
G1 X99.833 Y119.345 E13.30887
G1 X99.329 Y119.307 E13.33408
G1 X98.739 Y119.157 E13.36445
G1 X96.7 Y118.425 E13.47254
G1 X96.239 Y118.217 E13.49777
G1 X95.732 Y117.871 E13.52839
G1 X94.064 Y116.481 E13.63672
G1 X93.703 Y116.128 E13.66191
G1 X93.349 Y115.636 E13.69215
G1 X92.262 Y113.774 E13.79971
G1 X92.043 Y113.319 E13.8249
G1 X91.877 Y112.728 E13.85553
G1 X91.492 Y110.591 E13.96386
G1 X91.442 Y110.088 E13.98908
G1 X91.487 Y109.483 E14.01935
G1 X91.853 Y107.349 E14.12737
G1 X91.978 Y106.859 E14.1526
G1 X92.229 Y106.301 E14.18312
G1 X93.304 Y104.422 E14.29112
G1 X93.589 Y104.004 E14.31636
G1 X94.015 Y103.568 E14.34678
G1 F1500 E7.84678
G0 F5400 X95.746 Y105.403
G0 X96.584 Y106.4
G0 X96.63 Y106.439
G0 X96.554 Y106.375
;TYPE:WALL-INNER
G1 F1500 E14.34678
G1 F1800 X98.054 Y105.116 E14.44448
G1 X99.896 Y104.445 E14.54228
G1 X101.855 Y104.445 E14.64002
G1 X103.694 Y105.116 E14.73768
G1 X105.198 Y106.377 E14.8356
G1 X106.176 Y108.07 E14.93315
G1 X106.516 Y110 E15.03092
G1 X106.176 Y111.93 E15.12869
G1 X105.198 Y113.623 E15.22623
G1 X103.694 Y114.884 E15.32415
G1 X101.855 Y115.555 E15.42181
G1 X99.896 Y115.555 E15.51955
G1 X98.054 Y114.884 E15.61735
G1 X96.554 Y113.625 E15.71506
G1 X95.575 Y111.93 E15.81271
G1 X95.234 Y110 E15.91049
G1 X95.575 Y108.07 E16.00827
G1 X96.554 Y106.375 E16.10593
G0 F5400 X96.63 Y106.439
G0 X97.882 Y107.825
G0 X97.962 Y107.883
G1 F1800 X97.72 Y108.266 E16.12853
G1 X97.527 Y108.674 E16.15105
G1 X97.388 Y109.104 E16.17359
G1 X97.302 Y109.55 E16.19625
G1 X97.274 Y110 E16.21875
G1 X97.302 Y110.45 E16.24124
G1 X97.388 Y110.896 E16.2639
G1 X97.527 Y111.326 E16.28645
G1 X97.72 Y111.734 E16.30897
G1 X97.962 Y112.117 E16.33157
G1 X98.251 Y112.464 E16.3541
G1 X98.58 Y112.774 E16.37665
G1 X98.946 Y113.039 E16.39919
G1 X99.341 Y113.257 E16.4217
G1 X99.762 Y113.425 E16.44432
G1 X100.2 Y113.537 E16.46687
G1 X100.649 Y113.594 E16.48945
G1 X101.102 Y113.594 E16.51205
G1 X101.551 Y113.537 E16.53463
G1 X101.989 Y113.425 E16.55719
G1 X102.41 Y113.257 E16.5798
G1 X102.805 Y113.039 E16.60231
G1 X103.171 Y112.774 E16.62486
G1 X103.5 Y112.464 E16.64741
G1 X103.789 Y112.117 E16.66994
G1 X104.031 Y111.734 E16.69254
G1 X104.224 Y111.326 E16.71506
G1 X104.363 Y110.896 E16.7376
G1 X104.449 Y110.45 E16.76027
G1 X104.476 Y110 E16.78276
G1 X104.449 Y109.55 E16.80525
G1 X104.363 Y109.104 E16.82791
G1 X104.224 Y108.674 E16.85045
G1 X104.031 Y108.266 E16.87297
G1 X103.789 Y107.883 E16.89557
G1 X103.5 Y107.536 E16.9181
G1 X103.171 Y107.226 E16.94066
G1 X102.805 Y106.961 E16.9632
G1 X102.41 Y106.743 E16.98571
G1 X101.989 Y106.575 E17.00832
G1 X101.551 Y106.463 E17.03088
G1 X101.102 Y106.406 E17.05346
G1 X100.649 Y106.406 E17.07606
G1 X100.2 Y106.463 E17.09864
G1 X99.762 Y106.575 E17.12119
G1 X99.341 Y106.743 E17.14381
G1 X98.946 Y106.961 E17.16632
G1 X98.58 Y107.226 E17.18886
G1 X98.251 Y107.536 E17.21141
G1 X97.962 Y107.883 E17.23394
G0 F5400 X98.286 Y108.119
;TYPE:WALL-OUTER
G1 F1800 X98.071 Y108.459 E17.25401
G1 X97.9 Y108.822 E17.27403
G1 X97.776 Y109.204 E17.29407
G1 X97.7 Y109.6 E17.31419
G1 X97.675 Y110 E17.33418
G1 X97.7 Y110.4 E17.35418
G1 X97.776 Y110.796 E17.37429
G1 X97.9 Y111.178 E17.39433
G1 X98.071 Y111.541 E17.41435
G1 X98.286 Y111.881 E17.43442
G1 X98.543 Y112.19 E17.45447
G1 X98.835 Y112.465 E17.47448
G1 X99.161 Y112.701 E17.49456
G1 X99.512 Y112.895 E17.51457
G1 X99.886 Y113.044 E17.53465
G1 X100.275 Y113.143 E17.55468
G1 X100.674 Y113.194 E17.57475
G1 X101.077 Y113.194 E17.59485
G1 X101.476 Y113.143 E17.61492
G1 X101.865 Y113.044 E17.63495
G1 X102.239 Y112.895 E17.65503
G1 X102.59 Y112.701 E17.67504
G1 X102.916 Y112.465 E17.69512
G1 X103.208 Y112.19 E17.71513
G1 X103.465 Y111.881 E17.73518
G1 X103.68 Y111.541 E17.75525
G1 X103.851 Y111.178 E17.77527
G1 X103.975 Y110.796 E17.79531
G1 X104.051 Y110.4 E17.81542
G1 X104.075 Y110 E17.83542
G1 X104.051 Y109.6 E17.85541
G1 X103.975 Y109.204 E17.87553
G1 X103.851 Y108.822 E17.89556
G1 X103.68 Y108.459 E17.91558
G1 X103.465 Y108.119 E17.93565
G1 X103.208 Y107.81 E17.9557
G1 X102.916 Y107.535 E17.97571
G1 X102.59 Y107.299 E17.99579
G1 X102.239 Y107.105 E18.0158
G1 X101.865 Y106.956 E18.03589
G1 X101.476 Y106.857 E18.05591
G1 X101.077 Y106.806 E18.07598
G1 X100.674 Y106.806 E18.09609
G1 X100.275 Y106.857 E18.11615
G1 X99.886 Y106.956 E18.13618
G1 X99.512 Y107.105 E18.15626
G1 X99.161 Y107.299 E18.17627
G1 X98.835 Y107.535 E18.19635
G1 X98.543 Y107.81 E18.21636
G1 X98.286 Y108.119 E18.23641
G0 F5400 X97.903 Y107.799
G0 X96.63 Y106.439
G0 X96.243 Y106.114
G1 F1800 X97.852 Y104.764 E18.3412
G1 X99.825 Y104.045 E18.44597
G1 X101.926 Y104.045 E18.55079
G1 X103.898 Y104.764 E18.6555
G1 X105.508 Y106.114 E18.76033
G1 X106.558 Y107.932 E18.86507
G1 X106.922 Y110 E18.96983
G1 X106.558 Y112.068 E19.07459
G1 X105.508 Y113.886 E19.17933
G1 X103.898 Y115.236 E19.28415
G1 X101.926 Y115.955 E19.38887
G1 X99.825 Y115.955 E19.49369
G1 X97.852 Y115.236 E19.59846
G1 X96.243 Y113.886 E19.70324
G1 X95.193 Y112.068 E19.80798
G1 X94.828 Y110 E19.91275
G1 X95.193 Y107.932 E20.01752
G1 X96.243 Y106.114 E20.12226
G0 F5400 X96.793 Y106.409
;TYPE:SKIN
G1 F1800 X97.972 Y107.589 E20.20548
G0 X98.042 Y107.659
G0 F5400 X98.244 Y107.294
G1 F1800 X97.1 Y106.151 E20.28616
G0 X97.03 Y106.081
G0 F5400 X97.408 Y105.893
G1 F1800 X98.543 Y107.029 E20.36628
G0 X98.613 Y107.099
G0 F5400 X98.874 Y106.794
G1 F1800 X97.715 Y105.635 E20.44805
G0 X97.645 Y105.565
G0 F5400 X98.023 Y105.377
G1 F1800 X99.238 Y106.592 E20.53377
G0 X99.308 Y106.662
G0 F5400 X99.639 Y106.428
G1 F1800 X98.394 Y105.182 E20.62165
G0 X98.324 Y105.112
G0 F5400 X98.809 Y105.032
G1 F1800 X100.083 Y106.305 E20.7115
G0 X100.153 Y106.375
G0 F5400 X100.576 Y106.232
G1 F1800 X99.224 Y104.88 E20.80689
G0 X99.154 Y104.81
G0 F5400 X99.638 Y104.729
G1 F1800 X101.137 Y106.228 E20.91266
G0 X101.207 Y106.298
G0 F5400 X101.819 Y106.344
G1 F1800 X100.098 Y104.624 E21.03405
G0 X100.028 Y104.554
G0 F5400 X100.664 Y104.624
G1 F1800 X102.783 Y106.743 E21.18355
G0 X102.853 Y106.813
G0 F5400 X103.562 Y105.259
G1 F1800 X105.416 Y107.113 E21.31436
G0 X105.486 Y107.183
G0 F5400 X106.034 Y108.296
G1 F1800 X102.671 Y104.933 E21.55164
G0 X102.601 Y104.863
G0 F5400 X101.795 Y104.624
G1 F1800 X106.154 Y108.982 E21.85916
G0 X106.224 Y109.052
G0 F5400 X106.275 Y109.669
G1 F1800 X101.23 Y104.624 E22.21511
G0 X101.16 Y104.554
G0 F5400 X104.139 Y108.099
G1 F1800 X106.289 Y110.249 E22.3668
G0 X106.359 Y110.319
G0 F5400 X106.204 Y110.73
G1 F1800 X104.537 Y109.063 E22.48442
G0 X104.467 Y108.993
G0 F5400 X104.639 Y109.73
G1 F1800 X106.119 Y111.21 E22.58884
G0 X106.189 Y111.28
G0 F5400 X106.034 Y111.691
G1 F1800 X104.637 Y110.294 E22.68741
G0 X104.567 Y110.224
G0 F5400 X104.565 Y110.788
G1 F1800 X105.872 Y112.095 E22.77962
G0 X105.942 Y112.165
G0 F5400 X105.665 Y112.454
G1 F1800 X104.442 Y111.23 E22.86595
G0 X104.372 Y111.16
G0 F5400 X104.277 Y111.631
G1 F1800 X105.458 Y112.812 E22.94927
G0 X105.528 Y112.882
G0 F5400 X105.251 Y113.171
G1 F1800 X104.076 Y111.996 E23.03218
G0 X104.006 Y111.926
G0 F5400 X103.844 Y112.329
G1 F1800 X105.037 Y113.522 E23.11635
G0 X105.107 Y113.592
G0 F5400 X104.729 Y113.78
G1 F1800 X103.581 Y112.632 E23.19735
G0 X103.511 Y112.562
G0 F5400 X103.291 Y112.907
G1 F1800 X104.421 Y114.037 E23.27707
G0 X104.491 Y114.107
G0 F5400 X104.113 Y114.296
G1 F1800 X102.963 Y113.145 E23.35825
G0 X102.893 Y113.075
G0 F5400 X102.605 Y113.353
G1 F1800 X103.806 Y114.554 E23.44299
G0 X103.876 Y114.624
G0 F5400 X103.461 Y114.775
G1 F1800 X102.215 Y113.528 E23.53093
G0 X102.145 Y113.458
G0 F5400 X101.783 Y113.663
G1 F1800 X103.047 Y114.926 E23.62008
G0 X103.117 Y114.996
G0 F5400 X102.633 Y115.078
G1 F1800 X101.304 Y113.749 E23.71385
G0 X101.234 Y113.679
G0 F5400 X100.762 Y113.773
G1 F1800 X102.218 Y115.229 E23.81658
G0 X102.288 Y115.299
G0 F5400 X101.797 Y115.374
G1 F1800 X100.127 Y113.704 E23.9344
G0 X100.057 Y113.634
G0 F5400 X99.286 Y113.428
G1 F1800 X101.232 Y115.374 E24.0717
G0 X101.302 Y115.444
G0 F5400 X100.666 Y115.374
G1 F1800 X95.443 Y110.151 E24.44022
G0 X95.373 Y110.081
G0 F5400 X95.482 Y109.624
G1 F1800 X97.457 Y111.599 E24.57956
G0 X97.527 Y111.669
G0 F5400 X97.178 Y110.754
G1 F1800 X95.567 Y109.144 E24.69319
G0 X95.497 Y109.074
G0 F5400 X95.652 Y108.663
G1 F1800 X97.101 Y110.112 E24.79543
G0 X97.171 Y110.182
G0 F5400 X97.121 Y109.566
G1 F1800 X95.738 Y108.183 E24.893
G0 X95.668 Y108.113
G0 F5400 X95.931 Y107.811
G1 F1800 X97.208 Y109.088 E24.9831
G0 X97.278 Y109.158
G0 F5400 X97.343 Y108.657
G1 F1800 X96.138 Y107.452 E25.06812
G0 X96.068 Y107.382
G0 F5400 X96.345 Y107.093
G1 F1800 X97.519 Y108.267 E25.15096
G0 X97.589 Y108.337
G0 F5400 X97.73 Y107.912
G1 F1800 X96.552 Y106.734 E25.23407
G0 X96.482 Y106.664
G0 F5400 X96.496 Y106.673
G0 X95.564 Y110.838
G1 F1800 X100.1 Y115.374 E25.55411
G0 X100.17 Y115.444
G0 F5400 X99.31 Y115.149
G1 F1800 X95.685 Y111.524 E25.80987
G0 X95.615 Y111.454
G0 F5400 X96.133 Y112.538
G1 F1800 X98.42 Y114.824 E25.9712
G0 X98.49 Y114.894
G0 F5400 X98.579 Y114.651
G1 F1500 E19.4712
G0 F5400 X102.427 Y113.293
G0 X103.196 Y112.804
G0 X106.476 Y110
G0 X107.76 Y109.774
G0 X115.982 Y109.351
G0 X117.107 Y110
G0 X117.167 Y110
G0 X117.067 Y110
;TYPE:WALL-INNER
G1 F1500 E25.9712
G1 F1800 X118.971 Y106.703 E26.16114
G1 X122.779 Y106.703 E26.35113
G1 X124.683 Y110 E26.54107
G1 X122.779 Y113.297 E26.73102
G1 X118.971 Y113.297 E26.921
G1 X117.067 Y110 E27.11095
G0 F5400 X116.606 Y110
;TYPE:WALL-OUTER
G1 F1800 X118.74 Y106.303 E27.32391
G1 X123.01 Y106.303 E27.53694
G1 X125.144 Y110 E27.74991
G1 X123.01 Y113.697 E27.96288
G1 X118.74 Y113.697 E28.17591
G1 X116.606 Y110 E28.38887
G0 F5400 X117.302 Y109.948
;TYPE:SKIN
G1 F1800 X120.47 Y113.116 E28.61239
G0 X120.54 Y113.186
G0 F5400 X121.036 Y113.116
G1 F1800 X117.509 Y109.59 E28.86121
G0 X117.439 Y109.52
G0 F5400 X117.717 Y109.231
G1 F1800 X121.601 Y113.116 E29.13528
G0 X121.671 Y113.186
G0 F5400 X122.167 Y113.116
G1 F1800 X117.924 Y108.873 E29.43464
G0 X117.854 Y108.803
G0 F5400 X118.13 Y108.514
G1 F1800 X122.697 Y113.08 E29.75684
G0 X122.767 Y113.15
G0 F5400 X122.903 Y112.721
G1 F1800 X118.337 Y108.155 E30.07899
G0 X118.267 Y108.085
G0 F5400 X118.545 Y107.797
G1 F1800 X123.11 Y112.362 E30.40108
G0 X123.18 Y112.432
G0 F5400 X123.318 Y112.004
G1 F1800 X118.752 Y107.438 E30.72323
G0 X118.682 Y107.368
G0 F5400 X118.958 Y107.079
G1 F1800 X123.525 Y111.645 E31.04542
G0 X123.595 Y111.715
G0 F5400 X123.731 Y111.286
G1 F1800 X119.327 Y106.882 E31.35615
G0 X119.257 Y106.812
G0 F5400 X119.893 Y106.882
G1 F1800 X123.938 Y110.928 E31.64158
G0 X124.008 Y110.998
G0 F5400 X124.146 Y110.569
G1 F1800 X120.459 Y106.882 E31.90172
G0 X120.389 Y106.812
G0 F5400 X121.024 Y106.882
G1 F1800 X124.353 Y110.211 E32.1366
G0 X124.423 Y110.281
G0 F5400 X124.411 Y110.273
G0 X124.155 Y109.448
G1 F1800 X121.59 Y106.882 E32.31761
G0 X121.52 Y106.812
G0 F5400 X122.156 Y106.882
G1 F1800 X123.383 Y108.11 E32.40422
G0 X123.453 Y108.18
G0 F5400 X119.904 Y113.116
