;FLAVOR:RepRap
;TIME:4913
;Generated with Cura_SteamEngine 2.3.1
M190 S60
M104 S200
M109 S200
G28 ;Home
G1 Z15.0 F6000 ;Move the platform down 15mm
;Prime the extruder
G92 E0
G1 F200 E3
G92 E0
;LAYER_COUNT:130
;LAYER:0
M107
G1 F1500 E-6.5
G0 F5400 X80.792 Y77.929 Z.3
G0 X80.971 Y77.752
;TYPE:SKIRT
G1 F1500 E0
G1 F1800 X81.379 Y77.405 E0.02672
G1 X81.835 Y77.121 E0.05352
G1 X82.327 Y76.909 E0.08025
G1 X82.846 Y76.772 E0.10703
G1 X83.502 Y76.712 E0.1399
G1 X136.494 Y76.71 E2.78368
G1 X137.029 Y76.75 E2.81044
G1 X137.552 Y76.869 E2.8372
G1 X138.051 Y77.064 E2.86393
G1 X138.516 Y77.331 E2.89068
G1 X139.02 Y77.745 E2.92322
G1 X139.216 Y77.938 E2.93695
G1 X139.569 Y78.342 E2.96371
G1 X139.858 Y78.793 E2.99043
G1 X140.077 Y79.283 E3.01721
G1 X140.221 Y79.799 E3.04394
G1 X140.29 Y80.503 E3.07923
G1 X140.29 Y139.492 E6.0222
G1 X140.25 Y140.027 E6.04897
G1 X140.131 Y140.55 E6.07573
G1 X139.936 Y141.049 E6.10246
G1 X139.668 Y141.514 E6.12923
G1 X139.268 Y142.005 E6.16083
G1 X139.076 Y142.202 E6.17455
G1 X138.674 Y142.557 E6.20131
G1 X138.224 Y142.848 E6.22805
G1 X137.736 Y143.07 E6.25479
G1 X137.22 Y143.216 E6.28155
G1 X136.497 Y143.289 E6.3178
G1 X83.482 Y143.271 E8.96273
G1 X82.947 Y143.231 E8.9895
G1 X82.424 Y143.112 E9.01626
G1 X81.925 Y142.916 E9.043
G1 X81.46 Y142.649 E9.06975
G1 X80.923 Y142.202 E9.10461
G1 X80.75 Y142.027 E9.11689
G1 X80.402 Y141.619 E9.14364
G1 X80.119 Y141.163 E9.17042
G1 X79.907 Y140.671 E9.19714
G1 X79.77 Y140.152 E9.22392
G1 X79.71 Y139.495 E9.25684
G1 X79.723 Y80.488 E12.20071
G1 X79.763 Y79.953 E12.22748
G1 X79.882 Y79.431 E12.25419
G1 X80.078 Y78.931 E12.28098
G1 X80.345 Y78.466 E12.30773
G1 X80.792 Y77.929 E12.34259
G1 X80.971 Y77.752 E12.35515
G0 F5400 X81.252 Y78.037
G1 F1800 X81.638 Y77.711 E12.38036
G1 X82.071 Y77.45 E12.40558
G1 X82.54 Y77.26 E12.43082
G1 X83.033 Y77.147 E12.45606
G1 X83.502 Y77.112 E12.47952
G1 X136.494 Y77.11 E15.1233
G1 X136.998 Y77.15 E15.14853
G1 X137.489 Y77.269 E15.17373
G1 X137.956 Y77.463 E15.19896
G1 X138.386 Y77.729 E15.22419
G1 X138.739 Y78.03 E15.24733
G1 X138.935 Y78.223 E15.26105
G1 X139.266 Y78.605 E15.28627
G1 X139.533 Y79.034 E15.31148
G1 X139.729 Y79.501 E15.33675
G1 X139.849 Y79.992 E15.36197
G1 X139.89 Y80.503 E15.38754
G1 X139.89 Y139.492 E18.33052
G1 X139.85 Y139.996 E18.35574
G1 X139.731 Y140.487 E18.38094
G1 X139.537 Y140.954 E18.40617
G1 X139.271 Y141.384 E18.4314
G1 X138.982 Y141.725 E18.4537
G1 X138.79 Y141.922 E18.46742
G1 X138.409 Y142.256 E18.4927
G1 X137.981 Y142.525 E18.51792
G1 X137.516 Y142.723 E18.54314
G1 X137.026 Y142.845 E18.56833
G1 X136.497 Y142.889 E18.59481
G1 X83.482 Y142.871 E21.23974
G1 X82.978 Y142.831 E21.26497
G1 X82.487 Y142.712 E21.29017
G1 X82.02 Y142.517 E21.31542
G1 X81.59 Y142.251 E21.34064
G1 X81.207 Y141.921 E21.36587
G1 X81.034 Y141.746 E21.37814
G1 X80.708 Y141.359 E21.40339
G1 X80.447 Y140.926 E21.42861
G1 X80.258 Y140.458 E21.45379
G1 X80.145 Y139.965 E21.47903
G1 X80.11 Y139.495 E21.50254
G1 X80.123 Y80.488 E24.44641
G1 X80.163 Y79.984 E24.47163
G1 X80.282 Y79.493 E24.49684
G1 X80.477 Y79.026 E24.52209
G1 X80.743 Y78.596 E24.54731
G1 X81.073 Y78.214 E24.5725
G1 X81.252 Y78.037 E24.58506
G1 F1500 E18.08506
G0 F5400 X83.927 Y79.635
G0 X83.927 Y80.928
G0 X84.099 Y81
G0 X84.099 Y80.9
;TYPE:WALL-INNER
G1 F1500 E24.58506
G1 F1800 X136.1 Y80.9 E27.1794
G1 X136.1 Y139.1 E30.08301
G1 X84.1 Y139.101 E32.6773
G1 X83.9 Y139.101 E32.68728
G1 X83.9 Y138.901 E32.69374
G1 X83.899 Y81.1 E35.57744
G1 X83.899 Y80.9 E35.58742
G1 X84.099 Y80.9 E35.59388
G0 F5400 X84.099 Y81
G0 X85.44 Y82.115
G0 X85.504 Y82.191
G1 F1800 X85.259 Y82.427 E35.61085
G1 X85.047 Y82.691 E35.62774
G1 X84.868 Y82.98 E35.6447
G1 X84.729 Y83.286 E35.66147
G1 X84.627 Y83.611 E35.67846
G1 X84.568 Y83.945 E35.69539
G1 X84.551 Y84.285 E35.71237
G1 X84.577 Y84.621 E35.72918
G1 X84.643 Y84.954 E35.74612
G1 X84.754 Y85.277 E35.76316
G1 X84.901 Y85.581 E35.78001
G1 X85.087 Y85.864 E35.7969
G1 X85.305 Y86.122 E35.81375
G1 X85.555 Y86.353 E35.83073
G1 X85.833 Y86.549 E35.8477
G1 X86.132 Y86.708 E35.8646
G1 X86.451 Y86.83 E35.88164
G1 X86.779 Y86.908 E35.89846
G1 X87.114 Y86.946 E35.91528
G1 X87.453 Y86.943 E35.93219
G1 X87.79 Y86.895 E35.94918
G1 X88.116 Y86.808 E35.96601
G1 X88.431 Y86.678 E35.98301
G1 X88.725 Y86.512 E35.99985
G1 X88.997 Y86.31 E36.01676
G1 X89.242 Y86.074 E36.03373
G1 X89.454 Y85.81 E36.05062
G1 X89.633 Y85.521 E36.06758
G1 X89.772 Y85.215 E36.08435
G1 X89.874 Y84.89 E36.10134
G1 X89.933 Y84.554 E36.11836
G1 X89.95 Y84.215 E36.1353
G1 X89.924 Y83.88 E36.15206
G1 X89.858 Y83.547 E36.169
G1 X89.747 Y83.224 E36.18604
G1 X89.6 Y82.92 E36.20288
G1 X89.414 Y82.637 E36.21978
G1 X89.196 Y82.379 E36.23663
G1 X88.946 Y82.148 E36.25361
G1 X88.668 Y81.952 E36.27058
G1 X88.369 Y81.793 E36.28748
G1 X88.05 Y81.671 E36.30452
G1 X87.722 Y81.593 E36.32134
G1 X87.387 Y81.555 E36.33816
G1 X87.048 Y81.558 E36.35507
G1 X86.711 Y81.606 E36.37205
G1 X86.385 Y81.693 E36.38889
G1 X86.07 Y81.823 E36.40589
G1 X85.776 Y81.989 E36.42273
G1 X85.504 Y82.191 E36.43963
G0 F5400 X85.44 Y82.115
G0 X86.373 Y81.656
G0 X87.045 Y81.519
G0 X129.952 Y84.285
G0 X130.051 Y84.284
G1 F1800 X130.075 Y84.621 E36.45649
G1 X130.142 Y84.955 E36.47349
G1 X130.253 Y85.277 E36.49048
G1 X130.4 Y85.581 E36.50732
G1 X130.586 Y85.864 E36.52422
G1 X130.804 Y86.122 E36.54107
G1 X131.054 Y86.353 E36.55805
G1 X131.332 Y86.549 E36.57502
G1 X131.631 Y86.708 E36.59192
G1 X131.95 Y86.83 E36.60896
G1 X132.278 Y86.908 E36.62578
G1 X132.613 Y86.946 E36.6426
G1 X132.952 Y86.943 E36.65951
G1 X133.289 Y86.895 E36.67649
G1 X133.615 Y86.808 E36.69333
G1 X133.93 Y86.678 E36.71033
G1 X134.224 Y86.512 E36.72717
G1 X134.496 Y86.31 E36.74408
G1 X134.741 Y86.074 E36.76105
G1 X134.953 Y85.81 E36.77794
G1 X135.132 Y85.521 E36.7949
G1 X135.271 Y85.215 E36.81167
G1 X135.373 Y84.89 E36.82866
G1 X135.432 Y84.554 E36.84568
G1 X135.448 Y84.216 E36.86256
G1 X135.424 Y83.88 E36.87937
G1 X135.357 Y83.546 E36.89636
G1 X135.246 Y83.224 E36.91336
G1 X135.099 Y82.92 E36.9302
G1 X134.913 Y82.637 E36.9471
G1 X134.695 Y82.379 E36.96395
G1 X134.445 Y82.148 E36.98093
G1 X134.167 Y81.952 E36.9979
G1 X133.868 Y81.793 E37.0148
G1 X133.549 Y81.671 E37.03184
G1 X133.221 Y81.593 E37.04866
G1 X132.886 Y81.555 E37.06548
G1 X132.547 Y81.558 E37.08239
G1 X132.21 Y81.606 E37.09937
G1 X131.884 Y81.693 E37.11621
G1 X131.569 Y81.823 E37.13321
G1 X131.275 Y81.989 E37.15005
G1 X131.003 Y82.191 E37.16695
G1 X130.758 Y82.427 E37.18393
G1 X130.546 Y82.691 E37.20082
G1 X130.367 Y82.98 E37.21778
G1 X130.228 Y83.286 E37.23455
G1 X130.126 Y83.611 E37.25154
G1 X130.067 Y83.947 E37.26856
G1 X130.051 Y84.284 E37.28539
G0 F5400 X129.952 Y84.285
G0 X132.54 Y132.958
G0 X132.547 Y133.057
G1 F1800 X132.21 Y133.105 E37.30237
G1 X131.884 Y133.192 E37.31921
G1 X131.569 Y133.322 E37.33621
G1 X131.275 Y133.488 E37.35305
G1 X131.003 Y133.69 E37.36996
G1 X130.758 Y133.926 E37.38693
G1 X130.546 Y134.19 E37.40382
G1 X130.367 Y134.479 E37.42078
G1 X130.228 Y134.785 E37.43755
G1 X130.126 Y135.11 E37.45454
G1 X130.067 Y135.446 E37.47156
G1 X130.051 Y135.784 E37.48844
G1 X130.075 Y136.12 E37.50525
G1 X130.142 Y136.454 E37.52224
G1 X130.253 Y136.776 E37.53924
G1 X130.4 Y137.08 E37.55608
G1 X130.586 Y137.363 E37.57298
G1 X130.804 Y137.621 E37.58983
G1 X131.054 Y137.852 E37.60681
G1 X131.332 Y138.048 E37.62378
G1 X131.631 Y138.207 E37.64068
G1 X131.95 Y138.329 E37.65772
G1 X132.278 Y138.407 E37.67454
G1 X132.613 Y138.445 E37.69136
G1 X132.952 Y138.442 E37.70827
G1 X133.289 Y138.394 E37.72525
G1 X133.615 Y138.307 E37.74209
G1 X133.93 Y138.177 E37.75909
G1 X134.224 Y138.011 E37.77593
G1 X134.496 Y137.809 E37.79283
G1 X134.741 Y137.573 E37.80981
G1 X134.953 Y137.309 E37.8267
G1 X135.132 Y137.02 E37.84366
G1 X135.271 Y136.714 E37.86043
G1 X135.373 Y136.389 E37.87742
G1 X135.432 Y136.053 E37.89444
G1 X135.448 Y135.716 E37.91127
G1 X135.424 Y135.379 E37.92813
G1 X135.357 Y135.045 E37.94512
G1 X135.246 Y134.723 E37.96211
G1 X135.099 Y134.419 E37.97896
G1 X134.913 Y134.136 E37.99586
G1 X134.695 Y133.878 E38.01271
G1 X134.445 Y133.647 E38.02969
G1 X134.167 Y133.451 E38.04666
G1 X133.868 Y133.292 E38.06355
G1 X133.549 Y133.17 E38.08059
G1 X133.221 Y133.092 E38.09741
G1 X132.886 Y133.054 E38.11423
G1 X132.547 Y133.057 E38.13115
G0 F5400 X132.54 Y132.958
G0 X90.049 Y135.714
G0 X89.95 Y135.715
G1 F1800 X89.924 Y135.379 E38.14796
G1 X89.858 Y135.046 E38.1649
G1 X89.747 Y134.723 E38.18194
G1 X89.6 Y134.419 E38.19878
G1 X89.414 Y134.136 E38.21568
G1 X89.196 Y133.878 E38.23253
G1 X88.946 Y133.647 E38.24951
G1 X88.668 Y133.451 E38.26648
G1 X88.369 Y133.292 E38.28338
G1 X88.05 Y133.17 E38.30042
G1 X87.722 Y133.092 E38.31724
G1 X87.387 Y133.054 E38.33406
G1 X87.048 Y133.057 E38.35097
G1 X86.711 Y133.105 E38.36795
G1 X86.385 Y133.192 E38.38479
G1 X86.07 Y133.322 E38.40179
G1 X85.776 Y133.488 E38.41863
G1 X85.504 Y133.69 E38.43554
G1 X85.259 Y133.926 E38.45251
G1 X85.047 Y134.19 E38.4694
G1 X84.868 Y134.479 E38.48636
G1 X84.729 Y134.785 E38.50313
G1 X84.627 Y135.11 E38.52012
G1 X84.568 Y135.446 E38.53714
G1 X84.551 Y135.785 E38.55407
G1 X84.577 Y136.12 E38.57084
G1 X84.643 Y136.453 E38.58777
G1 X84.754 Y136.776 E38.60481
G1 X84.901 Y137.08 E38.62166
G1 X85.087 Y137.363 E38.63856
G1 X85.305 Y137.621 E38.65541
G1 X85.555 Y137.852 E38.67239
G1 X85.833 Y138.048 E38.68936
G1 X86.132 Y138.207 E38.70625
G1 X86.451 Y138.329 E38.72329
G1 X86.779 Y138.407 E38.74011
G1 X87.114 Y138.445 E38.75693
G1 X87.453 Y138.442 E38.77385
G1 X87.79 Y138.394 E38.79083
G1 X88.116 Y138.307 E38.80766
G1 X88.431 Y138.177 E38.82467
G1 X88.725 Y138.011 E38.84151
G1 X88.997 Y137.809 E38.85841
G1 X89.242 Y137.573 E38.87538
G1 X89.454 Y137.309 E38.89228
G1 X89.633 Y137.02 E38.90924
G1 X89.772 Y136.714 E38.926
G1 X89.874 Y136.389 E38.943
G1 X89.933 Y136.055 E38.95992
G1 X89.95 Y135.715 E38.9769
G0 F5400 X89.549 Y135.721
;TYPE:WALL-OUTER
G1 F1800 X89.527 Y135.433 E38.99131
G1 X89.471 Y135.15 E39.00571
G1 X89.377 Y134.876 E39.02016
G1 X89.251 Y134.617 E39.03453
G1 X89.093 Y134.375 E39.04895
G1 X88.907 Y134.155 E39.06332
G1 X88.694 Y133.959 E39.07776
G1 X88.458 Y133.792 E39.09218
G1 X88.203 Y133.657 E39.10658
G1 X87.932 Y133.553 E39.12106
G1 X87.653 Y133.487 E39.13536
G1 X87.366 Y133.454 E39.14978
G1 X87.078 Y133.457 E39.16415
G1 X86.791 Y133.498 E39.17861
G1 X86.513 Y133.572 E39.19296
G1 X86.245 Y133.682 E39.20742
G1 X85.995 Y133.824 E39.22176
G1 X85.763 Y133.996 E39.23617
G1 X85.555 Y134.197 E39.2506
G1 X85.374 Y134.421 E39.26497
G1 X85.222 Y134.668 E39.27944
G1 X85.103 Y134.929 E39.29375
G1 X85.016 Y135.205 E39.30818
G1 X84.966 Y135.49 E39.32262
G1 X84.952 Y135.779 E39.33706
G1 X84.974 Y136.066 E39.35142
G1 X85.03 Y136.349 E39.36581
G1 X85.124 Y136.623 E39.38026
G1 X85.25 Y136.882 E39.39463
G1 X85.408 Y137.124 E39.40905
G1 X85.594 Y137.344 E39.42342
G1 X85.807 Y137.54 E39.43786
G1 X86.043 Y137.707 E39.45229
G1 X86.298 Y137.842 E39.46668
G1 X86.569 Y137.946 E39.48116
G1 X86.848 Y138.012 E39.49547
G1 X87.135 Y138.045 E39.50988
G1 X87.423 Y138.042 E39.52425
G1 X87.71 Y138.001 E39.53871
G1 X87.988 Y137.927 E39.55306
G1 X88.256 Y137.817 E39.56752
G1 X88.506 Y137.675 E39.58186
G1 X88.738 Y137.503 E39.59627
G1 X88.946 Y137.302 E39.6107
G1 X89.127 Y137.078 E39.62507
G1 X89.279 Y136.831 E39.63954
G1 X89.398 Y136.57 E39.65385
G1 X89.485 Y136.294 E39.66829
G1 X89.535 Y136.01 E39.68267
G1 X89.549 Y135.721 E39.69711
G0 F5400 X90.048 Y135.746
G0 X89.809 Y136.728
G0 X89.486 Y137.332
G0 X89.022 Y137.839
G0 X88.448 Y138.212
G0 X87.797 Y138.433
G0 X83.97 Y139.031
G0 X83.724 Y139.501
G1 F1800 X83.583 Y139.501 E39.70414
G1 X83.5 Y139.417 E39.71003
G1 X83.5 Y139.276 E39.71707
G1 X83.499 Y80.583 E42.64527
G1 X83.583 Y80.5 E42.65117
G1 X136.418 Y80.5 E45.28712
G1 X136.5 Y80.582 E45.2929
G1 X136.5 Y139.418 E48.22824
G1 X136.418 Y139.5 E48.23403
G1 X83.724 Y139.501 E50.86294
G0 F5400 X83.97 Y139.031
G0 X129.973 Y136.103
G0 X130.472 Y136.066
G1 F1800 X130.529 Y136.349 E50.87734
G1 X130.623 Y136.623 E50.8918
G1 X130.749 Y136.882 E50.90616
G1 X130.907 Y137.124 E50.92058
G1 X131.093 Y137.344 E50.93496
G1 X131.306 Y137.54 E50.9494
G1 X131.542 Y137.707 E50.96382
G1 X131.797 Y137.842 E50.97822
G1 X132.068 Y137.946 E50.9927
G1 X132.347 Y138.012 E51.007
G1 X132.634 Y138.045 E51.02141
G1 X132.922 Y138.042 E51.03578
G1 X133.209 Y138.001 E51.05025
G1 X133.487 Y137.927 E51.0646
G1 X133.755 Y137.817 E51.07905
G1 X134.005 Y137.675 E51.0934
G1 X134.237 Y137.503 E51.10781
G1 X134.445 Y137.302 E51.12224
G1 X134.626 Y137.078 E51.1366
G1 X134.778 Y136.831 E51.15107
G1 X134.897 Y136.57 E51.16538
G1 X134.984 Y136.294 E51.17982
G1 X135.034 Y136.009 E51.19426
G1 X135.047 Y135.721 E51.20864
G1 X135.027 Y135.433 E51.22304
G1 X134.97 Y135.15 E51.23745
G1 X134.876 Y134.876 E51.2519
G1 X134.75 Y134.617 E51.26627
G1 X134.592 Y134.375 E51.28069
G1 X134.406 Y134.155 E51.29506
G1 X134.193 Y133.959 E51.3095
G1 X133.957 Y133.792 E51.32392
G1 X133.702 Y133.657 E51.33832
G1 X133.431 Y133.553 E51.3528
G1 X133.152 Y133.487 E51.3671
G1 X132.865 Y133.454 E51.38152
G1 X132.577 Y133.457 E51.39589
G1 X132.29 Y133.498 E51.41035
G1 X132.012 Y133.572 E51.4247
G1 X131.744 Y133.682 E51.43916
G1 X131.494 Y133.824 E51.4535
G1 X131.262 Y133.996 E51.46791
G1 X131.054 Y134.197 E51.48234
G1 X130.873 Y134.421 E51.49671
G1 X130.721 Y134.668 E51.51118
G1 X130.602 Y134.929 E51.52549
G1 X130.515 Y135.205 E51.53992
G1 X130.465 Y135.49 E51.55436
G1 X130.452 Y135.779 E51.56879
G1 X130.472 Y136.066 E51.58315
G0 F5400 X129.973 Y136.103
G0 X132.578 Y87.042
G0 X132.634 Y86.546
G1 F1800 X132.922 Y86.543 E51.59751
G1 X133.209 Y86.502 E51.61198
G1 X133.487 Y86.428 E51.62633
G1 X133.755 Y86.318 E51.64078
G1 X134.005 Y86.176 E51.65513
G1 X134.237 Y86.004 E51.66954
G1 X134.445 Y85.803 E51.68397
G1 X134.626 Y85.579 E51.69834
G1 X134.778 Y85.332 E51.7128
G1 X134.897 Y85.071 E51.72712
G1 X134.984 Y84.795 E51.74155
G1 X135.034 Y84.51 E51.75599
G1 X135.047 Y84.221 E51.77042
G1 X135.027 Y83.934 E51.78478
G1 X134.97 Y83.651 E51.79918
G1 X134.876 Y83.377 E51.81363
G1 X134.75 Y83.118 E51.828
G1 X134.592 Y82.876 E51.84242
G1 X134.406 Y82.656 E51.85679
G1 X134.193 Y82.46 E51.87123
G1 X133.957 Y82.293 E51.88566
G1 X133.702 Y82.158 E51.90005
G1 X133.431 Y82.054 E51.91453
G1 X133.152 Y81.988 E51.92884
G1 X132.865 Y81.955 E51.94325
G1 X132.577 Y81.958 E51.95762
G1 X132.29 Y81.999 E51.97208
G1 X132.012 Y82.073 E51.98643
G1 X131.744 Y82.183 E52.00089
G1 X131.494 Y82.325 E52.01523
G1 X131.262 Y82.497 E52.02964
G1 X131.054 Y82.698 E52.04407
G1 X130.873 Y82.922 E52.05844
G1 X130.721 Y83.169 E52.07291
G1 X130.602 Y83.43 E52.08722
G1 X130.515 Y83.706 E52.10166
G1 X130.465 Y83.991 E52.11609
G1 X130.452 Y84.279 E52.13047
G1 X130.472 Y84.567 E52.14488
G1 X130.529 Y84.85 E52.15928
G1 X130.623 Y85.124 E52.17373
G1 X130.749 Y85.383 E52.1881
G1 X130.907 Y85.625 E52.20252
G1 X131.093 Y85.845 E52.21689
G1 X131.306 Y86.041 E52.23133
G1 X131.542 Y86.208 E52.24576
G1 X131.797 Y86.343 E52.26015
G1 X132.068 Y86.447 E52.27463
G1 X132.347 Y86.513 E52.28894
G1 X132.634 Y86.546 E52.30335
G0 F5400 X132.578 Y87.042
G0 X90.026 Y84.597
G0 X89.535 Y84.51
G1 F1800 X89.549 Y84.221 E52.31779
G1 X89.527 Y83.934 E52.33215
G1 X89.471 Y83.651 E52.34654
G1 X89.377 Y83.377 E52.36099
G1 X89.251 Y83.118 E52.37536
G1 X89.093 Y82.876 E52.38978
G1 X88.907 Y82.656 E52.40415
G1 X88.694 Y82.46 E52.41859
G1 X88.458 Y82.293 E52.43302
G1 X88.203 Y82.158 E52.44741
G1 X87.932 Y82.054 E52.46189
G1 X87.653 Y81.988 E52.4762
G1 X87.366 Y81.955 E52.49061
G1 X87.078 Y81.958 E52.50498
G1 X86.791 Y81.999 E52.51944
G1 X86.513 Y82.073 E52.5338
G1 X86.245 Y82.183 E52.54825
G1 X85.995 Y82.325 E52.56259
G1 X85.763 Y82.497 E52.577
G1 X85.555 Y82.698 E52.59143
G1 X85.374 Y82.922 E52.6058
G1 X85.222 Y83.169 E52.62027
G1 X85.103 Y83.43 E52.63458
G1 X85.016 Y83.706 E52.64902
G1 X84.966 Y83.99 E52.6634
G1 X84.952 Y84.279 E52.67784
G1 X84.974 Y84.567 E52.69225
G1 X85.03 Y84.85 E52.70664
G1 X85.124 Y85.124 E52.72109
G1 X85.25 Y85.383 E52.73546
G1 X85.408 Y85.625 E52.74988
G1 X85.594 Y85.845 E52.76426
G1 X85.807 Y86.041 E52.7787
G1 X86.043 Y86.208 E52.79312
G1 X86.298 Y86.343 E52.80752
