;FLAVOR:RepRap
;TIME:1462
;Generated with Cura_SteamEngine 2.3.1
M190 S60
M104 S200
M109 S200
G28 ;Home
G1 Z15.0 F6000 ;Move the platform down 15mm
;Prime the extruder
G92 E0
G1 F200 E3
G92 E0
;LAYER_COUNT:75
;LAYER:0
M107
G1 F1500 E-6.5
G0 F5400 X76.865 Y99.493 Z.3
;TYPE:SKIRT
G1 F1500 E0
G1 F1800 X77.307 Y99.19 E0.02674
G1 X77.79 Y98.955 E0.05353
G1 X78.06 Y98.86 E0.06781
G1 X80.561 Y98.091 E0.19835
G1 X85.734 Y96.26 E0.47213
G1 X90.769 Y94.152 E0.74445
G1 X95.656 Y91.772 E1.01564
G1 X100.422 Y89.108 E1.28804
G1 X105.014 Y86.19 E1.55948
G1 X109.474 Y82.986 E1.83345
G1 X112.875 Y80.284 E2.05016
G1 X113.318 Y79.983 E2.07688
G1 X113.802 Y79.751 E2.10366
G1 X114.314 Y79.593 E2.13039
G1 X114.845 Y79.513 E2.15718
G1 X115.135 Y79.503 E2.17166
G1 X123.176 Y79.55 E2.57283
G1 X123.711 Y79.593 E2.59961
G1 X124.233 Y79.715 E2.62635
G1 X124.731 Y79.913 E2.65309
G1 X125.194 Y80.183 E2.67983
G1 X125.613 Y80.519 E2.70663
G1 X126.117 Y81.104 E2.74515
G1 X129.45 Y85.928 E3.03768
G1 X132.795 Y90.278 E3.31144
G1 X136.34 Y94.381 E3.58197
G1 X140.163 Y98.333 E3.85629
G1 X141.588 Y99.699 E3.95477
G1 X141.946 Y100.097 E3.98148
G1 X142.241 Y100.545 E4.00824
G1 X142.467 Y101.032 E4.03502
G1 X142.618 Y101.546 E4.06175
G1 X142.697 Y102.298 E4.09947
G1 X142.697 Y104.284 E4.19856
G1 X142.657 Y104.819 E4.22532
G1 X142.538 Y105.342 E4.25208
G1 X142.343 Y105.841 E4.27881
G1 X142.075 Y106.306 E4.30559
G1 X141.742 Y106.726 E4.33233
G1 X141.35 Y107.092 E4.35908
G1 X140.908 Y107.395 E4.38582
G1 X140.425 Y107.63 E4.41262
G1 X139.88 Y107.798 E4.44107
G1 X133.11 Y109.307 E4.78711
G1 X130.511 Y110.02 E4.92157
G1 X125.311 Y111.686 E5.19399
G1 X120.191 Y113.652 E5.46761
G1 X115.952 Y115.531 E5.69894
G1 X115.447 Y115.711 E5.72569
G1 X114.92 Y115.815 E5.75249
G1 X114.492 Y115.84 E5.77388
G1 X105.499 Y115.838 E6.22254
G1 X104.964 Y115.798 E6.2493
G1 X104.442 Y115.679 E6.27602
G1 X104.08 Y115.546 E6.29526
G1 X99.613 Y113.629 E6.53777
G1 X97.021 Y112.629 E6.67638
G1 X94.545 Y111.759 E6.80731
G1 X89.287 Y110.152 E7.08161
G1 X83.995 Y108.857 E7.35342
G1 X78.457 Y107.823 E7.63448
G1 X77.939 Y107.685 E7.66123
G1 X77.446 Y107.472 E7.68802
G1 X76.991 Y107.189 E7.71475
G1 X76.583 Y106.841 E7.74151
G1 X76.232 Y106.436 E7.76825
G1 X75.944 Y105.983 E7.79503
G1 X75.727 Y105.493 E7.82176
G1 X75.585 Y104.976 E7.84851
G1 X75.518 Y104.284 E7.8832
G1 X75.518 Y102.301 E7.98213
G1 X75.558 Y101.766 E8.0089
G1 X75.677 Y101.243 E8.03566
G1 X75.872 Y100.744 E8.06238
G1 X76.14 Y100.279 E8.08916
G1 X76.473 Y99.859 E8.1159
G1 X76.865 Y99.493 E8.14266
G0 F5400 X77.254 Y99.7
G1 F1800 X77.687 Y99.439 E8.16788
G1 X78.178 Y99.242 E8.19427
G1 X80.694 Y98.468 E8.3256
G1 X85.874 Y96.635 E8.59974
G1 X90.933 Y94.517 E8.87336
G1 X95.855 Y92.12 E9.14649
G1 X100.613 Y89.46 E9.41845
G1 X105.249 Y86.515 E9.69246
G1 X109.707 Y83.312 E9.96632
G1 X113.124 Y80.597 E10.18406
G1 X113.543 Y80.315 E10.20926
G1 X114.002 Y80.103 E10.23448
G1 X114.488 Y79.965 E10.25969
G1 X115.133 Y79.903 E10.29201
G1 X123.174 Y79.95 E10.69319
G1 X123.677 Y79.993 E10.71837
G1 X124.168 Y80.115 E10.74361
G1 X124.634 Y80.312 E10.76885
G1 X125.062 Y80.58 E10.79405
G1 X125.443 Y80.913 E10.81929
G1 X125.788 Y81.331 E10.84633
G1 X129.13 Y86.168 E11.13965
G1 X132.476 Y90.518 E11.41345
G1 X136.059 Y94.666 E11.68691
G1 X139.867 Y98.604 E11.96021
G1 X141.311 Y99.987 E12.05996
G1 X141.647 Y100.365 E12.08519
G1 X141.92 Y100.791 E12.11043
G1 X142.122 Y101.254 E12.13564
G1 X142.249 Y101.744 E12.16089
G1 X142.297 Y102.298 E12.18863
G1 X142.297 Y104.284 E12.28772
G1 X142.257 Y104.788 E12.31294
G1 X142.138 Y105.279 E12.33814
G1 X141.944 Y105.746 E12.36337
G1 X141.678 Y106.176 E12.3886
G1 X141.348 Y106.559 E12.41382
G1 X140.961 Y106.885 E12.43907
G1 X140.528 Y107.146 E12.46429
G1 X140.06 Y107.336 E12.48949
G1 X139.793 Y107.407 E12.50327
G1 X133.019 Y108.917 E12.84952
G1 X130.402 Y109.634 E12.9849
G1 X125.166 Y111.312 E13.25921
G1 X120.065 Y113.271 E13.53182
G1 X115.79 Y115.166 E13.76512
G1 X115.313 Y115.333 E13.79033
G1 X114.815 Y115.424 E13.81559
G1 X114.492 Y115.44 E13.83172
G1 X105.499 Y115.438 E14.28038
G1 X104.995 Y115.398 E14.30561
G1 X104.504 Y115.279 E14.33081
G1 X104.238 Y115.179 E14.34499
G1 X99.734 Y113.246 E14.58952
G1 X97.201 Y112.269 E14.72496
G1 X94.646 Y111.371 E14.86008
G1 X89.394 Y109.766 E15.13406
G1 X84.092 Y108.469 E15.40638
G1 X78.53 Y107.43 E15.68867
G1 X78.042 Y107.298 E15.71389
G1 X77.581 Y107.091 E15.7391
G1 X77.158 Y106.814 E15.76433
G1 X76.784 Y106.473 E15.78958
G1 X76.469 Y106.079 E15.81474
G1 X76.219 Y105.639 E15.83999
G1 X76.042 Y105.165 E15.86524
G1 X75.941 Y104.67 E15.89044
G1 X75.918 Y104.284 E15.90973
G1 X75.918 Y102.301 E16.00866
G1 X75.958 Y101.797 E16.03389
G1 X76.077 Y101.306 E16.05909
G1 X76.271 Y100.839 E16.08432
G1 X76.537 Y100.409 E16.10955
G1 X76.867 Y100.026 E16.13477
G1 X77.254 Y99.7 E16.16001
G1 F1500 E9.66001
G0 F5400 X113.718 Y101.632
G0 X113.843 Y101.893
;TYPE:SUPPORT
G1 F1500 E16.16001
G1 F1800 X113.835 Y101.893 E16.16041
G1 X113.876 Y101.852 E16.16331
G1 X113.843 Y101.893 E16.16593
G0 F5400 X114.07 Y101.658
G1 F1800 X114.07 Y100.971 E16.20021
G1 X114.389 Y101.089 E16.21718
G1 X114.418 Y101.433 E16.2344
G1 X114.191 Y101.66 E16.25042
G1 X114.022 Y101.765 E16.26034
G1 X113.96 Y101.819 E16.26444
G1 X113.892 Y101.836 E16.26794
G1 X114.07 Y101.658 E16.2805
G1 F1500 E9.7805
G0 F5400 X114.02 Y101.456
G0 X113.907 Y91.088
G1 F1500 E16.2805
G1 F1800 X113.871 Y91.088 E16.2823
G1 X113.871 Y87.5 E16.4613
G1 X113.907 Y87.5 E16.4631
G1 X113.907 Y91.088 E16.6421
G1 F1500 E10.1421
G0 F5400 X114.245 Y83.015
G0 X114.837 Y82.431
G0 X123.385 Y82.431
G0 X123.969 Y83.023
G0 X124.307 Y91.087
G1 F1500 E16.6421
G1 F1800 X124.307 Y87.499 E16.82111
G1 X124.343 Y87.499 E16.82291
G1 X124.343 Y91.087 E17.00191
G1 X124.307 Y91.087 E17.00371
G1 F1500 E10.50371
G0 F5400 X124.198 Y101.475
G0 X124.144 Y101.658
G1 F1500 E17.00371
G1 F1800 X124.379 Y101.893 E17.02029
G1 X124.367 Y101.893 E17.02089
G1 X124.245 Y101.812 E17.02819
G1 X124.226 Y101.81 E17.02915
G1 X124.201 Y101.788 E17.03081
G1 X124.032 Y101.684 E17.04071
G1 X123.785 Y101.437 E17.05813
G1 X123.839 Y101.074 E17.07644
G1 X124.144 Y100.973 E17.09247
G1 X124.144 Y101.658 E17.12665
G1 F1500 E10.62665
G0 F5400 X123.561 Y102.614
G0 X122.561 Y101.753
G0 X122.654 Y101.719
;TYPE:WALL-INNER
G1 F1500 E17.12665
G1 F1800 X123.408 Y102.474 E17.17988
G1 X123.611 Y102.598 E17.19175
G1 X123.801 Y102.761 E17.20424
G1 X123.885 Y102.773 E17.20847
G1 X123.94 Y102.809 E17.21175
G1 X124.218 Y102.893 E17.22624
G1 X138.507 Y102.893 E17.93912
G1 X138.507 Y103.693 E17.97903
G1 X79.708 Y103.693 E20.91253
G1 X79.708 Y102.893 E20.95244
G1 X113.979 Y102.893 E22.66223
G1 X114.41 Y102.788 E22.68436
G1 X114.505 Y102.668 E22.69199
G1 X114.616 Y102.574 E22.69925
G1 X114.814 Y102.449 E22.71093
G1 X115.535 Y101.727 E22.76184
G1 X115.507 Y101.271 E22.78463
G1 X115.506 Y83.693 E23.6616
G1 X122.507 Y83.692 E24.01088
G1 X122.707 Y83.692 E24.02086
G1 X122.707 Y83.892 E24.02732
G1 X122.708 Y101.233 E24.89247
G1 X122.686 Y101.355 E24.89865
G1 X122.654 Y101.719 E24.91688
G0 F5400 X123.069 Y101.568
;TYPE:WALL-OUTER
G1 F1800 X123.658 Y102.158 E24.95848
G1 X123.847 Y102.274 E24.96954
G1 X123.972 Y102.381 E24.97775
G1 X124.03 Y102.389 E24.98067
G1 X124.112 Y102.443 E24.98557
G1 X124.277 Y102.493 E24.99417
G1 X138.907 Y102.493 E25.72406
G1 X138.907 Y104.093 E25.80389
G1 X79.308 Y104.093 E28.77729
G1 X79.308 Y102.493 E28.85712
G1 X113.931 Y102.493 E30.58447
G1 X114.182 Y102.432 E30.59735
G1 X114.235 Y102.365 E30.60161
G1 X114.249 Y102.361 E30.60234
G1 X114.379 Y102.251 E30.61084
G1 X114.563 Y102.135 E30.62169
G1 X115.125 Y101.572 E30.66138
G1 X115.107 Y101.28 E30.67597
G1 X115.106 Y83.376 E31.56921
G1 X115.19 Y83.293 E31.5751
G1 X122.883 Y83.292 E31.9589
G1 X123.024 Y83.292 E31.96594
G1 X123.107 Y83.376 E31.97183
G1 X123.107 Y83.517 E31.97886
G1 X123.108 Y101.272 E32.86466
G1 X123.083 Y101.409 E32.87161
G1 X123.069 Y101.568 E32.87958
G0 F5400 X122.487 Y101.557
;TYPE:SKIN
G1 F1800 X115.685 Y94.755 E33.35949
G0 X115.615 Y94.685
G0 F5400 X115.685 Y95.32
G1 F1800 X123.877 Y103.512 E33.93748
G0 X123.947 Y103.582
G0 F5400 X124.182 Y103.251
G1 F1800 X124.788 Y103.292 E33.97127
G1 X125.354 Y103.292 E34.00233
G1 X125.92 Y103.292 E34.03339
G1 X126.485 Y103.292 E34.0644
G1 X127.051 Y103.292 E34.09546
G1 X127.617 Y103.292 E34.12652
G1 X128.182 Y103.292 E34.15753
G1 X128.748 Y103.292 E34.18859
G1 X129.314 Y103.292 E34.21965
G1 X129.879 Y103.292 E34.25066
G1 X130.445 Y103.292 E34.28172
G1 X131.011 Y103.292 E34.31278
G1 X131.576 Y103.292 E34.34379
G1 X132.142 Y103.292 E34.37485
G1 X132.708 Y103.292 E34.40591
G1 X133.273 Y103.292 E34.43692
G1 X133.839 Y103.292 E34.46798
G1 X134.405 Y103.292 E34.49904
G1 X134.971 Y103.292 E34.53011
G1 X135.536 Y103.292 E34.56111
G1 X136.102 Y103.292 E34.59217
G1 X136.668 Y103.292 E34.62324
G1 X137.233 Y103.292 E34.65424
G1 X137.799 Y103.292 E34.6853
G1 X138.235 Y103.162 E34.70721
G0 F5400 X138.145 Y103.072
G0 X123.311 Y103.512
G1 F1800 X115.685 Y95.886 E35.24526
G0 X115.615 Y95.816
G0 F5400 X115.685 Y96.452
G1 F1800 X122.745 Y103.512 E35.74338
G0 X122.815 Y103.582
G0 F5400 X122.18 Y103.512
G1 F1800 X115.685 Y97.017 E36.20164
G0 X115.615 Y96.947
G0 F5400 X115.685 Y97.583
G1 F1800 X121.614 Y103.512 E36.61996
G0 X121.684 Y103.582
G0 F5400 X121.048 Y103.512
G1 F1800 X115.685 Y98.149 E36.99835
G0 X115.615 Y98.079
G0 F5400 X115.685 Y98.714
G1 F1800 X120.483 Y103.512 E37.33688
G0 X120.553 Y103.582
G0 F5400 X119.917 Y103.512
G1 F1800 X115.685 Y99.28 E37.63547
G0 X115.615 Y99.21
G0 F5400 X115.685 Y99.846
G1 F1800 X119.351 Y103.512 E37.89412
G0 X119.421 Y103.582
G0 F5400 X118.786 Y103.512
G1 F1800 X115.685 Y100.411 E38.11292
G0 X115.615 Y100.341
G0 F5400 X115.685 Y100.977
G1 F1800 X118.22 Y103.512 E38.29177
G0 X118.29 Y103.582
G0 F5400 X117.654 Y103.512
G1 F1800 X115.703 Y101.561 E38.42943
G0 X115.633 Y101.491
G0 F5400 X115.546 Y101.969
G1 F1800 X117.089 Y103.512 E38.5383
G0 X117.159 Y103.582
G0 F5400 X116.523 Y103.512
G1 F1800 X115.263 Y102.252 E38.6272
G0 X115.193 Y102.182
G0 F5400 X114.98 Y102.535
G1 F1800 X115.957 Y103.512 E38.69613
G0 X116.027 Y103.582
G0 F5400 X115.392 Y103.512
G1 F1800 X114.655 Y102.776 E38.74809
G0 X114.585 Y102.706
G0 F5400 X114.568 Y103.254
G1 F1800 X114.04 Y103.292 E38.78177
G1 X113.474 Y103.292 E38.81276
G1 X112.909 Y103.292 E38.84369
G1 X112.343 Y103.292 E38.87468
G1 X111.777 Y103.292 E38.90567
G1 X111.212 Y103.292 E38.93661
G1 X110.646 Y103.292 E38.9676
G1 X110.08 Y103.292 E38.99859
G1 X109.515 Y103.292 E39.02953
G1 X108.949 Y103.292 E39.06052
G1 X108.383 Y103.292 E39.09151
G1 X107.818 Y103.292 E39.12245
G1 X107.252 Y103.292 E39.15344
G1 X106.686 Y103.292 E39.18443
G1 X106.121 Y103.292 E39.21537
G1 X105.555 Y103.292 E39.24636
G1 X104.989 Y103.292 E39.27735
G1 X104.424 Y103.292 E39.30828
G1 X103.858 Y103.292 E39.33928
G1 X103.292 Y103.292 E39.37027
G1 X102.726 Y103.292 E39.40126
G1 X102.161 Y103.292 E39.43219
G1 X101.595 Y103.292 E39.46318
G1 X101.029 Y103.292 E39.49418
G1 X100.464 Y103.292 E39.52511
G1 X99.898 Y103.292 E39.5561
G1 X99.332 Y103.292 E39.58709
G1 X98.767 Y103.292 E39.61803
G1 X98.201 Y103.292 E39.64902
G1 X97.635 Y103.292 E39.68001
G1 X97.07 Y103.292 E39.71095
G1 X96.504 Y103.292 E39.74201
G1 X95.938 Y103.292 E39.77307
G1 X95.373 Y103.292 E39.80408
G1 X94.807 Y103.292 E39.83514
G1 X94.241 Y103.292 E39.8662
G1 X93.676 Y103.292 E39.89721
G1 X93.11 Y103.292 E39.92827
G1 X92.544 Y103.292 E39.95933
G1 X91.978 Y103.292 E39.99039
G1 X91.413 Y103.292 E40.0214
G1 X90.847 Y103.292 E40.05246
G1 X90.281 Y103.292 E40.08352
G1 X89.716 Y103.292 E40.11453
G1 X89.15 Y103.292 E40.14559
G1 X88.584 Y103.292 E40.17665
G1 X88.019 Y103.292 E40.20766
G1 X87.453 Y103.292 E40.23872
G1 X86.887 Y103.292 E40.26978
G1 X86.322 Y103.292 E40.30079
G1 X85.756 Y103.292 E40.33185
G1 X85.19 Y103.292 E40.36291
G1 X84.625 Y103.292 E40.39392
G1 X84.059 Y103.292 E40.42498
G1 X83.493 Y103.292 E40.45604
G1 X82.927 Y103.292 E40.48711
G1 X82.362 Y103.292 E40.51811
G1 X81.796 Y103.292 E40.54917
G1 X81.23 Y103.292 E40.58024
G1 X80.665 Y103.292 E40.61124
G1 X80.103 Y103.296 E40.64202
G0 F5400 X79.887 Y103.08
G0 X113.983 Y102.932
G0 X114.431 Y102.821
G0 X115.572 Y101.741
G0 X115.685 Y94.189
G1 F1800 X122.527 Y101.031 E41.12476
G0 X122.597 Y101.101
G0 F5400 X122.527 Y100.465
G1 F1800 X115.685 Y93.623 E41.6075
G0 X115.615 Y93.553
G0 F5400 X115.685 Y93.058
G1 F1800 X122.527 Y99.9 E42.09024
G0 X122.597 Y99.97
G0 F5400 X122.527 Y99.334
G1 F1800 X115.685 Y92.492 E42.57298
G0 X115.615 Y92.422
G0 F5400 X115.685 Y91.926
G1 F1800 X122.527 Y98.768 E43.05572
G0 X122.597 Y98.838
G0 F5400 X122.527 Y98.202
G1 F1800 X115.685 Y91.361 E43.53842
G0 X115.615 Y91.291
G0 F5400 X115.685 Y90.795
G1 F1800 X122.527 Y97.637 E44.02116
G0 X122.597 Y97.707
G0 F5400 X122.527 Y97.071
G1 F1800 X115.685 Y90.229 E44.5039
G0 X115.615 Y90.159
G0 F5400 X115.685 Y89.663
G1 F1800 X122.527 Y96.505 E44.98664
G0 X122.597 Y96.575
G0 F5400 X122.527 Y95.94
G1 F1800 X115.685 Y89.098 E45.46938
G0 X115.615 Y89.028
G0 F5400 X115.685 Y88.532
G1 F1800 X122.527 Y95.374 E45.95212
G0 X122.597 Y95.444
G0 F5400 X122.527 Y94.808
G1 F1800 X115.685 Y87.966 E46.43486
G0 X115.615 Y87.896
G0 F5400 X115.685 Y87.401
G1 F1800 X122.527 Y94.243 E46.9176
G0 X122.597 Y94.313
G0 F5400 X122.527 Y93.677
G1 F1800 X115.685 Y86.835 E47.40034
G0 X115.615 Y86.765
G0 F5400 X115.685 Y86.269
G1 F1800 X122.527 Y93.111 E47.88308
G0 X122.597 Y93.181
G0 F5400 X122.527 Y92.546
G1 F1800 X115.685 Y85.704 E48.36582
G0 X115.615 Y85.634
G0 F5400 X115.685 Y85.138
G1 F1800 X122.527 Y91.98 E48.84856
G0 X122.597 Y92.05
G0 F5400 X122.527 Y91.414
G1 F1800 X115.685 Y84.572 E49.3313
G0 X115.615 Y84.502
G0 F5400 X115.685 Y84.007
G1 F1800 X122.527 Y90.849 E49.81404
G0 X122.597 Y90.919
G0 F5400 X122.527 Y90.283
G1 F1800 X116.116 Y83.872 E50.26637
G0 X116.046 Y83.802
G0 F5400 X116.682 Y83.872
G1 F1800 X122.527 Y89.717 E50.67877
G0 X122.597 Y89.787
G0 F5400 X122.527 Y89.152
G1 F1800 X117.248 Y83.872 E51.05127
G0 X117.178 Y83.802
G0 F5400 X117.813 Y83.872
G1 F1800 X122.527 Y88.586 E51.38386
G0 X122.597 Y88.656
G0 F5400 X122.527 Y88.02
G1 F1800 X118.379 Y83.872 E51.67653
G0 X118.309 Y83.802
G0 F5400 X118.945 Y83.872
G1 F1800 X122.527 Y87.454 E51.92926
G0 X122.597 Y87.524
G0 F5400 X122.527 Y86.889
G1 F1800 X119.51 Y83.872 E52.14212
G0 X119.44 Y83.802
G0 F5400 X120.076 Y83.872
G1 F1800 X122.527 Y86.323 E52.31505
G0 X122.597 Y86.393
G0 F5400 X122.527 Y85.757
G1 F1800 X120.642 Y83.872 E52.44805
G0 X120.572 Y83.802
G0 F5400 X121.208 Y83.872
G1 F1800 X122.527 Y85.192 E52.54115
G0 X122.597 Y85.262
G0 F5400 X122.527 Y84.626
G1 F1800 X121.773 Y83.872 E52.59435
G0 X121.703 Y83.802
G0 F5400 X122.339 Y83.872
G1 F1800 X122.527 Y84.06 E52.60761
G0 F5400 X122.306 Y84.093
G1 F1500 E46.10761
G0 F5400 X115.572 Y101.741
G0 X113.7 Y103.653
G0 X113.7 Y104.958
G0 X113.7 Y107.085
G0 X113.7 Y108.39
G0 X113.7 Y108.45
G0 X113.7 Y108.35
;TYPE:WALL-INNER
G1 F1500 E52.60761
G1 F1800 X113.9 Y108.35 E52.61759
G1 X113.9 Y108.55 E52.62405
G1 X113.899 Y111.65 E52.77871
G1 X106.101 Y111.65 E53.16775
G1 X106.1 Y108.55 E53.32241
G1 X106.1 Y108.35 E53.33239
G1 X106.3 Y108.35 E53.33885
G1 X113.7 Y108.35 E53.70804
G0 F5400 X114.1 Y107.95
;TYPE:WALL-OUTER
G1 F1800 X114.3 Y107.95 E53.71802
G1 X114.3 Y108.15 E53.72448
G1 X114.299 Y112.05 E53.91905
G1 X105.701 Y112.05 E54.34801
G1 X105.7 Y108.15 E54.54258
G1 X105.7 Y107.95 E54.55256
G1 X105.9 Y107.95 E54.55902
G1 X114.1 Y107.95 E54.96812
G0 F5400 X113.67 Y108.578
G1 F1800 X113.387 Y108.861 E54.99497
;TYPE:SKIN
G0 X112.985 Y108.46
G0 F5400 X112.49 Y108.53
G1 F1800 X113.719 Y109.759 E55.08169
G0 X113.789 Y109.829
G0 F5400 X113.719 Y110.324
G1 F1800 X111.924 Y108.53 E55.2083
G0 X111.854 Y108.46
G0 F5400 X111.358 Y108.53
G1 F1800 X113.719 Y110.89 E55.37484
G0 X113.789 Y110.96
G0 F5400 X113.719 Y111.456
G1 F1800 X110.793 Y108.53 E55.58129
G0 X110.723 Y108.46
G0 F5400 X110.227 Y108.53
G1 F1800 X113.166 Y111.469 E55.78865
G0 X113.236 Y111.539
G0 F5400 X112.601 Y111.469
G1 F1800 X109.66 Y108.529 E55.99612
G0 X109.59 Y108.459
G0 F5400 X109.095 Y108.529
G1 F1800 X112.035 Y111.469 E56.20355
