;FLAVOR:RepRap
;TIME:3212
;Filament used: 3.24613m
;Layer height: 0.2
;Generated with Cura_SteamEngine 3.3.1
T0
M190 S60
M104 S220
M109 S220
M82 ;absolute extrusion mode
G28 ;Home
G1 Z15.0 F6000 ;Move the platform down 15mm
;Prime the extruder
G92 E0
G1 F200 E3
G92 E0
M83 ;relative extrusion mode
G1 F1500 E-6.5
;LAYER_COUNT:130
;LAYER:0
M107
G0 F3600 X80.364 Y77.567 Z0.3
;TYPE:SKIRT
G1 F1500 E6.5
G1 F1800 X80.756 Y77.201 E0.02676
G1 X81.198 Y76.898 E0.02674
G1 X81.681 Y76.663 E0.0268
G1 X82.192 Y76.503 E0.02671
G1 X82.722 Y76.42 E0.02676
G1 X83.009 Y76.409 E0.01433
G1 X136.991 Y76.41 E2.69317
G1 X137.526 Y76.45 E0.02677
G1 X138.049 Y76.569 E0.02676
G1 X138.548 Y76.764 E0.02673
G1 X139.013 Y77.032 E0.02678
G1 X139.433 Y77.365 E0.02674
G1 X139.799 Y77.757 E0.02676
G1 X140.102 Y78.199 E0.02674
G1 X140.337 Y78.682 E0.0268
G1 X140.497 Y79.193 E0.02671
G1 X140.58 Y79.723 E0.02676
G1 X140.591 Y80.01 E0.01433
G1 X140.591 Y139.991 E2.99246
G1 X140.551 Y140.526 E0.02677
G1 X140.432 Y141.049 E0.02676
G1 X140.237 Y141.548 E0.02673
G1 X139.969 Y142.013 E0.02678
G1 X139.636 Y142.433 E0.02674
G1 X139.244 Y142.799 E0.02676
G1 X138.802 Y143.102 E0.02674
G1 X138.319 Y143.337 E0.0268
G1 X137.808 Y143.497 E0.02671
G1 X137.278 Y143.58 E0.02676
G1 X136.991 Y143.591 E0.01433
G1 X83.009 Y143.591 E2.69317
G1 X82.474 Y143.551 E0.02677
G1 X81.951 Y143.432 E0.02676
G1 X81.452 Y143.237 E0.02673
G1 X80.987 Y142.969 E0.02678
G1 X80.567 Y142.636 E0.02674
G1 X80.201 Y142.244 E0.02676
G1 X79.898 Y141.802 E0.02674
G1 X79.663 Y141.319 E0.0268
G1 X79.503 Y140.808 E0.02671
G1 X79.42 Y140.278 E0.02676
G1 X79.409 Y139.991 E0.01433
G1 X79.409 Y80.009 E2.99251
G1 X79.449 Y79.474 E0.02677
G1 X79.568 Y78.951 E0.02676
G1 X79.763 Y78.452 E0.02673
G1 X80.031 Y77.987 E0.02678
G1 X80.364 Y77.567 E0.02674
G0 F3600 X80.758 Y77.734
G1 F1800 X81.145 Y77.408 E0.02524
G1 X81.578 Y77.147 E0.02522
G1 X82.046 Y76.957 E0.0252
G1 X82.539 Y76.844 E0.02523
G1 X83.009 Y76.809 E0.02351
G1 X136.991 Y76.81 E2.69317
G1 X137.495 Y76.85 E0.02522
G1 X137.986 Y76.969 E0.02521
G1 X138.453 Y77.164 E0.02525
G1 X138.883 Y77.429 E0.0252
G1 X139.266 Y77.76 E0.02525
G1 X139.592 Y78.146 E0.02521
G1 X139.853 Y78.579 E0.02522
G1 X140.043 Y79.047 E0.0252
G1 X140.156 Y79.54 E0.02523
G1 X140.191 Y80.01 E0.02351
G1 X140.191 Y139.991 E2.99246
G1 X140.151 Y140.495 E0.02522
G1 X140.032 Y140.986 E0.02521
G1 X139.838 Y141.453 E0.02523
G1 X139.572 Y141.883 E0.02523
G1 X139.242 Y142.266 E0.02522
G1 X138.855 Y142.592 E0.02524
G1 X138.422 Y142.853 E0.02522
G1 X137.954 Y143.043 E0.0252
G1 X137.461 Y143.156 E0.02523
G1 X136.991 Y143.191 E0.02351
G1 X83.009 Y143.191 E2.69317
G1 X82.505 Y143.151 E0.02522
G1 X82.014 Y143.032 E0.02521
G1 X81.547 Y142.838 E0.02523
G1 X81.117 Y142.572 E0.02523
G1 X80.734 Y142.242 E0.02522
G1 X80.408 Y141.855 E0.02524
G1 X80.147 Y141.422 E0.02522
G1 X79.957 Y140.954 E0.0252
G1 X79.844 Y140.461 E0.02523
G1 X79.809 Y139.991 E0.02351
G1 X79.809 Y80.009 E2.99251
G1 X79.849 Y79.505 E0.02522
G1 X79.968 Y79.014 E0.02521
G1 X80.162 Y78.547 E0.02523
G1 X80.428 Y78.117 E0.02523
G1 X80.758 Y77.734 E0.02522
G1 F1500 E-6.5
G0 F3600 X83.614 Y79.335
G0 X83.614 Y80.614
G0 X84.646 Y83.219
G0 X84.738 Y83.255
;TYPE:WALL-INNER
G1 F1500 E6.5
G1 F1800 X84.634 Y83.58 E0.01702
G1 X84.57 Y83.912 E0.01687
G1 X84.549 Y84.25 E0.0169
G1 X84.57 Y84.588 E0.0169
G1 X84.634 Y84.92 E0.01687
G1 X84.738 Y85.245 E0.01702
G1 X84.884 Y85.552 E0.01696
G1 X85.065 Y85.837 E0.01684
G1 X85.28 Y86.099 E0.01691
G1 X85.528 Y86.332 E0.01698
G1 X85.804 Y86.531 E0.01698
G1 X86.1 Y86.693 E0.01683
G1 X86.415 Y86.819 E0.01693
G1 X86.744 Y86.904 E0.01695
G1 X87.08 Y86.946 E0.01689
G1 X87.42 Y86.946 E0.01696
G1 X87.756 Y86.904 E0.01689
G1 X88.085 Y86.819 E0.01695
G1 X88.4 Y86.693 E0.01693
G1 X88.696 Y86.531 E0.01683
G1 X88.972 Y86.332 E0.01698
G1 X89.22 Y86.099 E0.01698
G1 X89.435 Y85.837 E0.01691
G1 X89.616 Y85.552 E0.01684
G1 X89.762 Y85.245 E0.01696
G1 X89.866 Y84.92 E0.01702
G1 X89.93 Y84.588 E0.01687
G1 X89.951 Y84.25 E0.0169
G1 X89.93 Y83.912 E0.0169
G1 X89.866 Y83.58 E0.01687
G1 X89.762 Y83.255 E0.01702
G1 X89.616 Y82.948 E0.01696
G1 X89.435 Y82.663 E0.01684
G1 X89.22 Y82.401 E0.01691
G1 X88.972 Y82.168 E0.01698
G1 X88.696 Y81.969 E0.01698
G1 X88.4 Y81.807 E0.01683
G1 X88.085 Y81.681 E0.01693
G1 X87.756 Y81.596 E0.01695
G1 X87.42 Y81.554 E0.01689
G1 X87.08 Y81.554 E0.01696
G1 X86.744 Y81.596 E0.01689
G1 X86.415 Y81.681 E0.01695
G1 X86.1 Y81.807 E0.01693
G1 X85.804 Y81.969 E0.01683
G1 X85.528 Y82.168 E0.01698
G1 X85.28 Y82.401 E0.01698
G1 X85.065 Y82.663 E0.01691
G1 X84.884 Y82.948 E0.01684
G1 X84.738 Y83.255 E0.01696
G0 F3600 X84.646 Y83.219
G0 X85.251 Y82.374
G0 X85.783 Y81.936
G0 X86.403 Y81.643
G0 X86.949 Y81.54
G0 X130.965 Y82.091
G0 X131.028 Y82.168
G1 F1800 X130.78 Y82.401 E0.01698
G1 X130.565 Y82.663 E0.01691
G1 X130.383 Y82.949 E0.01691
G1 X130.239 Y83.256 E0.01692
G1 X130.134 Y83.578 E0.0169
G1 X130.07 Y83.912 E0.01697
G1 X130.049 Y84.25 E0.0169
G1 X130.07 Y84.588 E0.0169
G1 X130.134 Y84.922 E0.01697
G1 X130.239 Y85.244 E0.0169
G1 X130.383 Y85.551 E0.01692
G1 X130.565 Y85.837 E0.01691
G1 X130.78 Y86.099 E0.01691
G1 X131.028 Y86.332 E0.01698
G1 X131.304 Y86.531 E0.01698
G1 X131.6 Y86.693 E0.01683
G1 X131.914 Y86.819 E0.01688
G1 X132.243 Y86.904 E0.01695
G1 X132.58 Y86.946 E0.01694
G1 X132.92 Y86.946 E0.01696
G1 X133.257 Y86.904 E0.01694
G1 X133.586 Y86.819 E0.01695
G1 X133.9 Y86.693 E0.01688
G1 X134.196 Y86.531 E0.01683
G1 X134.472 Y86.332 E0.01698
G1 X134.72 Y86.099 E0.01698
G1 X134.935 Y85.837 E0.01691
G1 X135.117 Y85.551 E0.01691
G1 X135.261 Y85.244 E0.01692
G1 X135.366 Y84.922 E0.0169
G1 X135.43 Y84.588 E0.01697
G1 X135.451 Y84.25 E0.0169
G1 X135.43 Y83.912 E0.0169
G1 X135.366 Y83.578 E0.01697
G1 X135.261 Y83.256 E0.0169
G1 X135.117 Y82.949 E0.01692
G1 X134.935 Y82.663 E0.01691
G1 X134.72 Y82.401 E0.01691
G1 X134.472 Y82.168 E0.01698
G1 X134.196 Y81.969 E0.01698
G1 X133.9 Y81.807 E0.01683
G1 X133.586 Y81.681 E0.01688
G1 X133.257 Y81.596 E0.01695
G1 X132.92 Y81.554 E0.01694
G1 X132.58 Y81.554 E0.01696
G1 X132.243 Y81.596 E0.01694
G1 X131.914 Y81.681 E0.01695
G1 X131.6 Y81.807 E0.01688
G1 X131.304 Y81.969 E0.01683
G1 X131.028 Y82.168 E0.01698
G0 F3600 X130.965 Y82.091
G0 X130.348 Y82.93
G0 X130.096 Y83.569
G0 X130.026 Y84.119
G0 X130.964 Y133.592
G0 X131.027 Y133.669
G1 F1800 X130.781 Y133.902 E0.0169
G1 X130.565 Y134.162 E0.01686
G1 X130.383 Y134.449 E0.01695
G1 X130.239 Y134.756 E0.01692
G1 X130.134 Y135.078 E0.0169
G1 X130.07 Y135.412 E0.01697
G1 X130.049 Y135.75 E0.0169
G1 X130.07 Y136.088 E0.0169
G1 X130.134 Y136.422 E0.01697
G1 X130.239 Y136.744 E0.0169
G1 X130.383 Y137.051 E0.01692
G1 X130.565 Y137.337 E0.01691
G1 X130.78 Y137.599 E0.01691
G1 X131.028 Y137.832 E0.01698
G1 X131.304 Y138.031 E0.01698
G1 X131.6 Y138.193 E0.01683
G1 X131.914 Y138.319 E0.01688
G1 X132.243 Y138.404 E0.01695
G1 X132.58 Y138.446 E0.01694
G1 X132.92 Y138.446 E0.01696
G1 X133.257 Y138.404 E0.01694
G1 X133.586 Y138.319 E0.01695
G1 X133.9 Y138.193 E0.01688
G1 X134.196 Y138.031 E0.01683
G1 X134.472 Y137.832 E0.01698
G1 X134.72 Y137.599 E0.01698
G1 X134.935 Y137.337 E0.01691
G1 X135.117 Y137.051 E0.01691
G1 X135.261 Y136.744 E0.01692
G1 X135.366 Y136.422 E0.0169
G1 X135.43 Y136.088 E0.01697
G1 X135.451 Y135.75 E0.0169
G1 X135.43 Y135.412 E0.0169
G1 X135.366 Y135.078 E0.01697
G1 X135.261 Y134.756 E0.0169
G1 X135.117 Y134.449 E0.01692
G1 X134.935 Y134.162 E0.01695
G1 X134.719 Y133.902 E0.01686
G1 X134.473 Y133.669 E0.0169
G1 X134.196 Y133.469 E0.01705
G1 X133.9 Y133.307 E0.01683
G1 X133.586 Y133.181 E0.01688
G1 X133.257 Y133.096 E0.01695
G1 X132.92 Y133.054 E0.01694
G1 X132.58 Y133.054 E0.01696
G1 X132.243 Y133.096 E0.01694
G1 X131.914 Y133.181 E0.01695
G1 X131.6 Y133.307 E0.01688
G1 X131.304 Y133.469 E0.01683
G1 X131.027 Y133.669 E0.01705
G0 F3600 X130.964 Y133.592
G0 X131.902 Y133.143
G0 X132.578 Y133.015
G0 X133.264 Y133.057
G0 X133.917 Y133.271
G0 X134.498 Y133.639
G0 X134.967 Y134.139
G0 X135.298 Y134.742
G0 X136.33 Y139.33
G0 X136.4 Y139.4
G1 F1800 X83.6 Y139.4 E2.6342
G1 X83.6 Y80.6 E2.93354
G1 X136.4 Y80.6 E2.6342
G1 X136.4 Y139.4 E2.93354
G0 F3600 X136.33 Y139.33
G0 X87.422 Y133.015
G0 X86.737 Y133.057
G0 X86.083 Y133.271
G0 X85.502 Y133.639
G0 X85.237 Y133.922
G0 X84.646 Y134.719
G0 X84.738 Y134.755
G1 F1800 X84.634 Y135.08 E0.01702
G1 X84.57 Y135.412 E0.01687
G1 X84.549 Y135.75 E0.0169
G1 X84.57 Y136.088 E0.0169
G1 X84.634 Y136.42 E0.01687
G1 X84.738 Y136.745 E0.01702
G1 X84.884 Y137.052 E0.01696
G1 X85.065 Y137.337 E0.01684
G1 X85.28 Y137.599 E0.01691
G1 X85.528 Y137.832 E0.01698
G1 X85.804 Y138.031 E0.01698
G1 X86.1 Y138.193 E0.01683
G1 X86.415 Y138.319 E0.01693
G1 X86.744 Y138.404 E0.01695
G1 X87.08 Y138.446 E0.01689
G1 X87.42 Y138.446 E0.01696
G1 X87.756 Y138.404 E0.01689
G1 X88.085 Y138.319 E0.01695
G1 X88.4 Y138.193 E0.01693
G1 X88.696 Y138.031 E0.01683
G1 X88.972 Y137.832 E0.01698
G1 X89.22 Y137.599 E0.01698
G1 X89.435 Y137.337 E0.01691
G1 X89.616 Y137.052 E0.01684
G1 X89.762 Y136.745 E0.01696
G1 X89.866 Y136.42 E0.01702
G1 X89.93 Y136.088 E0.01687
G1 X89.951 Y135.75 E0.0169
G1 X89.93 Y135.412 E0.0169
G1 X89.866 Y135.08 E0.01687
G1 X89.762 Y134.755 E0.01702
G1 X89.616 Y134.448 E0.01696
G1 X89.435 Y134.162 E0.01689
G1 X89.219 Y133.902 E0.01686
G1 X88.973 Y133.669 E0.0169
G1 X88.696 Y133.469 E0.01705
G1 X88.4 Y133.307 E0.01683
G1 X88.085 Y133.181 E0.01693
G1 X87.756 Y133.096 E0.01695
G1 X87.42 Y133.054 E0.01689
G1 X87.08 Y133.054 E0.01696
G1 X86.744 Y133.096 E0.01689
G1 X86.415 Y133.181 E0.01695
G1 X86.1 Y133.307 E0.01693
G1 X85.804 Y133.469 E0.01683
G1 X85.527 Y133.669 E0.01705
G1 X85.281 Y133.902 E0.0169
G1 X85.065 Y134.162 E0.01686
G1 X84.884 Y134.448 E0.01689
G1 X84.738 Y134.755 E0.01696
G0 F3600 X84.646 Y134.719
G0 X84.509 Y135.75
G0 X84.596 Y136.429
G0 X84.823 Y137.006
G0 X85.491 Y137.928
G0 X85.783 Y137.523
;TYPE:WALL-OUTER
G1 F1800 X86.018 Y137.692 E0.01444
G1 X86.271 Y137.831 E0.0144
G1 X86.539 Y137.938 E0.0144
G1 X86.819 Y138.01 E0.01442
G1 X87.105 Y138.046 E0.01438
G1 X87.395 Y138.046 E0.01447
G1 X87.681 Y138.01 E0.01438
G1 X87.961 Y137.938 E0.01442
G1 X88.229 Y137.831 E0.0144
G1 X88.482 Y137.692 E0.0144
G1 X88.717 Y137.523 E0.01444
G1 X88.927 Y137.325 E0.0144
G1 X89.111 Y137.102 E0.01442
G1 X89.265 Y136.859 E0.01435
G1 X89.389 Y136.597 E0.01446
G1 X89.478 Y136.321 E0.01447
G1 X89.532 Y136.038 E0.01437
G1 X89.55 Y135.75 E0.0144
G1 X89.532 Y135.462 E0.0144
G1 X89.478 Y135.179 E0.01437
G1 X89.389 Y134.903 E0.01447
G1 X89.265 Y134.641 E0.01446
G1 X89.111 Y134.398 E0.01435
G1 X88.927 Y134.176 E0.01439
G1 X88.717 Y133.978 E0.0144
G1 X88.482 Y133.808 E0.01447
G1 X88.229 Y133.669 E0.0144
G1 X87.961 Y133.562 E0.0144
G1 X87.681 Y133.49 E0.01442
G1 X87.395 Y133.454 E0.01438
G1 X87.105 Y133.454 E0.01447
G1 X86.819 Y133.49 E0.01438
G1 X86.539 Y133.562 E0.01442
G1 X86.271 Y133.669 E0.0144
G1 X86.018 Y133.808 E0.0144
G1 X85.783 Y133.978 E0.01447
G1 X85.573 Y134.176 E0.0144
G1 X85.389 Y134.398 E0.01439
G1 X85.235 Y134.641 E0.01435
G1 X85.111 Y134.903 E0.01446
G1 X85.022 Y135.179 E0.01447
G1 X84.968 Y135.462 E0.01437
G1 X84.95 Y135.75 E0.0144
G1 X84.968 Y136.038 E0.0144
G1 X85.022 Y136.321 E0.01437
G1 X85.111 Y136.597 E0.01447
G1 X85.235 Y136.859 E0.01446
G1 X85.389 Y137.102 E0.01435
G1 X85.573 Y137.325 E0.01442
G1 X85.783 Y137.523 E0.0144
G0 F3600 X85.945 Y137.639
G0 X85.652 Y138.044
G0 X86.737 Y138.443
G0 X86.93 Y138.454
G0 X130.991 Y137.928
G0 X131.283 Y137.523
G1 F1800 X131.518 Y137.692 E0.01444
G1 X131.771 Y137.831 E0.0144
G1 X132.039 Y137.938 E0.0144
G1 X132.318 Y138.01 E0.01438
G1 X132.605 Y138.046 E0.01443
G1 X132.895 Y138.046 E0.01447
G1 X133.182 Y138.01 E0.01443
G1 X133.461 Y137.938 E0.01438
G1 X133.729 Y137.831 E0.0144
G1 X133.982 Y137.692 E0.0144
G1 X134.217 Y137.523 E0.01444
G1 X134.427 Y137.325 E0.0144
G1 X134.611 Y137.102 E0.01442
G1 X134.766 Y136.858 E0.01442
G1 X134.888 Y136.597 E0.01437
G1 X134.978 Y136.322 E0.01444
G1 X135.032 Y136.038 E0.01442
G1 X135.05 Y135.75 E0.0144
G1 X135.032 Y135.462 E0.0144
G1 X134.978 Y135.178 E0.01442
G1 X134.888 Y134.903 E0.01444
G1 X134.766 Y134.642 E0.01437
G1 X134.611 Y134.398 E0.01442
G1 X134.427 Y134.176 E0.01439
G1 X134.217 Y133.978 E0.0144
G1 X133.982 Y133.808 E0.01447
G1 X133.729 Y133.669 E0.0144
G1 X133.461 Y133.562 E0.0144
G1 X133.182 Y133.49 E0.01438
G1 X132.895 Y133.454 E0.01443
G1 X132.605 Y133.454 E0.01447
G1 X132.318 Y133.49 E0.01443
G1 X132.039 Y133.562 E0.01438
G1 X131.771 Y133.669 E0.0144
G1 X131.518 Y133.808 E0.0144
G1 X131.283 Y133.978 E0.01447
G1 X131.073 Y134.176 E0.0144
G1 X130.889 Y134.398 E0.01439
G1 X130.734 Y134.642 E0.01442
G1 X130.612 Y134.903 E0.01437
G1 X130.522 Y135.178 E0.01444
G1 X130.468 Y135.462 E0.01442
G1 X130.45 Y135.75 E0.0144
G1 X130.468 Y136.038 E0.0144
G1 X130.522 Y136.322 E0.01442
G1 X130.612 Y136.597 E0.01444
G1 X130.734 Y136.858 E0.01437
G1 X130.889 Y137.102 E0.01442
G1 X131.073 Y137.325 E0.01442
G1 X131.283 Y137.523 E0.0144
G0 F3600 X131.445 Y137.639
G0 X131.152 Y138.044
G0 X132.029 Y138.367
G0 X136.33 Y139.33
G0 X136.8 Y139.8
G1 F1800 X83.2 Y139.8 E2.67411
G1 X83.2 Y80.2 E2.97346
G1 X136.8 Y80.2 E2.67411
G1 X136.8 Y139.8 E2.97346
G0 F3600 X136.6 Y139.8
G0 X136.33 Y139.33
G0 X130.009 Y84.25
G0 X130.096 Y83.569
G0 X130.322 Y82.994
G0 X130.942 Y82.113
G0 X131.283 Y82.477
G1 F1800 X131.073 Y82.675 E0.0144
G1 X130.889 Y82.898 E0.01442
G1 X130.734 Y83.142 E0.01442
G1 X130.612 Y83.403 E0.01437
G1 X130.522 Y83.678 E0.01444
G1 X130.468 Y83.962 E0.01442
G1 X130.45 Y84.25 E0.0144
G1 X130.468 Y84.538 E0.0144
G1 X130.522 Y84.822 E0.01442
G1 X130.612 Y85.097 E0.01444
G1 X130.734 Y85.358 E0.01437
G1 X130.889 Y85.602 E0.01442
G1 X131.073 Y85.825 E0.01442
G1 X131.283 Y86.023 E0.0144
G1 X131.518 Y86.192 E0.01444
G1 X131.771 Y86.331 E0.0144
G1 X132.039 Y86.438 E0.0144
G1 X132.318 Y86.51 E0.01438
G1 X132.605 Y86.546 E0.01443
G1 X132.895 Y86.546 E0.01447
G1 X133.182 Y86.51 E0.01443
G1 X133.461 Y86.438 E0.01438
G1 X133.729 Y86.331 E0.0144
G1 X133.982 Y86.192 E0.0144
G1 X134.217 Y86.023 E0.01444
G1 X134.427 Y85.825 E0.0144
G1 X134.611 Y85.602 E0.01442
G1 X134.766 Y85.358 E0.01442
G1 X134.888 Y85.097 E0.01437
G1 X134.978 Y84.822 E0.01444
G1 X135.032 Y84.538 E0.01442
G1 X135.05 Y84.25 E0.0144
G1 X135.032 Y83.962 E0.0144
G1 X134.978 Y83.678 E0.01442
G1 X134.888 Y83.403 E0.01444
G1 X134.766 Y83.142 E0.01437
G1 X134.611 Y82.898 E0.01442
G1 X134.427 Y82.675 E0.01442
G1 X134.217 Y82.477 E0.0144
G1 X133.982 Y82.308 E0.01444
G1 X133.729 Y82.169 E0.0144
G1 X133.461 Y82.062 E0.0144
G1 X133.182 Y81.99 E0.01438
G1 X132.895 Y81.954 E0.01443
G1 X132.605 Y81.954 E0.01447
G1 X132.318 Y81.99 E0.01443
G1 X132.039 Y82.062 E0.01438
G1 X131.771 Y82.169 E0.0144
G1 X131.518 Y82.308 E0.0144
G1 X131.283 Y82.477 E0.01444
G0 F3600 X131.138 Y82.614
G0 X130.796 Y82.25
G0 X87.078 Y81.515
G0 X86.471 Y81.63
G0 X85.442 Y82.113
G0 X85.783 Y82.477
G1 F1800 X85.573 Y82.675 E0.0144
G1 X85.389 Y82.898 E0.01442
G1 X85.235 Y83.141 E0.01435
G1 X85.111 Y83.403 E0.01446
G1 X85.022 Y83.679 E0.01447
G1 X84.968 Y83.962 E0.01437
G1 X84.95 Y84.25 E0.0144
G1 X84.968 Y84.538 E0.0144
G1 X85.022 Y84.821 E0.01437
G1 X85.111 Y85.097 E0.01447
G1 X85.235 Y85.359 E0.01446
G1 X85.389 Y85.602 E0.01435
G1 X85.573 Y85.825 E0.01442
G1 X85.783 Y86.023 E0.0144
G1 X86.018 Y86.192 E0.01444
G1 X86.271 Y86.331 E0.0144
G1 X86.539 Y86.438 E0.0144
G1 X86.819 Y86.51 E0.01442
G1 X87.105 Y86.546 E0.01438
G1 X87.395 Y86.546 E0.01447
G1 X87.681 Y86.51 E0.01438
G1 X87.961 Y86.438 E0.01442
G1 X88.229 Y86.331 E0.0144
G1 X88.482 Y86.192 E0.0144
G1 X88.717 Y86.023 E0.01444
G1 X88.927 Y85.825 E0.0144
G1 X89.111 Y85.602 E0.01442
G1 X89.265 Y85.359 E0.01435
G1 X89.389 Y85.097 E0.01446
G1 X89.478 Y84.821 E0.01447
G1 X89.532 Y84.538 E0.01437
G1 X89.55 Y84.25 E0.0144
G1 X89.532 Y83.962 E0.0144
G1 X89.478 Y83.679 E0.01437
G1 X89.389 Y83.403 E0.01447
G1 X89.265 Y83.141 E0.01446
G1 X89.111 Y82.898 E0.01435
G1 X88.927 Y82.675 E0.01442
G1 X88.717 Y82.477 E0.0144
G1 X88.482 Y82.308 E0.01444
G1 X88.229 Y82.169 E0.0144
G1 X87.961 Y82.062 E0.0144
G1 X87.681 Y81.99 E0.01442
G1 X87.395 Y81.954 E0.01438
G1 X87.105 Y81.954 E0.01447
