;FLAVOR:RepRap
;TIME:2500
;Generated with Cura_SteamEngine 2.3.1
M190 S60
M104 S200
M109 S200
G28 ;Home
G1 Z15.0 F6000 ;Move the platform down 15mm
;Prime the extruder
G92 E0
G1 F200 E3
G92 E0
;LAYER_COUNT:38
;LAYER:0
M107
G1 F1500 E-6.5
G0 F1400 X95.364 Y92.567 Z.3
;TYPE:SKIRT
G1 F1500 E0
G1 F300 X95.756 Y92.201 E0.02676
G1 X96.198 Y91.898 E0.05349
G1 X96.681 Y91.663 E0.08029
G1 X97.192 Y91.503 E0.107
G1 X97.722 Y91.42 E0.13377
G1 X98.009 Y91.409 E0.1481
G1 X121.991 Y91.41 E1.34456
G1 X122.526 Y91.45 E1.37133
G1 X123.049 Y91.569 E1.39809
G1 X123.548 Y91.764 E1.42482
G1 X124.013 Y92.032 E1.45159
G1 X124.433 Y92.365 E1.47833
G1 X124.799 Y92.757 E1.50509
G1 X125.103 Y93.199 E1.53185
G1 X125.337 Y93.682 E1.55863
G1 X125.497 Y94.193 E1.58534
G1 X125.58 Y94.723 E1.61211
G1 X125.591 Y95.01 E1.62644
G1 X125.591 Y124.991 E3.1222
G1 X125.551 Y125.526 E3.14896
G1 X125.432 Y126.049 E3.17572
G1 X125.237 Y126.548 E3.20245
G1 X124.969 Y127.013 E3.22923
G1 X124.636 Y127.433 E3.25597
G1 X124.244 Y127.799 E3.28272
G1 X123.802 Y128.102 E3.30946
G1 X123.319 Y128.337 E3.33626
G1 X122.808 Y128.497 E3.36297
G1 X122.278 Y128.58 E3.38973
G1 X121.991 Y128.591 E3.40406
G1 X98.009 Y128.591 E4.60053
G1 X97.474 Y128.551 E4.6273
G1 X96.951 Y128.432 E4.65406
G1 X96.452 Y128.237 E4.68078
G1 X95.987 Y127.969 E4.70756
G1 X95.567 Y127.636 E4.7343
G1 X95.201 Y127.244 E4.76106
G1 X94.898 Y126.802 E4.78779
G1 X94.663 Y126.319 E4.81459
G1 X94.503 Y125.808 E4.84131
G1 X94.42 Y125.278 E4.86807
G1 X94.409 Y124.991 E4.8824
G1 X94.409 Y95.009 E6.37821
G1 X94.449 Y94.474 E6.40497
G1 X94.568 Y93.951 E6.43173
G1 X94.763 Y93.452 E6.45846
G1 X95.031 Y92.987 E6.48524
G1 X95.364 Y92.567 E6.51198
G0 F1400 X95.758 Y92.734
G1 F300 X96.145 Y92.408 E6.53722
G1 X96.578 Y92.147 E6.56245
G1 X97.046 Y91.957 E6.58764
G1 X97.539 Y91.844 E6.61288
G1 X98.009 Y91.809 E6.63639
G1 X121.991 Y91.81 E7.83286
G1 X122.495 Y91.85 E7.85808
G1 X122.987 Y91.969 E7.88334
G1 X123.453 Y92.164 E7.90854
G1 X123.883 Y92.429 E7.93374
G1 X124.266 Y92.76 E7.95899
G1 X124.592 Y93.146 E7.9842
G1 X124.853 Y93.579 E8.00942
G1 X125.043 Y94.047 E8.03462
G1 X125.156 Y94.54 E8.05986
G1 X125.191 Y95.01 E8.08337
G1 X125.191 Y124.991 E9.57913
G1 X125.151 Y125.495 E9.60435
G1 X125.032 Y125.986 E9.62956
G1 X124.838 Y126.453 E9.65479
G1 X124.572 Y126.883 E9.68001
G1 X124.242 Y127.266 E9.70523
G1 X123.855 Y127.592 E9.73048
G1 X123.422 Y127.853 E9.7557
G1 X122.954 Y128.043 E9.7809
G1 X122.461 Y128.156 E9.80614
G1 X121.991 Y128.191 E9.82965
G1 X98.009 Y128.191 E11.02612
G1 X97.505 Y128.151 E11.05134
G1 X97.014 Y128.032 E11.07654
G1 X96.547 Y127.838 E11.10177
G1 X96.117 Y127.572 E11.127
G1 X95.734 Y127.242 E11.15222
G1 X95.408 Y126.855 E11.17747
G1 X95.147 Y126.422 E11.20269
G1 X94.957 Y125.954 E11.22789
G1 X94.844 Y125.461 E11.25312
G1 X94.809 Y124.991 E11.27664
G1 X94.809 Y95.009 E12.77244
G1 X94.849 Y94.505 E12.79767
G1 X94.968 Y94.014 E12.82287
G1 X95.162 Y93.547 E12.8481
G1 X95.428 Y93.117 E12.87333
G1 X95.758 Y92.734 E12.89855
G1 F1500 E6.39855
G0 F1400 X98.628 Y94.335
G0 X98.628 Y95.628
G0 X98.872 Y100.628
G0 X99 Y101
;TYPE:WALL-INNER
G1 F1500 E12.89855
G1 F300 X121 Y101 E13.99614
G1 X121 Y119 E14.89416
G1 X99 Y119 E15.99174
G1 X99 Y101 E16.88977
G0 F1400 X98.9 Y100.6
G1 F300 X121.1 Y100.6 E17.99733
G1 X121.1 Y96.4 E18.20687
G1 X98.9 Y96.4 E19.31443
G1 X98.9 Y100.6 E19.52397
G0 F1400 X98.6 Y100.6
G1 F300 X98.6 Y96.4 E19.68112
G1 X98.6 Y95.6 E19.72104
G1 X121.4 Y95.6 E20.85853
G1 X121.4 Y96.4 E20.89844
G1 X121.4 Y100.6 E21.0556
G1 X121.4 Y119.4 E21.99353
G1 X121.4 Y123.6 E22.20307
G1 X121.4 Y124.4 E22.24299
G1 X98.6 Y124.4 E23.38048
G1 X98.6 Y123.6 E23.42039
G1 X98.6 Y119.4 E23.62993
G1 X98.6 Y100.6 E24.56787
G0 F1400 X98.7 Y100.6
G0 X98.83 Y119.33
G0 X98.9 Y119.4
G1 F300 X98.9 Y123.6 E24.72502
G1 X121.1 Y123.6 E25.83259
G1 X121.1 Y119.4 E25.98974
G1 X98.9 Y119.4 E27.0973
G0 F1400 X99.3 Y119.8
;TYPE:WALL-OUTER
G1 F300 X99.3 Y123.2 E27.26693
G1 X120.7 Y123.2 E28.33458
G1 X120.7 Y119.8 E28.50421
G1 X99.3 Y119.8 E29.57186
G0 F1400 X98.8 Y119.8
G0 X98.67 Y124.33
G0 X98.2 Y124.8
G1 F300 X98.2 Y95.2 E31.04861
G1 X121.8 Y95.2 E32.22602
G1 X121.8 Y124.8 E33.70277
G1 X98.2 Y124.8 E34.88017
G0 F1400 X98.67 Y124.33
G0 X98.8 Y100.2
G0 X99.3 Y100.2
G1 F300 X120.7 Y100.2 E35.94782
G1 X120.7 Y96.8 E36.11745
G1 X99.3 Y96.8 E37.1851
G1 X99.3 Y100.2 E37.35473
G0 F1400 X98.8 Y100.2
G0 X98.872 Y100.628
G0 X99.482 Y101.179
;TYPE:SKIN
G1 F300 X117.122 Y118.819 E38.59933
G0 X117.192 Y118.889
G0 F1400 X117.688 Y118.819
G1 F300 X100.048 Y101.179 E39.84392
G0 X99.978 Y101.109
G0 F1400 X100.614 Y101.179
G1 F300 X118.253 Y118.819 E41.08848
G0 X118.323 Y118.889
G0 F1400 X118.819 Y118.819
G1 F300 X101.179 Y101.179 E42.33308
G0 X101.109 Y101.109
G0 F1400 X101.745 Y101.179
G1 F300 X119.385 Y118.819 E43.57768
G0 X119.455 Y118.889
G0 F1400 X119.95 Y118.819
G1 F300 X102.311 Y101.179 E44.82224
G0 X102.241 Y101.109
G0 F1400 X102.876 Y101.179
G1 F300 X120.516 Y118.819 E46.06684
G0 X120.586 Y118.889
G0 F1400 X120.819 Y118.557
G1 F300 X103.442 Y101.179 E47.29291
G0 X103.372 Y101.109
G0 F1400 X104.008 Y101.179
G1 F300 X120.819 Y117.991 E48.47906
G0 X120.889 Y118.061
G0 F1400 X120.819 Y117.425
G1 F300 X104.574 Y101.179 E49.62526
G0 X104.504 Y101.109
G0 F1400 X105.139 Y101.179
G1 F300 X120.819 Y116.86 E50.73161
G0 X120.889 Y116.93
G0 F1400 X120.819 Y116.294
G1 F300 X105.705 Y101.179 E51.79802
G0 X105.635 Y101.109
G0 F1400 X106.271 Y101.179
G1 F300 X120.819 Y115.728 E52.82449
G0 X120.889 Y115.798
G0 F1400 X120.819 Y115.162
G1 F300 X106.836 Y101.179 E53.81107
G0 X106.766 Y101.109
G0 F1400 X107.402 Y101.179
G1 F300 X120.819 Y114.597 E54.75775
G0 X120.889 Y114.667
G0 F1400 X120.819 Y114.031
G1 F300 X107.968 Y101.179 E55.66449
G0 X107.898 Y101.109
G0 F1400 X108.533 Y101.179
G1 F300 X120.819 Y113.465 E56.53133
G0 X120.889 Y113.535
G0 F1400 X120.819 Y112.9
G1 F300 X109.099 Y101.179 E57.35828
G0 X109.029 Y101.109
G0 F1400 X109.665 Y101.179
G1 F300 X120.819 Y112.334 E58.14529
G0 X120.889 Y112.404
G0 F1400 X120.819 Y111.768
G1 F300 X110.23 Y101.179 E58.8924
G0 X110.16 Y101.109
G0 F1400 X110.796 Y101.179
G1 F300 X120.819 Y111.203 E59.59961
G0 X120.889 Y111.273
G0 F1400 X120.819 Y110.637
G1 F300 X111.362 Y101.179 E60.26689
G0 X111.292 Y101.109
G0 F1400 X111.927 Y101.179
G1 F300 X120.819 Y110.071 E60.89427
G0 X120.889 Y110.141
G0 F1400 X120.819 Y109.506
G1 F300 X112.493 Y101.179 E61.48175
G0 X112.423 Y101.109
G0 F1400 X113.059 Y101.179
G1 F300 X120.819 Y108.94 E62.02929
G0 X120.889 Y109.01
G0 F1400 X120.819 Y108.374
G1 F300 X113.624 Y101.179 E62.53694
G0 X113.554 Y101.109
G0 F1400 X114.19 Y101.179
G1 F300 X120.819 Y107.809 E63.00469
G0 X120.889 Y107.879
G0 F1400 X120.819 Y107.243
G1 F300 X114.756 Y101.179 E63.4325
G0 X114.686 Y101.109
G0 F1400 X115.322 Y101.179
G1 F300 X120.819 Y106.677 E63.82038
G0 X120.889 Y106.747
G0 F1400 X120.819 Y106.111
G1 F300 X115.887 Y101.179 E64.16836
G0 X115.817 Y101.109
G0 F1400 X116.453 Y101.179
G1 F300 X120.819 Y105.546 E64.47644
G0 X120.889 Y105.616
G0 F1400 X120.819 Y104.98
G1 F300 X117.019 Y101.179 E64.74458
G0 X116.949 Y101.109
G0 F1400 X117.584 Y101.179
G1 F300 X120.819 Y104.414 E64.97283
G0 X120.889 Y104.484
G0 F1400 X120.819 Y103.849
G1 F300 X118.15 Y101.179 E65.16118
G0 X118.08 Y101.109
G0 F1400 X118.716 Y101.179
G1 F300 X120.819 Y103.283 E65.30959
G0 X120.889 Y103.353
G0 F1400 X120.819 Y102.717
G1 F300 X119.281 Y101.179 E65.4181
G0 X119.211 Y101.109
G0 F1400 X119.847 Y101.179
G1 F300 X120.819 Y102.152 E65.48672
G0 X120.889 Y102.222
G0 F1400 X120.819 Y101.586
G1 F300 X120.413 Y101.179 E65.5154
G0 F1400 X116.556 Y118.819
G1 F300 X99.179 Y101.442 E66.74144
G0 X99.109 Y101.372
G0 F1400 X99.179 Y102.007
G1 F300 X115.99 Y118.819 E67.92758
G0 X116.06 Y118.889
G0 F1400 X115.425 Y118.819
G1 F300 X99.179 Y102.573 E69.07383
G0 X99.109 Y102.503
G0 F1400 X99.179 Y103.139
G1 F300 X114.859 Y118.819 E70.18013
G0 X114.929 Y118.889
G0 F1400 X114.293 Y118.819
G1 F300 X99.179 Y103.704 E71.24654
G0 X99.109 Y103.634
G0 F1400 X99.179 Y104.27
G1 F300 X113.728 Y118.819 E72.27305
G0 X113.798 Y118.889
G0 F1400 X113.162 Y118.819
G1 F300 X99.179 Y104.836 E73.25963
G0 X99.109 Y104.766
G0 F1400 X99.179 Y105.402
G1 F300 X112.596 Y118.819 E74.20627
G0 X112.666 Y118.889
G0 F1400 X112.031 Y118.819
G1 F300 X99.179 Y105.967 E75.11305
G0 X99.109 Y105.897
G0 F1400 X99.179 Y106.533
G1 F300 X111.465 Y118.819 E75.97989
G0 X111.535 Y118.889
G0 F1400 X110.899 Y118.819
G1 F300 X99.179 Y107.099 E76.8068
G0 X99.109 Y107.029
G0 F1400 X99.179 Y107.664
G1 F300 X110.334 Y118.819 E77.59385
G0 X110.404 Y118.889
G0 F1400 X109.768 Y118.819
G1 F300 X99.179 Y108.23 E78.34096
G0 X99.109 Y108.16
G0 F1400 X99.179 Y108.796
G1 F300 X109.202 Y118.819 E79.04814
G0 X109.272 Y118.889
G0 F1400 X108.637 Y118.819
G1 F300 X99.179 Y109.361 E79.71545
G0 X99.109 Y109.291
G0 F1400 X99.179 Y109.927
G1 F300 X108.071 Y118.819 E80.34283
G0 X108.141 Y118.889
G0 F1400 X107.505 Y118.819
G1 F300 X99.179 Y110.493 E80.93027
G0 X99.109 Y110.423
G0 F1400 X99.179 Y111.058
G1 F300 X106.94 Y118.819 E81.47785
G0 X107.01 Y118.889
G0 F1400 X106.374 Y118.819
G1 F300 X99.179 Y111.624 E81.9855
G0 X99.109 Y111.554
G0 F1400 X99.179 Y112.19
G1 F300 X105.808 Y118.819 E82.45321
G0 X105.878 Y118.889
G0 F1400 X105.242 Y118.819
G1 F300 X99.179 Y112.755 E82.88102
G0 X99.109 Y112.685
G0 F1400 X99.179 Y113.321
G1 F300 X104.677 Y118.819 E83.26894
G0 X104.747 Y118.889
G0 F1400 X104.111 Y118.819
G1 F300 X99.179 Y113.887 E83.61692
G0 X99.109 Y113.817
G0 F1400 X99.179 Y114.453
G1 F300 X103.545 Y118.819 E83.92496
G0 X103.615 Y118.889
G0 F1400 X102.98 Y118.819
G1 F300 X99.179 Y115.018 E84.19314
G0 X99.109 Y114.948
G0 F1400 X99.179 Y115.584
G1 F300 X102.414 Y118.819 E84.42139
G0 X102.484 Y118.889
G0 F1400 X101.848 Y118.819
G1 F300 X99.179 Y116.15 E84.6097
G0 X99.109 Y116.08
G0 F1400 X99.179 Y116.715
G1 F300 X101.283 Y118.819 E84.75815
G0 X101.353 Y118.889
G0 F1400 X100.717 Y118.819
G1 F300 X99.179 Y117.281 E84.86666
G0 X99.109 Y117.211
G0 F1400 X99.179 Y117.847
G1 F300 X100.151 Y118.819 E84.93524
G0 X100.221 Y118.889
G0 F1400 X99.586 Y118.819
G1 F300 X99.179 Y118.412 E84.96396
;TIME_ELAPSED:358.954981
;LAYER:1
M106 S255
G0 F2800 X99 Y119 Z.4
;TYPE:WALL-INNER
G1 F600 X99 Y101 E85.2633
G1 X121 Y101 E85.62916
G1 X121 Y119 E85.9285
G1 X99 Y119 E86.29437
G0 F2800 X98.9 Y119.4
G1 F600 X98.9 Y123.6 E86.36421
G1 X121.1 Y123.6 E86.7334
G1 X121.1 Y119.4 E86.80325
G1 X98.9 Y119.4 E87.17243
G0 F2800 X98.6 Y119.4
G1 F600 X98.6 Y100.6 E87.48508
G1 X98.6 Y96.4 E87.55493
G1 X98.6 Y95.6 E87.56823
G1 X121.4 Y95.6 E87.94739
G1 X121.4 Y96.4 E87.9607
G1 X121.4 Y100.6 E88.03055
G1 X121.4 Y119.4 E88.34319
G1 X121.4 Y123.6 E88.39558
G1 X121.4 Y124.4 E88.40888
G1 X98.6 Y124.4 E88.78804
G1 X98.6 Y123.6 E88.80135
G1 X98.6 Y119.4 E88.85373
G0 F2800 X98.7 Y119.4
G0 X98.83 Y100.67
G0 X98.9 Y100.6
G1 F600 X121.1 Y100.6 E89.22292
G1 X121.1 Y96.4 E89.27531
G1 X98.9 Y96.4 E89.64449
G1 X98.9 Y100.6 E89.69688
G0 F2800 X99.3 Y100.2
;TYPE:WALL-OUTER
G1 F375 X120.7 Y100.2 E90.05276
G1 X120.7 Y96.8 E90.1093
G1 X99.3 Y96.8 E90.46519
G1 X99.3 Y100.2 E90.52173
G0 F2800 X98.8 Y100.2
G0 X98.67 Y95.67
G0 X98.2 Y95.2
G1 F375 X121.8 Y95.2 E90.9142
G1 X121.8 Y124.8 E91.40645
G1 X98.2 Y124.8 E91.79892
G1 X98.2 Y95.2 E92.29117
G0 F2800 X98.67 Y95.67
G0 X98.8 Y119.8
G0 X99.3 Y119.8
G1 F375 X99.3 Y123.2 E92.34771
G1 X120.7 Y123.2 E92.70359
G1 X120.7 Y119.8 E92.76014
G1 X99.3 Y119.8 E93.11602
G0 F2800 X98.8 Y119.8
G0 X98.872 Y119.372
G0 X99.534 Y118.82
;TYPE:SKIN
G1 F600 X117.175 Y101.179 E93.53091
G0 X117.245 Y101.109
G0 F2800 X116.609 Y101.179
G1 F600 X99.18 Y118.608 E93.94081
G0 X99.11 Y118.678
G0 F2800 X99.18 Y118.042
G1 F600 X116.044 Y101.179 E94.33742
G0 X116.114 Y101.109
G0 F2800 X115.478 Y101.179
G1 F600 X99.18 Y117.477 E94.72072
G0 X99.11 Y117.547
G0 F2800 X99.18 Y116.911
G1 F600 X114.912 Y101.179 E95.09071
G0 X114.982 Y101.109
G0 F2800 X114.346 Y101.179
G1 F600 X99.18 Y116.345 E95.44739
G0 X99.11 Y116.415
G0 F2800 X99.18 Y115.78
G1 F600 X113.781 Y101.179 E95.79079
G0 X113.851 Y101.109
G0 F2800 X113.215 Y101.179
G1 F600 X99.18 Y115.214 E96.12087
G0 X99.11 Y115.284
G0 F2800 X99.18 Y114.648
G1 F600 X112.649 Y101.179 E96.43764
G0 X112.719 Y101.109
G0 F2800 X112.084 Y101.179
G1 F600 X99.18 Y114.083 E96.74112
G0 X99.11 Y114.153
G0 F2800 X99.18 Y113.517
G1 F600 X111.518 Y101.179 E97.03129
G0 X111.588 Y101.109
G0 F2800 X110.952 Y101.179
G1 F600 X99.18 Y112.951 E97.30815
G0 X99.11 Y113.021
G0 F2800 X99.18 Y112.386
G1 F600 X110.387 Y101.179 E97.57172
G0 X110.457 Y101.109
G0 F2800 X109.821 Y101.179
G1 F600 X99.18 Y111.82 E97.82198
G0 X99.11 Y111.89
G0 F2800 X99.18 Y111.254
G1 F600 X109.255 Y101.179 E98.05893
G0 X109.325 Y101.109
G0 F2800 X108.69 Y101.179
G1 F600 X99.18 Y110.689 E98.28259
G0 X99.11 Y110.759
G0 F2800 X99.18 Y110.123
G1 F600 X108.124 Y101.179 E98.49294
G0 X108.194 Y101.109
G0 F2800 X107.558 Y101.179
G1 F600 X99.18 Y109.557 E98.68998
G0 X99.11 Y109.627
G0 F2800 X99.18 Y108.992
G1 F600 X106.993 Y101.179 E98.87373
G0 X107.063 Y101.109
G0 F2800 X106.427 Y101.179
G1 F600 X99.18 Y108.426 E99.04417
G0 X99.11 Y108.496
G0 F2800 X99.18 Y107.86
G1 F600 X105.861 Y101.179 E99.20129
G0 X105.931 Y101.109
G0 F2800 X105.295 Y101.179
G1 F600 X99.18 Y107.294 E99.34511
G0 X99.11 Y107.364
G0 F2800 X99.18 Y106.729
G1 F600 X104.73 Y101.179 E99.47564
G0 X104.8 Y101.109
G0 F2800 X104.164 Y101.179
G1 F600 X99.18 Y106.163 E99.59285
G0 X99.11 Y106.233
G0 F2800 X99.18 Y105.597
G1 F600 X103.598 Y101.179 E99.69676
G0 X103.668 Y101.109
G0 F2800 X103.033 Y101.179
G1 F600 X99.18 Y105.032 E99.78737
G0 X99.11 Y105.102
G0 F2800 X99.18 Y104.466
G1 F600 X102.467 Y101.179 E99.86468
G0 X102.537 Y101.109
G0 F2800 X101.901 Y101.179
G1 F600 X99.18 Y103.9 E99.92867
G0 X99.11 Y103.97
G0 F2800 X99.18 Y103.335
G1 F600 X101.336 Y101.179 E99.97938
G0 X101.406 Y101.109
G0 F2800 X100.77 Y101.179
G1 F600 X99.18 Y102.769 E100.01677
G0 X99.11 Y102.839
G0 F2800 X99.18 Y102.203
G1 F600 X100.204 Y101.179 E100.04086
G0 X100.274 Y101.109
G0 F2800 X99.639 Y101.179
G1 F600 X99.18 Y101.638 E100.05165
G0 F2800 X100.1 Y118.82
G1 F600 X117.741 Y101.179 E100.46654
G0 X117.811 Y101.109
G0 F2800 X118.306 Y101.179
G1 F600 X100.665 Y118.82 E100.88143
G0 X100.595 Y118.89
G0 F2800 X101.231 Y118.82
G1 F600 X118.872 Y101.179 E101.29632
G0 X118.942 Y101.109
G0 F2800 X119.438 Y101.179
G1 F600 X101.797 Y118.82 E101.71121
G0 X101.727 Y118.89
G0 F2800 X102.362 Y118.82
G1 F600 X120.003 Y101.179 E102.1261
G0 X120.073 Y101.109
G0 F2800 X120.569 Y101.179
G1 F600 X102.928 Y118.82 E102.54099
G0 X102.858 Y118.89
G0 F2800 X103.494 Y118.82
G1 F600 X120.819 Y101.495 E102.94844
G0 X120.889 Y101.425
G0 F2800 X120.819 Y102.06
G1 F600 X104.059 Y118.82 E103.34261
G0 X103.989 Y118.89
G0 F2800 X104.625 Y118.82
G1 F600 X120.819 Y102.626 E103.72347
G0 X120.889 Y102.556
G0 F2800 X120.819 Y103.192
G1 F600 X105.191 Y118.82 E104.09102
G0 X105.121 Y118.89
G0 F2800 X105.757 Y118.82
G1 F600 X120.819 Y103.758 E104.44525
G0 X120.889 Y103.688
G0 F2800 X120.819 Y104.323
G1 F600 X106.322 Y118.82 E104.7862
G0 X106.252 Y118.89
G0 F2800 X106.888 Y118.82
G1 F600 X120.819 Y104.889 E105.11384
G0 X120.889 Y104.819
G0 F2800 X120.819 Y105.455
G1 F600 X107.454 Y118.82 E105.42816
G0 X107.384 Y118.89
G0 F2800 X108.019 Y118.82
G1 F600 X120.819 Y106.02 E105.7292
G0 X120.889 Y105.95
G0 F2800 X120.819 Y106.586
G1 F600 X108.585 Y118.82 E106.01692
G0 X108.515 Y118.89
G0 F2800 X109.151 Y118.82
G1 F600 X120.819 Y107.152 E106.29134
G0 X120.889 Y107.082
G0 F2800 X120.819 Y107.717
G1 F600 X109.716 Y118.82 E106.55246
G0 X109.646 Y118.89
G0 F2800 X110.282 Y118.82
G1 F600 X120.819 Y108.283 E106.80028
G0 X120.889 Y108.213
G0 F2800 X120.819 Y108.849
G1 F600 X110.848 Y118.82 E107.03478
G0 X110.778 Y118.89
G0 F2800 X111.413 Y118.82
G1 F600 X120.819 Y109.414 E107.25599
G0 X120.889 Y109.344
G0 F2800 X120.819 Y109.98
G1 F600 X111.979 Y118.82 E107.4639
G0 X111.909 Y118.89
G0 F2800 X112.545 Y118.82
G1 F600 X120.819 Y110.546 E107.65849
G0 X120.889 Y110.476
G0 F2800 X120.819 Y111.111
G1 F600 X113.11 Y118.82 E107.83979
G0 X113.04 Y118.89
G0 F2800 X113.676 Y118.82
