;FLAVOR:RepRap
;TIME:481
;Generated with Cura_SteamEngine 2.3.1
M190 S60
M104 S210
M109 S210
G28 ;Home
G1 Z15.0 F6000 ;Move the platform down 15mm
;Prime the extruder
G92 E0
G1 F200 E3
G92 E0
;LAYER_COUNT:85
;LAYER:0
M107
G1 F1500 E-6.5
G0 F3600 X103.239 Y102.94 Z.3
;TYPE:SKIRT
G1 F1500 E0
G1 F1800 X103.694 Y102.519 E0.03093
G1 X103.947 Y102.326 E0.0468
G1 X104.77 Y101.743 E0.09712
G1 X105.298 Y101.419 E0.12803
G1 X105.822 Y101.18 E0.15676
G1 X107.203 Y100.649 E0.23058
G1 X107.795 Y100.464 E0.26152
G1 X108.371 Y100.361 E0.29071
G1 X109.35 Y100.247 E0.33988
G1 X109.968 Y100.215 E0.37076
G1 X110.443 Y100.245 E0.3945
G1 X111.747 Y100.392 E0.45997
G1 X112.356 Y100.501 E0.49084
G1 X112.747 Y100.615 E0.51116
G1 X113.507 Y100.872 E0.55118
G1 X114.079 Y101.108 E0.58205
G1 X114.421 Y101.293 E0.60145
G1 X115.53 Y101.952 E0.66581
G1 X116.041 Y102.302 E0.69671
G1 X116.381 Y102.595 E0.7191
G1 X117.06 Y103.239 E0.76579
G1 X117.481 Y103.694 E0.79672
G1 X117.674 Y103.947 E0.8126
G1 X118.257 Y104.77 E0.86291
G1 X118.581 Y105.298 E0.89382
G1 X118.82 Y105.822 E0.92255
G1 X119.351 Y107.203 E0.99637
G1 X119.536 Y107.795 E1.02731
G1 X119.639 Y108.37 E1.05646
G1 X119.753 Y109.348 E1.10558
G1 X119.785 Y109.967 E1.1365
G1 X119.755 Y110.441 E1.1602
G1 X119.608 Y111.746 E1.22572
G1 X119.499 Y112.356 E1.25663
G1 X119.385 Y112.747 E1.27695
G1 X119.128 Y113.507 E1.31698
G1 X118.855 Y114.153 E1.35196
G1 X118.551 Y114.748 E1.3853
G1 X118.235 Y115.28 E1.41617
G1 X117.957 Y115.646 E1.4391
G1 X116.958 Y116.839 E1.51673
G1 X116.531 Y117.287 E1.54761
G1 X116.053 Y117.674 E1.57829
G1 X115.23 Y118.257 E1.62861
G1 X114.702 Y118.581 E1.65952
G1 X114.178 Y118.82 E1.68825
G1 X112.797 Y119.351 E1.76206
G1 X112.205 Y119.536 E1.79301
G1 X111.629 Y119.639 E1.8222
G1 X110.65 Y119.753 E1.87137
G1 X110.032 Y119.785 E1.90225
G1 X109.557 Y119.755 E1.92599
G1 X108.253 Y119.608 E1.99146
G1 X107.644 Y119.499 E2.02233
G1 X107.253 Y119.385 E2.04265
G1 X106.493 Y119.128 E2.08267
G1 X105.921 Y118.892 E2.11354
G1 X105.578 Y118.707 E2.13299
G1 X104.468 Y118.047 E2.19741
G1 X103.957 Y117.697 E2.22831
G1 X103.615 Y117.401 E2.25088
G1 X102.938 Y116.758 E2.29746
G1 X102.518 Y116.304 E2.32832
G1 X102.266 Y115.964 E2.34943
G1 X101.576 Y114.942 E2.41095
G1 X101.263 Y114.407 E2.44188
G1 X101.037 Y113.88 E2.47048
G1 X100.612 Y112.698 E2.53315
G1 X100.441 Y112.103 E2.56404
G1 X100.361 Y111.63 E2.58797
G1 X100.247 Y110.652 E2.63709
G1 X100.215 Y110.033 E2.66802
G1 X100.245 Y109.559 E2.69171
G1 X100.392 Y108.254 E2.75723
G1 X100.501 Y107.644 E2.78814
G1 X100.615 Y107.253 E2.80846
G1 X100.872 Y106.493 E2.84849
G1 X101.108 Y105.921 E2.87936
G1 X101.293 Y105.579 E2.89876
G1 X101.952 Y104.47 E2.96312
G1 X102.302 Y103.959 E2.99402
G1 X102.595 Y103.619 E3.01641
G1 X103.239 Y102.94 E3.0631
G0 F3600 X103.53 Y103.215
G1 F1800 X104.179 Y102.653 E3.10593
G1 X105.002 Y102.07 E3.15625
G1 X105.507 Y101.76 E3.18581
G1 X105.966 Y101.553 E3.21093
G1 X107.347 Y101.022 E3.28475
G1 X107.913 Y100.847 E3.31431
G1 X108.417 Y100.759 E3.33983
G1 X109.396 Y100.645 E3.389
G1 X109.988 Y100.616 E3.41857
G1 X110.398 Y100.643 E3.43907
G1 X111.702 Y100.79 E3.50454
G1 X112.285 Y100.896 E3.5341
G1 X112.618 Y100.994 E3.55142
G1 X113.378 Y101.251 E3.59145
G1 X113.926 Y101.478 E3.62104
G1 X114.217 Y101.636 E3.63756
G1 X115.326 Y102.295 E3.70192
G1 X115.814 Y102.632 E3.73151
G1 X116.106 Y102.886 E3.75082
G1 X116.785 Y103.53 E3.7975
G1 X117.347 Y104.179 E3.84034
G1 X117.93 Y105.002 E3.89065
G1 X118.24 Y105.507 E3.92022
G1 X118.447 Y105.966 E3.94534
G1 X118.978 Y107.347 E4.01915
G1 X119.153 Y107.913 E4.04871
G1 X119.241 Y108.417 E4.07424
G1 X119.355 Y109.395 E4.12336
G1 X119.384 Y109.987 E4.15293
G1 X119.357 Y110.397 E4.17343
G1 X119.21 Y111.702 E4.23895
G1 X119.104 Y112.285 E4.26851
G1 X119.006 Y112.618 E4.28583
G1 X118.749 Y113.378 E4.32585
G1 X118.499 Y113.971 E4.35796
G1 X118.195 Y114.566 E4.39129
G1 X117.89 Y115.075 E4.4209
G1 X117.65 Y115.389 E4.44062
G1 X116.651 Y116.582 E4.51825
G1 X116.241 Y117.01 E4.54782
G1 X115.821 Y117.347 E4.57468
G1 X114.998 Y117.93 E4.625
G1 X114.493 Y118.24 E4.65456
G1 X114.034 Y118.447 E4.67968
G1 X112.653 Y118.978 E4.7535
G1 X112.087 Y119.153 E4.78306
G1 X111.583 Y119.241 E4.80858
G1 X110.604 Y119.355 E4.85775
G1 X110.012 Y119.384 E4.88732
G1 X109.602 Y119.357 E4.90782
G1 X108.298 Y119.21 E4.97329
G1 X107.715 Y119.104 E5.00285
G1 X107.382 Y119.006 E5.02017
G1 X106.622 Y118.749 E5.0602
G1 X106.074 Y118.522 E5.08979
G1 X105.782 Y118.363 E5.10638
G1 X104.672 Y117.703 E5.17081
G1 X104.184 Y117.366 E5.20039
G1 X103.891 Y117.111 E5.21977
G1 X103.214 Y116.468 E5.26635
G1 X102.812 Y116.032 E5.29594
G1 X102.597 Y115.74 E5.31403
G1 X101.907 Y114.718 E5.37555
G1 X101.609 Y114.205 E5.40515
G1 X101.414 Y113.745 E5.43008
G1 X100.989 Y112.563 E5.49274
G1 X100.826 Y111.993 E5.52232
G1 X100.759 Y111.583 E5.54305
G1 X100.645 Y110.605 E5.59217
G1 X100.616 Y110.013 E5.62174
G1 X100.643 Y109.603 E5.64224
G1 X100.79 Y108.298 E5.70776
G1 X100.896 Y107.715 E5.73732
G1 X100.994 Y107.382 E5.75464
G1 X101.251 Y106.622 E5.79467
G1 X101.478 Y106.074 E5.82426
G1 X101.636 Y105.783 E5.84078
G1 X102.295 Y104.674 E5.90514
G1 X102.632 Y104.186 E5.93473
G1 X102.886 Y103.894 E5.95403
G1 X103.53 Y103.215 E6.00072
G0 F3600 X103.82 Y103.49
G1 F1800 X104.41 Y102.979 E6.03966
G1 X105.233 Y102.396 E6.08998
G1 X105.716 Y102.103 E6.11817
G1 X106.109 Y101.926 E6.13967
G1 X107.49 Y101.395 E6.21348
G1 X108.031 Y101.23 E6.2417
G1 X108.463 Y101.156 E6.26357
G1 X109.442 Y101.042 E6.31274
G1 X110.007 Y101.016 E6.34096
G1 X110.353 Y101.04 E6.35826
G1 X111.657 Y101.187 E6.42373
G1 X112.213 Y101.29 E6.45194
G1 X112.49 Y101.373 E6.46637
G1 X113.25 Y101.63 E6.5064
G1 X114.012 Y101.98 E6.54823
G1 X115.121 Y102.639 E6.61259
G1 X115.586 Y102.962 E6.64084
G1 X115.831 Y103.176 E6.65707
G1 X116.51 Y103.82 E6.70375
G1 X117.021 Y104.41 E6.7427
G1 X117.604 Y105.233 E6.79301
G1 X117.897 Y105.716 E6.8212
G1 X118.074 Y106.109 E6.8427
G1 X118.605 Y107.49 E6.91652
G1 X118.77 Y108.031 E6.94473
G1 X118.844 Y108.463 E6.9666
G1 X118.958 Y109.441 E7.01572
G1 X118.984 Y110.006 E7.04394
G1 X118.96 Y110.352 E7.06125
G1 X118.813 Y111.657 E7.12676
G1 X118.71 Y112.213 E7.15497
G1 X118.627 Y112.49 E7.1694
G1 X118.37 Y113.25 E7.20943
G1 X118.143 Y113.789 E7.23861
G1 X117.839 Y114.384 E7.27194
G1 X117.547 Y114.868 E7.30014
G1 X117.344 Y115.132 E7.31676
G1 X116.345 Y116.325 E7.39439
G1 X115.952 Y116.732 E7.42261
G1 X115.59 Y117.021 E7.44572
G1 X114.767 Y117.604 E7.49604
G1 X114.284 Y117.897 E7.52423
G1 X113.891 Y118.074 E7.54573
G1 X112.51 Y118.605 E7.61954
G1 X111.969 Y118.77 E7.64776
G1 X111.537 Y118.844 E7.66963
G1 X110.558 Y118.958 E7.7188
G1 X109.993 Y118.984 E7.74702
G1 X109.647 Y118.96 E7.76432
G1 X108.343 Y118.813 E7.82979
G1 X107.787 Y118.71 E7.858
G1 X107.51 Y118.627 E7.87243
G1 X106.75 Y118.37 E7.91246
G1 X105.987 Y118.019 E7.95436
G1 X104.877 Y117.359 E8.01878
G1 X104.412 Y117.037 E8.047
G1 X104.166 Y116.821 E8.06333
G1 X103.489 Y116.178 E8.10992
G1 X103.108 Y115.761 E8.1381
G1 X102.929 Y115.516 E8.15324
G1 X102.239 Y114.494 E8.21476
G1 X101.956 Y114.005 E8.24294
G1 X101.79 Y113.609 E8.26437
G1 X101.365 Y112.427 E8.32703
G1 X101.212 Y111.883 E8.35522
G1 X101.156 Y111.537 E8.37271
G1 X101.042 Y110.559 E8.42183
G1 X101.016 Y109.994 E8.45005
G1 X101.04 Y109.648 E8.46736
G1 X101.187 Y108.343 E8.53287
G1 X101.29 Y107.787 E8.56108
G1 X101.373 Y107.51 E8.57551
G1 X101.63 Y106.75 E8.61554
G1 X101.98 Y105.988 E8.65737
G1 X102.639 Y104.879 E8.72173
G1 X102.962 Y104.414 E8.74998
G1 X103.176 Y104.169 E8.76621
G1 X103.82 Y103.49 E8.8129
G0 F3600 X104.11 Y103.766
G1 F1800 X104.641 Y103.305 E8.84798
G1 X105.464 Y102.722 E8.8983
G1 X105.924 Y102.446 E8.92506
G1 X106.253 Y102.3 E8.94302
G1 X107.634 Y101.769 E9.01683
G1 X108.148 Y101.614 E9.04362
G1 X108.51 Y101.553 E9.06193
G1 X109.489 Y101.439 E9.11111
G1 X110.024 Y101.417 E9.13782
G1 X110.308 Y101.438 E9.15203
G1 X111.612 Y101.585 E9.2175
G1 X112.362 Y101.752 E9.25583
G1 X113.122 Y102.009 E9.29586
G1 X113.808 Y102.324 E9.33352
G1 X114.917 Y102.983 E9.39788
G1 X115.555 Y103.466 E9.4378
G1 X116.234 Y104.11 E9.48449
G1 X116.695 Y104.641 E9.51957
G1 X117.278 Y105.464 E9.56989
G1 X117.554 Y105.924 E9.59665
G1 X117.7 Y106.253 E9.61461
G1 X118.231 Y107.634 E9.68842
G1 X118.386 Y108.148 E9.71521
G1 X118.447 Y108.509 E9.73347
G1 X118.561 Y109.487 E9.7826
G1 X118.583 Y110.023 E9.80936
G1 X118.562 Y110.307 E9.82357
G1 X118.415 Y111.612 E9.88909
G1 X118.248 Y112.362 E9.92742
G1 X117.991 Y113.122 E9.96745
G1 X117.787 Y113.607 E9.9937
G1 X117.483 Y114.202 E10.02703
G1 X117.204 Y114.66 E10.05379
G1 X117.037 Y114.875 E10.06737
G1 X116.038 Y116.068 E10.145
G1 X115.664 Y116.453 E10.17178
G1 X115.359 Y116.695 E10.1912
G1 X114.536 Y117.278 E10.24152
G1 X114.076 Y117.554 E10.26828
G1 X113.747 Y117.7 E10.28624
G1 X112.366 Y118.231 E10.36006
G1 X111.852 Y118.386 E10.38684
G1 X111.49 Y118.447 E10.40516
G1 X110.511 Y118.561 E10.45433
G1 X109.976 Y118.583 E10.48104
G1 X109.692 Y118.562 E10.49525
G1 X108.388 Y118.415 E10.56072
G1 X107.638 Y118.248 E10.59905
G1 X106.878 Y117.991 E10.63908
G1 X106.191 Y117.675 E10.67681
G1 X105.081 Y117.015 E10.74123
G1 X104.442 Y116.531 E10.78123
G1 X103.765 Y115.888 E10.82781
G1 X103.26 Y115.292 E10.86678
G1 X102.57 Y114.27 E10.9283
G1 X102.304 Y113.805 E10.95503
G1 X102.166 Y113.474 E10.97292
G1 X101.741 Y112.292 E11.03559
G1 X101.598 Y111.775 E11.06235
G1 X101.553 Y111.491 E11.07669
G1 X101.439 Y110.513 E11.12582
G1 X101.417 Y109.977 E11.15258
G1 X101.438 Y109.693 E11.16679
G1 X101.585 Y108.388 E11.23231
G1 X101.752 Y107.638 E11.27064
G1 X102.009 Y106.878 E11.31067
G1 X102.324 Y106.192 E11.34833
G1 X102.983 Y105.083 E11.41269
G1 X103.466 Y104.445 E11.45261
G1 X104.11 Y103.766 E11.4993
G0 F3600 X104.4 Y104.041
G1 F1800 X104.872 Y103.632 E11.53046
G1 X105.695 Y103.049 E11.58077
G1 X106.13 Y102.79 E11.60603
G1 X106.397 Y102.673 E11.62057
G1 X107.778 Y102.142 E11.69439
G1 X108.262 Y101.999 E11.71957
G1 X108.556 Y101.95 E11.73444
G1 X109.535 Y101.836 E11.78361
G1 X110.263 Y101.835 E11.81993
G1 X111.567 Y101.982 E11.8854
G1 X112.234 Y102.131 E11.9195
G1 X112.994 Y102.388 E11.95952
G1 X113.604 Y102.668 E11.99301
G1 X114.713 Y103.327 E12.05737
G1 X115.28 Y103.756 E12.09284
G1 X115.959 Y104.4 E12.13953
G1 X116.368 Y104.872 E12.17069
G1 X116.951 Y105.695 E12.22101
G1 X117.21 Y106.13 E12.24626
G1 X117.327 Y106.397 E12.26081
G1 X117.858 Y107.778 E12.33462
G1 X118.001 Y108.262 E12.3598
G1 X118.049 Y108.556 E12.37466
G1 X118.163 Y109.534 E12.42379
G1 X118.165 Y110.262 E12.46011
G1 X118.018 Y111.567 E12.52563
G1 X117.869 Y112.234 E12.55972
G1 X117.612 Y112.994 E12.59975
G1 X117.431 Y113.425 E12.62307
G1 X117.127 Y114.02 E12.65641
G1 X116.73 Y114.618 E12.69222
G1 X115.731 Y115.811 E12.76985
G1 X115.377 Y116.172 E12.79507
G1 X115.128 Y116.368 E12.81088
G1 X114.305 Y116.951 E12.8612
G1 X113.87 Y117.21 E12.88646
G1 X113.603 Y117.327 E12.901
G1 X112.222 Y117.858 E12.97482
G1 X111.738 Y118.001 E13
G1 X111.444 Y118.05 E13.01487
G1 X110.465 Y118.164 E13.06404
G1 X109.737 Y118.165 E13.10036
G1 X108.433 Y118.018 E13.16583
G1 X107.766 Y117.869 E13.19992
G1 X107.006 Y117.612 E13.23995
G1 X106.396 Y117.332 E13.27344
G1 X105.286 Y116.672 E13.33786
G1 X104.717 Y116.241 E13.37348
G1 X104.04 Y115.598 E13.42006
G1 X103.592 Y115.069 E13.45464
G1 X102.902 Y114.047 E13.51616
G1 X102.653 Y113.607 E13.54139
G1 X102.543 Y113.339 E13.55584
G1 X102.118 Y112.157 E13.61851
G1 X101.951 Y111.444 E13.65504
G1 X101.837 Y110.466 E13.70416
G1 X101.835 Y109.738 E13.74048
G1 X101.982 Y108.433 E13.806
G1 X102.131 Y107.766 E13.8401
G1 X102.388 Y107.006 E13.88012
G1 X102.668 Y106.396 E13.91361
G1 X103.327 Y105.287 E13.97797
G1 X103.756 Y104.72 E14.01344
G1 X104.4 Y104.041 E14.06013
G1 F1500 E7.56013
G0 F3600 X106.154 Y105.845
G0 X107.021 Y106.817
G0 X107.062 Y106.86
G0 X106.994 Y106.788
;TYPE:WALL-INNER
G1 F1500 E14.06013
G1 F1800 X107.198 Y106.609 E14.07367
G1 X107.415 Y106.44 E14.08739
G1 X107.648 Y106.282 E14.10144
G1 X107.876 Y106.147 E14.11466
G1 X108.125 Y106.02 E14.1286
G1 X108.382 Y105.909 E14.14257
G1 X108.645 Y105.814 E14.15652
G1 X108.905 Y105.739 E14.17002
G1 X109.166 Y105.681 E14.18336
G1 X109.456 Y105.635 E14.19801
G1 X109.716 Y105.61 E14.21104
G1 X110 Y105.6 E14.22522
G1 X110.284 Y105.61 E14.23939
G1 X110.544 Y105.635 E14.25243
G1 X110.834 Y105.681 E14.26707
G1 X111.095 Y105.739 E14.28041
G1 X111.355 Y105.814 E14.29391
G1 X111.618 Y105.909 E14.30787
G1 X111.875 Y106.02 E14.32183
G1 X112.124 Y106.147 E14.33578
G1 X112.352 Y106.282 E14.349
G1 X112.585 Y106.44 E14.36304
G1 X112.802 Y106.609 E14.37676
G1 X113.006 Y106.788 E14.3903
G1 X113.212 Y106.994 E14.40484
G1 X113.391 Y107.198 E14.41838
G1 X113.556 Y107.41 E14.43178
G1 X113.714 Y107.642 E14.44578
G1 X113.853 Y107.878 E14.45945
G1 X113.98 Y108.125 E14.47331
G1 X114.088 Y108.375 E14.48689
G1 X114.187 Y108.648 E14.50138
G1 X114.259 Y108.899 E14.51441
G1 X114.32 Y109.17 E14.52827
G1 X114.365 Y109.454 E14.54261
G1 X114.39 Y109.714 E14.55564
G1 X114.4 Y109.993 E14.56957
G1 X114.39 Y110.284 E14.5841
G1 X114.365 Y110.544 E14.59713
G1 X114.319 Y110.834 E14.61178
G1 X114.261 Y111.095 E14.62512
G1 X114.187 Y111.352 E14.63846
G1 X114.09 Y111.618 E14.65259
G1 X113.981 Y111.874 E14.66647
G1 X113.856 Y112.119 E14.68019
G1 X113.718 Y112.352 E14.6937
G1 X113.56 Y112.585 E14.70774
G1 X113.393 Y112.8 E14.72133
G1 X113.212 Y113.006 E14.73501
G1 X113.008 Y113.21 E14.7494
G1 X112.804 Y113.389 E14.76294
G1 X112.585 Y113.56 E14.7768
G1 X112.352 Y113.718 E14.79085
G1 X112.124 Y113.853 E14.80407
G1 X111.875 Y113.98 E14.81801
G1 X111.618 Y114.091 E14.83198
G1 X111.355 Y114.186 E14.84593
G1 X111.095 Y114.261 E14.85943
G1 X110.834 Y114.319 E14.87277
G1 X110.544 Y114.365 E14.88742
G1 X110.284 Y114.39 E14.90045
G1 X110 Y114.4 E14.91463
G1 X109.716 Y114.39 E14.9288
G1 X109.456 Y114.365 E14.94184
G1 X109.166 Y114.319 E14.95648
G1 X108.905 Y114.261 E14.96982
G1 X108.645 Y114.186 E14.98332
G1 X108.382 Y114.091 E14.99728
G1 X108.125 Y113.98 E15.01124
G1 X107.876 Y113.853 E15.02519
G1 X107.648 Y113.718 E15.03841
G1 X107.415 Y113.56 E15.05245
G1 X107.205 Y113.396 E15.06574
G1 X106.984 Y113.201 E15.08045
G1 X106.787 Y113.005 E15.09431
G1 X106.607 Y112.8 E15.10792
G1 X106.44 Y112.585 E15.12151
G1 X106.282 Y112.352 E15.13555
G1 X106.144 Y112.119 E15.14906
G1 X106.019 Y111.874 E15.16278
G1 X105.91 Y111.618 E15.17666
G1 X105.813 Y111.352 E15.19079
G1 X105.739 Y111.095 E15.20413
G1 X105.681 Y110.834 E15.21747
G1 X105.635 Y110.544 E15.23212
G1 X105.61 Y110.284 E15.24515
G1 X105.6 Y110.006 E15.25903
G1 X105.61 Y109.714 E15.27361
G1 X105.635 Y109.454 E15.28664
G1 X105.68 Y109.17 E15.30098
G1 X105.741 Y108.899 E15.31484
G1 X105.813 Y108.648 E15.32787
G1 X105.912 Y108.375 E15.34236
G1 X106.02 Y108.125 E15.35594
G1 X106.147 Y107.876 E15.36989
G1 X106.282 Y107.648 E15.38311
G1 X106.444 Y107.41 E15.39747
G1 X106.609 Y107.198 E15.41088
G1 X106.788 Y106.994 E15.42442
G1 X106.994 Y106.788 E15.43895
G0 F3600 X107.062 Y106.86
G0 X108.267 Y107.614
G0 X108.325 Y107.694
G1 F1800 X108.056 Y107.916 E15.45635
G1 X107.916 Y108.056 E15.46623
G1 X107.694 Y108.325 E15.48363
G1 X107.502 Y108.627 E15.50148
G1 X107.349 Y108.95 E15.51931
G1 X107.242 Y109.282 E15.53672
G1 X107.2 Y109.466 E15.54613
G1 X107.171 Y109.653 E15.55557
G1 X107.149 Y110 E15.57292
G1 X107.171 Y110.357 E15.59076
G1 X107.239 Y110.709 E15.60865
G1 X107.349 Y111.05 E15.62653
G1 X107.502 Y111.373 E15.64436
G1 X107.694 Y111.675 E15.66221
G1 X107.916 Y111.944 E15.67961
G1 X108.056 Y112.084 E15.68949
G1 X108.325 Y112.306 E15.70689
G1 X108.627 Y112.498 E15.72474
