;FLAVOR:RepRap
;TIME:844
;Generated with Cura_SteamEngine 2.3.1
M190 S60
M104 S210
M109 S210
G28 ;Home
G1 Z15.0 F6000 ;Move the platform down 15mm
;Prime the extruder
G92 E0
G1 F200 E3
G92 E0
;LAYER_COUNT:50
;LAYER:0
M107
G1 F1500 E-6.5
G0 F3600 X90.364 Y96.568 Z.3
;TYPE:SKIRT
G1 F1500 E0
G1 F1800 X90.756 Y96.202 E0.02676
G1 X91.198 Y95.899 E0.05349
G1 X91.681 Y95.664 E0.08029
G1 X92.192 Y95.504 E0.107
G1 X92.722 Y95.421 E0.13377
G1 X93.009 Y95.41 E0.1481
G1 X126.991 Y95.411 E1.84347
G1 X127.526 Y95.451 E1.87023
G1 X128.049 Y95.57 E1.89699
G1 X128.548 Y95.765 E1.92372
G1 X129.013 Y96.033 E1.9505
G1 X129.433 Y96.366 E1.97724
G1 X129.799 Y96.758 E2.00399
G1 X130.103 Y97.2 E2.03076
G1 X130.337 Y97.683 E2.05753
G1 X130.497 Y98.194 E2.08425
G1 X130.58 Y98.724 E2.11101
G1 X130.591 Y99.011 E2.12534
G1 X130.591 Y120.99 E3.22188
G1 X130.551 Y121.525 E3.24864
G1 X130.432 Y122.048 E3.2754
G1 X130.237 Y122.547 E3.30213
G1 X129.969 Y123.012 E3.32891
G1 X129.636 Y123.432 E3.35565
G1 X129.244 Y123.798 E3.3824
G1 X128.802 Y124.101 E3.40914
G1 X128.319 Y124.336 E3.43594
G1 X127.808 Y124.496 E3.46265
G1 X127.278 Y124.579 E3.48942
G1 X126.991 Y124.59 E3.50374
G1 X93.009 Y124.59 E5.19911
G1 X92.474 Y124.55 E5.22588
G1 X91.951 Y124.431 E5.25264
G1 X91.452 Y124.236 E5.27937
G1 X90.987 Y123.968 E5.30614
G1 X90.567 Y123.635 E5.33288
G1 X90.201 Y123.243 E5.35964
G1 X89.898 Y122.801 E5.38638
G1 X89.663 Y122.318 E5.41317
G1 X89.503 Y121.807 E5.43989
G1 X89.42 Y121.277 E5.46665
G1 X89.409 Y120.99 E5.48098
G1 X89.409 Y99.01 E6.57757
G1 X89.449 Y98.475 E6.60433
G1 X89.568 Y97.952 E6.63109
G1 X89.763 Y97.453 E6.65782
G1 X90.031 Y96.988 E6.6846
G1 X90.364 Y96.568 E6.71134
G0 F3600 X90.758 Y96.735
G1 F1800 X91.145 Y96.409 E6.73658
G1 X91.578 Y96.148 E6.76181
G1 X92.046 Y95.958 E6.78701
G1 X92.539 Y95.845 E6.81224
G1 X93.009 Y95.81 E6.83575
G1 X126.991 Y95.811 E8.53112
G1 X127.495 Y95.851 E8.55635
G1 X127.986 Y95.97 E8.58155
G1 X128.453 Y96.165 E8.6068
G1 X128.883 Y96.43 E8.632
G1 X129.266 Y96.761 E8.65725
G1 X129.592 Y97.147 E8.68246
G1 X129.853 Y97.58 E8.70768
G1 X130.043 Y98.048 E8.73288
G1 X130.156 Y98.541 E8.75812
G1 X130.191 Y99.011 E8.78163
G1 X130.191 Y120.99 E9.87817
G1 X130.151 Y121.494 E9.90339
G1 X130.032 Y121.985 E9.9286
G1 X129.838 Y122.452 E9.95383
G1 X129.572 Y122.882 E9.97905
G1 X129.242 Y123.265 E10.00427
G1 X128.855 Y123.591 E10.02952
G1 X128.422 Y123.852 E10.05474
G1 X127.954 Y124.042 E10.07994
G1 X127.461 Y124.155 E10.10517
G1 X126.991 Y124.19 E10.12869
G1 X93.009 Y124.19 E11.82406
G1 X92.505 Y124.15 E11.84928
G1 X92.014 Y124.031 E11.87449
G1 X91.547 Y123.837 E11.89972
G1 X91.117 Y123.571 E11.92494
G1 X90.734 Y123.241 E11.95016
G1 X90.408 Y122.854 E11.97541
G1 X90.147 Y122.421 E12.00063
G1 X89.957 Y121.953 E12.02583
G1 X89.844 Y121.46 E12.05106
G1 X89.809 Y120.99 E12.07458
G1 X89.809 Y99.01 E13.17116
G1 X89.849 Y98.506 E13.19639
G1 X89.968 Y98.015 E13.22159
G1 X90.162 Y97.548 E13.24682
G1 X90.428 Y97.118 E13.27205
G1 X90.758 Y96.735 E13.29727
G1 F1500 E6.79727
G0 F3600 X92.545 Y98.348
G0 X92.605 Y98.401
G0 X95.594 Y101.1
G0 X95.654 Y101.154
G0 X95.653 Y101.154
G0 X95.4 Y100.901
;TYPE:SUPPORT
G1 F1500 E13.29727
G1 F1800 X111.197 Y100.901 E14.08539
G1 X111.091 Y100.927 E14.09083
G1 X110.831 Y101.022 E14.10464
G1 X110.572 Y101.136 E14.11876
G1 X110.38 Y101.242 E14.1297
G1 X110.082 Y101.438 E14.1475
G1 X109.809 Y101.659 E14.16502
G1 X109.557 Y101.934 E14.18363
G1 X109.335 Y102.224 E14.20185
G1 X109.194 Y102.453 E14.21527
G1 X108.678 Y103.515 E14.27417
G1 X108.681 Y104.007 E14.29872
G1 X110.248 Y107.096 E14.47153
G1 X110.782 Y107.274 E14.49961
G1 X115.251 Y105.055 E14.74854
G1 X115.473 Y104.56 E14.7756
G1 X115.03 Y102.961 E14.85838
G1 X114.663 Y102.072 E14.90637
G1 X113.304 Y100.901 E14.99587
G1 X124.6 Y100.901 E15.55943
G1 X124.6 Y119.099 E16.46733
G1 X95.4 Y119.099 E17.92412
G1 X95.4 Y100.901 E18.83202
G0 F3600 X96 Y101.061
G1 F1800 X96 Y118.939 E19.72396
G1 F1500 E13.22396
G0 F3600 X96 Y118.834
G0 X95.665 Y116
G0 X95.56 Y116
G1 F1500 E19.72396
G1 F1800 X124.44 Y116 E21.16479
G1 F1500 E14.66479
G0 F3600 X124.335 Y116
G0 X124 Y118.834
G0 X124 Y118.939
G1 F1500 E21.16479
G1 F1800 X124 Y101.061 E22.05673
G1 F1500 E15.55673
G0 F3600 X124 Y101.166
G0 X124.335 Y104
G0 X124.44 Y104
G1 F1500 E22.05673
G1 F1800 X115.483 Y104 E22.50359
G1 F1500 E16.00359
G0 F3600 X116 Y101.166
G0 X116 Y101.061
G1 F1500 E22.50359
G1 F1800 X116 Y118.939 E23.39553
G1 F1500 E16.89553
G0 F3600 X116 Y118.834
G0 X112 Y118.834
G0 X112 Y118.939
G1 F1500 E23.39553
G1 F1800 X112 Y106.847 E23.9988
G0 F3600 X108.522 Y104
G1 F1800 X95.56 Y104 E24.64548
G1 F1500 E18.14548
G0 F3600 X95.665 Y104
G0 X95.665 Y108
G0 X95.56 Y108
G1 F1500 E24.64548
G1 F1800 X124.44 Y108 E26.08631
G1 F1500 E19.58631
G0 F3600 X124.335 Y108
G0 X124.335 Y112
G0 X124.44 Y112
G1 F1500 E26.08631
G1 F1800 X95.56 Y112 E27.52714
G1 F1500 E21.02714
G0 F3600 X95.665 Y112
G0 X100 Y118.834
G0 X100 Y118.939
G1 F1500 E27.52714
G1 F1800 X100 Y101.061 E28.41907
G1 F1500 E21.91907
G0 F3600 X100 Y101.166
G0 X104 Y101.166
G0 X104 Y101.061
G1 F1500 E28.41907
G1 F1800 X104 Y118.939 E29.31101
G1 F1500 E22.81101
G0 F3600 X104 Y118.834
G0 X108 Y118.834
G0 X108 Y118.939
G1 F1500 E29.31101
G1 F1800 X108 Y101.061 E30.20295
G1 F1500 E23.70295
G0 F3600 X108 Y101.166
G0 X120 Y101.166
G0 X120 Y101.061
G1 F1500 E30.20295
G1 F1800 X120 Y118.939 E31.09489
G1 F1500 E24.59489
G0 F3600 X120 Y120.139
G0 X125.67 Y120.169
G0 X125.6 Y120.099
;TYPE:WALL-INNER
G1 F1500 E31.09489
G1 F1800 X125.6 Y99.901 E32.10257
G1 X94.4 Y99.901 E33.65914
G1 X94.4 Y120.099 E34.66682
G1 X125.6 Y120.099 E36.2234
G0 F3600 X125.6 Y120.399
G1 F1800 X94.4 Y120.399 E37.39083
G1 X93.6 Y120.399 E37.43074
G1 X93.6 Y99.601 E38.46836
G1 X94.4 Y99.601 E38.50827
G1 X125.6 Y99.601 E39.6757
G1 X126.4 Y99.601 E39.71561
G1 X126.4 Y120.399 E40.75323
G1 X125.6 Y120.399 E40.79314
G0 F3600 X125.6 Y120.299
G0 X125.2 Y120.199
G0 X125.2 Y119.699
;TYPE:WALL-OUTER
G1 F1800 X125.2 Y100.301 E41.76091
G1 X94.8 Y100.301 E43.27757
G1 X94.8 Y119.699 E44.24534
G1 X125.2 Y119.699 E45.76201
G0 F3600 X125.2 Y120.199
G0 X126.33 Y120.329
G0 X126.8 Y120.799
G1 F1800 X93.2 Y120.799 E47.43832
G1 X93.2 Y99.201 E48.51585
G1 X126.8 Y99.201 E50.19216
G1 X126.8 Y120.799 E51.26968
G0 F3600 X126.33 Y120.329
G0 X94.372 Y120.127
G0 X94.219 Y119.675
G0 X93.999 Y119.455
G1 F1800 X93.999 Y118.89 E51.30062
G1 X93.999 Y118.324 E51.33161
G1 X93.999 Y117.758 E51.3626
G1 X93.999 Y117.192 E51.39359
G1 X93.999 Y116.627 E51.42453
G1 X93.999 Y116.061 E51.45552
G1 X93.999 Y115.495 E51.48651
G1 X93.999 Y114.93 E51.51745
G1 X93.999 Y114.364 E51.54844
G1 X93.999 Y113.798 E51.57943
G1 X93.999 Y113.233 E51.61037
G1 X93.999 Y112.667 E51.64136
G1 X93.999 Y112.101 E51.67235
G1 X93.999 Y111.536 E51.70329
G1 X93.999 Y110.97 E51.73428
G1 X93.999 Y110.404 E51.76527
G1 X93.999 Y109.839 E51.7962
G1 X93.999 Y109.273 E51.8272
G1 X93.999 Y108.707 E51.85819
G1 X93.999 Y108.141 E51.88918
G1 X93.999 Y107.576 E51.92011
G1 X93.999 Y107.01 E51.9511
G1 X93.999 Y106.444 E51.9821
G1 X93.999 Y105.879 E52.01303
G1 X93.999 Y105.313 E52.04402
G1 X93.999 Y104.747 E52.07501
G1 X93.999 Y104.182 E52.10595
G1 X93.999 Y103.616 E52.13694
G1 X93.999 Y103.05 E52.16793
G1 X93.999 Y102.485 E52.19887
G1 X93.999 Y101.919 E52.22986
G1 X93.999 Y101.353 E52.26085
G1 X93.999 Y100.788 E52.29179
G1 X93.999 Y100.222 E52.32278
G1 X94.171 Y99.828 E52.34165
G0 F3600 X94.219 Y99.876
G0 X93.78 Y119.801
;TYPE:SKIN
G1 F1800 X94.197 Y120.218 E52.37107
G0 F3600 X125.779 Y120.122
G0 X125.827 Y120.17
G1 F1800 X125.999 Y119.776 E52.39
G1 X125.999 Y119.211 E52.42101
G1 X125.999 Y118.645 E52.45207
G1 X125.999 Y118.079 E52.48313
G1 X125.999 Y117.513 E52.51419
G1 X125.999 Y116.948 E52.5452
G1 X125.999 Y116.382 E52.57626
G1 X125.999 Y115.816 E52.60732
G1 X125.999 Y115.251 E52.63833
G1 X125.999 Y114.685 E52.66939
G1 X125.999 Y114.119 E52.70045
G1 X125.999 Y113.554 E52.73146
G1 X125.999 Y112.988 E52.76252
G1 X125.999 Y112.422 E52.79358
G1 X125.999 Y111.857 E52.82459
G1 X125.999 Y111.291 E52.85565
G1 X125.999 Y110.725 E52.88671
G1 X125.999 Y110.16 E52.91772
G1 X125.999 Y109.594 E52.94878
G1 X125.999 Y109.028 E52.97984
G1 X125.999 Y108.463 E53.01085
G1 X125.999 Y107.897 E53.04191
G1 X125.999 Y107.331 E53.07297
G1 X125.999 Y106.765 E53.10404
G1 X125.999 Y106.2 E53.13504
G1 X125.999 Y105.634 E53.1661
G1 X125.999 Y105.068 E53.19717
G1 X125.999 Y104.503 E53.22817
G1 X125.999 Y103.937 E53.25923
G1 X125.999 Y103.371 E53.2903
G1 X125.999 Y102.806 E53.3213
G1 X125.999 Y102.24 E53.35236
G1 X125.999 Y101.674 E53.38343
G1 X125.999 Y101.109 E53.41443
G1 X125.999 Y100.543 E53.44549
G1 X126.01 Y99.988 E53.47568
G0 F3600 X126 Y100.001
;TIME_ELAPSED:52.309937
;LAYER:1
M106 S255
G1 F1500 E46.97568
G0 F6300 X126 Y100.001 Z.5
G0 X125.64 Y101.401
G0 X124.1 Y101.401
;TYPE:SUPPORT
G1 F1500 E53.47568
G1 F3150 X124.1 Y118.599 E54.04769
G1 X124 Y118.599 E54.05101
G1 X124 Y101.401 E54.62302
G1 X124.1 Y101.401 E54.62635
G0 F6300 X124 Y101.401
G1 F3150 X120 Y101.401 E54.75939
G1 X120 Y118.599 E55.3314
G1 X116 Y118.599 E55.46444
G1 X116 Y101.401 E56.03645
G1 X113.884 Y101.401 E56.10682
G1 X114.662 Y102.071 E56.14097
G1 X115.032 Y102.963 E56.17309
G1 X115.467 Y104.565 E56.2283
G1 X115.244 Y105.057 E56.24627
G1 X112 Y106.668 E56.36674
G1 X112 Y118.599 E56.76357
G1 X108 Y118.599 E56.89661
G1 X108 Y101.401 E57.46861
G1 X104 Y101.401 E57.60165
G1 X104 Y118.599 E58.17366
G1 X100 Y118.599 E58.3067
G1 X100 Y101.401 E58.87871
G1 X96 Y101.401 E59.01175
G1 X96 Y118.599 E59.58376
G1 X95.9 Y118.599 E59.58709
G1 X95.9 Y101.401 E60.15909
G1 X96 Y101.401 E60.16242
G1 F1500 E53.66242
G0 F6300 X96 Y99.861
G0 X94.33 Y99.831
G0 X94.4 Y99.901
;TYPE:WALL-INNER
G1 F1500 E60.16242
G1 F3150 X94.4 Y120.099 E60.83421
G1 X125.6 Y120.099 E61.87192
G1 X125.6 Y99.901 E62.54371
G1 X94.4 Y99.901 E63.58143
G0 F6300 X94.4 Y99.601
G1 F3150 X125.6 Y99.601 E64.35971
G1 X126.4 Y99.601 E64.38632
G1 X126.4 Y120.399 E65.07807
G1 X125.6 Y120.399 E65.10468
G1 X94.4 Y120.399 E65.88296
G1 X93.6 Y120.399 E65.90957
G1 X93.6 Y99.601 E66.60131
G1 X94.4 Y99.601 E66.62792
G0 F6300 X94.4 Y99.701
G0 X94.3 Y100.301
G0 X94.8 Y100.301
;TYPE:WALL-OUTER
G1 F2025 X94.8 Y119.699 E67.2731
G1 X125.2 Y119.699 E68.28421
G1 X125.2 Y100.301 E68.92939
G1 X94.8 Y100.301 E69.9405
G0 F6300 X94.3 Y100.301
G0 X93.67 Y99.671
G0 X93.2 Y99.201
G1 F2025 X126.8 Y99.201 E71.05804
G1 X126.8 Y120.799 E71.77639
G1 X93.2 Y120.799 E72.89393
G1 X93.2 Y99.201 E73.61229
G0 F6300 X93.67 Y99.671
G0 X94.219 Y99.81
G0 X93.999 Y100.03
G1 F2025 X93.999 Y100.595 E73.63291
G1 X93.999 Y101.161 E73.65357
G1 X93.999 Y101.727 E73.67423
G1 X93.999 Y102.292 E73.69486
G1 X93.999 Y102.858 E73.71552
G1 X93.999 Y103.424 E73.73618
G1 X93.999 Y103.989 E73.7568
G1 X93.999 Y104.555 E73.77746
G1 X93.999 Y105.121 E73.79812
G1 X93.999 Y105.686 E73.81875
G1 X93.999 Y106.252 E73.83941
G1 X93.999 Y106.818 E73.86007
G1 X93.999 Y107.383 E73.88069
G1 X93.999 Y107.949 E73.90135
G1 X93.999 Y108.515 E73.92201
G1 X93.999 Y109.081 E73.94267
G1 X93.999 Y109.646 E73.9633
G1 X93.999 Y110.212 E73.98396
G1 X93.999 Y110.778 E74.00462
G1 X93.999 Y111.343 E74.02524
G1 X93.999 Y111.909 E74.0459
G1 X93.999 Y112.475 E74.06657
G1 X93.999 Y113.04 E74.08719
G1 X93.999 Y113.606 E74.10785
G1 X93.999 Y114.172 E74.12851
G1 X93.999 Y114.737 E74.14913
G1 X93.999 Y115.303 E74.1698
G1 X93.999 Y115.869 E74.19046
G1 X93.999 Y116.434 E74.21108
G1 X93.999 Y117 E74.23174
G1 X93.999 Y117.566 E74.2524
G1 X93.999 Y118.131 E74.27303
G1 X93.999 Y118.697 E74.29369
G1 X93.999 Y119.263 E74.31435
G1 X93.999 Y119.829 E74.33501
G0 F6300 X93.78 Y120.049
G0 X94.372 Y99.873
G0 X125.628 Y99.873
G0 X125.779 Y119.728
G0 X125.999 Y119.508
G1 F2025 X125.999 Y118.942 E74.35572
G1 X125.999 Y118.376 E74.37642
G1 X125.999 Y117.81 E74.39713
G1 X125.999 Y117.245 E74.4178
G1 X125.999 Y116.679 E74.43851
G1 X125.999 Y116.113 E74.45922
G1 X125.999 Y115.548 E74.47989
G1 X125.999 Y114.982 E74.5006
G1 X125.999 Y114.416 E74.5213
G1 X125.999 Y113.851 E74.54198
G1 X125.999 Y113.285 E74.56268
G1 X125.999 Y112.719 E74.58339
G1 X125.999 Y112.154 E74.60406
G1 X125.999 Y111.588 E74.62477
G1 X125.999 Y111.022 E74.64548
G1 X125.999 Y110.457 E74.66615
G1 X125.999 Y109.891 E74.68686
G1 X125.999 Y109.325 E74.70756
G1 X125.999 Y108.76 E74.72824
G1 X125.999 Y108.194 E74.74894
G1 X125.999 Y107.628 E74.76965
G1 X125.999 Y107.062 E74.79036
G1 X125.999 Y106.497 E74.81103
G1 X125.999 Y105.931 E74.83174
G1 X125.999 Y105.365 E74.85245
G1 X125.999 Y104.8 E74.87312
G1 X125.999 Y104.234 E74.89382
G1 X125.999 Y103.668 E74.91453
G1 X125.999 Y103.103 E74.9352
G1 X125.999 Y102.537 E74.95591
G1 X125.999 Y101.971 E74.97662
G1 X125.999 Y101.406 E74.99729
G1 X125.999 Y100.84 E75.018
G1 X125.999 Y100.274 E75.03871
G1 X125.853 Y99.854 E75.05253
G0 F6300 X125.779 Y99.929
G0 X126.219 Y119.853
;TYPE:SKIN
G1 F2025 X125.854 Y120.218 E75.0697
G0 F6300 X126 Y119.999
;TIME_ELAPSED:69.819616
;LAYER:2
G1 F1500 E68.5697
G0 F9000 X126 Y119.999 Z.7
G0 X125.64 Y118.599
G0 X124.1 Y118.599
;TYPE:SUPPORT
G1 F1500 E75.0697
G1 F4500 X124 Y118.599 E75.07303
G1 X124 Y101.401 E75.64504
G1 X124.1 Y101.401 E75.64836
G1 X124.1 Y118.599 E76.22037
G0 F9000 X120 Y118.599
G1 F4500 X120 Y101.401 E76.79238
G1 X124 Y101.401 E76.92542
G0 F9000 X116 Y101.401
G1 F4500 X113.884 Y101.401 E76.9958
G1 X114.664 Y102.073 E77.03004
G1 X115.031 Y102.959 E77.06194
G1 X115.463 Y104.566 E77.11728
G1 X115.239 Y105.059 E77.13529
G1 X112 Y106.67 E77.25561
G1 X112 Y118.599 E77.65237
G1 X108 Y118.599 E77.78541
G1 X108 Y105.548 E78.21949
G0 F9000 X107.995 Y105.546
G1 F4500 X107.965 Y104.969 E78.23871
G1 X108 Y104.898 E78.24134
G1 X109.197 Y102.45 E78.33197
G1 X109.327 Y102.234 E78.34036
G1 X109.543 Y101.947 E78.35231
G1 X109.807 Y101.662 E78.36523
G1 X110.078 Y101.438 E78.37692
G1 X110.135 Y101.401 E78.37918
G1 X108 Y101.401 E78.45019
G1 X108 Y104.898 E78.5665
G0 F9000 X107.995 Y105.546
G1 F4500 X108 Y105.548 E78.56668
G0 F9000 X108 Y101.401
G1 F4500 X104 Y101.401 E78.69972
G1 X104 Y118.599 E79.27173
G1 X100 Y118.599 E79.40477
G1 X100 Y101.401 E79.97678
G1 X96 Y101.401 E80.10982
G1 X96 Y118.599 E80.68183
G1 X95.9 Y118.599 E80.68515
G1 X95.9 Y101.401 E81.25716
G1 X96 Y101.401 E81.26049
G0 F9000 X116 Y101.401
G1 F4500 X116 Y118.599 E81.83249
G1 X120 Y118.599 E81.96554
G1 F1500 E75.46554
G0 F9000 X120 Y120.139
G0 X125.67 Y120.169
G0 X125.6 Y120.099
;TYPE:WALL-INNER
G1 F1500 E81.96554
G1 F4500 X125.6 Y99.901 E82.63732
G1 X94.4 Y99.901 E83.67504
G1 X94.4 Y120.099 E84.34683
G1 X125.6 Y120.099 E85.38454
G0 F9000 X125.6 Y120.399
G1 F4500 X94.4 Y120.399 E86.16283
G1 X93.6 Y120.399 E86.18944
G1 X93.6 Y99.601 E86.88118
G1 X94.4 Y99.601 E86.90779
G1 X125.6 Y99.601 E87.68608
G1 X126.4 Y99.601 E87.71269
G1 X126.4 Y120.399 E88.40443
G1 X125.6 Y120.399 E88.43104
G0 F9000 X125.6 Y120.299
G0 X125.2 Y120.199
G0 X125.2 Y119.699
;TYPE:WALL-OUTER
G1 F2250 X125.2 Y100.301 E89.07622
G1 X94.8 Y100.301 E90.08733
G1 X94.8 Y119.699 E90.73251
G1 X125.2 Y119.699 E91.74362
G0 F9000 X125.2 Y120.199
G0 X126.33 Y120.329
G0 X126.8 Y120.799
G1 F2250 X93.2 Y120.799 E92.86116
G1 X93.2 Y99.201 E93.57951
G1 X126.8 Y99.201 E94.69705
G1 X126.8 Y120.799 E95.4154
G0 F9000 X126.33 Y120.329
G0 X94.372 Y120.127
G0 X94.219 Y119.675
G0 X93.999 Y119.455
G1 F2250 X93.999 Y118.89 E95.43603
G1 X93.999 Y118.324 E95.45669
G1 X93.999 Y117.758 E95.47735
G1 X93.999 Y117.192 E95.49801
G1 X93.999 Y116.627 E95.51863
G1 X93.999 Y116.061 E95.53929
G1 X93.999 Y115.495 E95.55995
G1 X93.999 Y114.93 E95.58058
G1 X93.999 Y114.364 E95.60124
G1 X93.999 Y113.798 E95.6219
G1 X93.999 Y113.233 E95.64252
G1 X93.999 Y112.667 E95.66318
G1 X93.999 Y112.101 E95.68384
G1 X93.999 Y111.536 E95.70447
G1 X93.999 Y110.97 E95.72513
G1 X93.999 Y110.404 E95.74579
G1 X93.999 Y109.839 E95.76641
G1 X93.999 Y109.273 E95.78708
G1 X93.999 Y108.707 E95.80774
G1 X93.999 Y108.141 E95.8284
G1 X93.999 Y107.576 E95.84902
G1 X93.999 Y107.01 E95.86968
G1 X93.999 Y106.444 E95.89034
G1 X93.999 Y105.879 E95.91097
G1 X93.999 Y105.313 E95.93163
G1 X93.999 Y104.747 E95.95229
G1 X93.999 Y104.182 E95.97291
G1 X93.999 Y103.616 E95.99357
