;FLAVOR:RepRap
;TIME:24766
;Generated with Cura_SteamEngine 2.3.1
M190 S60
M104 S210
M109 S210
G28 ;Home
G1 Z15.0 F6000 ;Move the platform down 15mm
;Prime the extruder
G92 E0
G1 F200 E3
G92 E0
;LAYER_COUNT:95
;LAYER:0
M107
G1 F1500 E-6.5
G0 F5400 X54.256 Y62.201 Z.3
;TYPE:SKIRT
G1 F1500 E0
G1 F900 X54.698 Y61.898 E0.02674
G1 X55.181 Y61.663 E0.05353
G1 X55.692 Y61.503 E0.08025
G1 X56.222 Y61.42 E0.10701
G1 X56.509 Y61.409 E0.12134
G1 X163.491 Y61.41 E5.45869
G1 X164.026 Y61.45 E5.48546
G1 X164.549 Y61.569 E5.51222
G1 X165.048 Y61.764 E5.53895
G1 X165.513 Y62.032 E5.56572
G1 X165.933 Y62.365 E5.59247
G1 X166.299 Y62.757 E5.61922
G1 X166.602 Y63.199 E5.64596
G1 X166.837 Y63.682 E5.67275
G1 X166.997 Y64.193 E5.69947
G1 X167.08 Y64.723 E5.72623
G1 X167.091 Y65.01 E5.74056
G1 X167.091 Y154.991 E10.22973
G1 X167.051 Y155.526 E10.2565
G1 X166.932 Y156.049 E10.28326
G1 X166.737 Y156.548 E10.30999
G1 X166.469 Y157.013 E10.33676
G1 X166.136 Y157.433 E10.3635
G1 X165.744 Y157.799 E10.39026
G1 X165.302 Y158.102 E10.41699
G1 X164.819 Y158.337 E10.44379
G1 X164.308 Y158.497 E10.47051
G1 X163.778 Y158.58 E10.49727
G1 X163.491 Y158.591 E10.5116
G1 X56.509 Y158.591 E15.84895
G1 X55.974 Y158.551 E15.87572
G1 X55.451 Y158.432 E15.90248
G1 X54.952 Y158.237 E15.92921
G1 X54.487 Y157.969 E15.95598
G1 X54.067 Y157.636 E15.98272
G1 X53.701 Y157.244 E16.00948
G1 X53.398 Y156.802 E16.03622
G1 X53.163 Y156.319 E16.06301
G1 X53.003 Y155.808 E16.08973
G1 X52.92 Y155.278 E16.11649
G1 X52.909 Y154.991 E16.13082
G1 X52.909 Y65.009 E20.62004
G1 X52.949 Y64.474 E20.64681
G1 X53.068 Y63.951 E20.67357
G1 X53.263 Y63.452 E20.7003
G1 X53.531 Y62.987 E20.72707
G1 X53.864 Y62.567 E20.75381
G1 X54.256 Y62.201 E20.78057
G0 F5400 X54.645 Y62.408
G1 F900 X55.078 Y62.147 E20.80579
G1 X55.546 Y61.957 E20.83099
G1 X56.039 Y61.844 E20.85623
G1 X56.509 Y61.809 E20.87974
G1 X163.491 Y61.81 E26.21709
G1 X163.995 Y61.85 E26.24232
G1 X164.486 Y61.969 E26.26752
G1 X164.953 Y62.163 E26.29275
G1 X165.383 Y62.429 E26.31798
G1 X165.766 Y62.759 E26.3432
G1 X166.092 Y63.146 E26.36844
G1 X166.353 Y63.579 E26.39367
G1 X166.543 Y64.047 E26.41887
G1 X166.656 Y64.54 E26.4441
G1 X166.691 Y65.01 E26.46761
G1 X166.691 Y154.991 E30.95678
G1 X166.651 Y155.495 E30.98201
G1 X166.532 Y155.986 E31.00721
G1 X166.338 Y156.453 E31.03244
G1 X166.072 Y156.883 E31.05767
G1 X165.742 Y157.266 E31.08289
G1 X165.355 Y157.592 E31.10813
G1 X164.922 Y157.853 E31.13336
G1 X164.454 Y158.043 E31.15856
G1 X163.961 Y158.156 E31.18379
G1 X163.491 Y158.191 E31.2073
G1 X56.509 Y158.191 E36.54466
G1 X56.005 Y158.151 E36.56988
G1 X55.514 Y158.032 E36.59509
G1 X55.047 Y157.838 E36.62032
G1 X54.617 Y157.572 E36.64554
G1 X54.234 Y157.242 E36.67076
G1 X53.908 Y156.855 E36.69601
G1 X53.647 Y156.422 E36.72123
G1 X53.457 Y155.954 E36.74643
G1 X53.344 Y155.461 E36.77167
G1 X53.309 Y154.991 E36.79518
G1 X53.309 Y65.009 E41.2844
G1 X53.349 Y64.505 E41.30962
G1 X53.468 Y64.014 E41.33483
G1 X53.662 Y63.547 E41.36006
G1 X53.928 Y63.117 E41.38528
G1 X54.258 Y62.734 E41.41051
G1 X54.645 Y62.408 E41.43575
G1 F1500 E34.93575
G0 F5400 X57.128 Y64.335
G0 X57.128 Y65.628
G0 X57.17 Y65.67
G0 X57.1 Y65.6
;TYPE:WALL-INNER
G1 F1500 E41.43575
G1 F900 X162.9 Y65.6 E46.71413
G1 X162.9 Y154.4 E51.14438
G1 X57.1 Y154.4 E56.42277
G1 X57.1 Y65.6 E60.85302
G0 F5400 X56.7 Y65.2
;TYPE:WALL-OUTER
G1 F900 X163.3 Y65.2 E66.17131
G1 X163.3 Y154.8 E70.64147
G1 X56.7 Y154.8 E75.95977
G1 X56.7 Y65.2 E80.42993
G0 F5400 X57.17 Y65.67
G0 X57.294 Y65.78
;TYPE:SKIN
G1 F900 X145.734 Y154.219 E86.66982
G0 X145.804 Y154.289
G0 F5400 X146.299 Y154.219
G1 F900 X57.86 Y65.78 E92.90967
G0 X57.79 Y65.71
G0 F5400 X58.426 Y65.78
G1 F900 X146.865 Y154.219 E99.14952
G0 X146.935 Y154.289
G0 F5400 X147.431 Y154.219
G1 F900 X58.991 Y65.78 E105.3894
G0 X58.921 Y65.71
G0 F5400 X59.557 Y65.78
G1 F900 X147.996 Y154.219 E111.62925
G0 X148.066 Y154.289
G0 F5400 X148.562 Y154.219
G1 F900 X60.123 Y65.78 E117.8691
G0 X60.053 Y65.71
G0 F5400 X60.688 Y65.78
G1 F900 X149.128 Y154.219 E124.10898
G0 X149.198 Y154.289
G0 F5400 X149.693 Y154.219
G1 F900 X61.254 Y65.78 E130.34883
G0 X61.184 Y65.71
G0 F5400 X61.82 Y65.78
G1 F900 X150.259 Y154.219 E136.58868
G0 X150.329 Y154.289
G0 F5400 X150.825 Y154.219
G1 F900 X62.385 Y65.78 E142.82856
G0 X62.315 Y65.71
G0 F5400 X62.951 Y65.78
G1 F900 X151.39 Y154.219 E149.06841
G0 X151.46 Y154.289
G0 F5400 X151.956 Y154.219
G1 F900 X63.517 Y65.78 E155.30826
G0 X63.447 Y65.71
G0 F5400 X64.082 Y65.78
G1 F900 X152.522 Y154.219 E161.54815
G0 X152.592 Y154.289
G0 F5400 X153.087 Y154.219
G1 F900 X64.648 Y65.78 E167.788
G0 X64.578 Y65.71
G0 F5400 X65.214 Y65.78
G1 F900 X153.653 Y154.219 E174.02785
G0 X153.723 Y154.289
G0 F5400 X154.219 Y154.219
G1 F900 X65.78 Y65.78 E180.26769
G0 X65.71 Y65.71
G0 F5400 X66.345 Y65.78
G1 F900 X154.784 Y154.219 E186.50754
G0 X154.854 Y154.289
G0 F5400 X155.35 Y154.219
G1 F900 X66.911 Y65.78 E192.74739
G0 X66.841 Y65.71
G0 F5400 X67.477 Y65.78
G1 F900 X155.916 Y154.219 E198.98724
G0 X155.986 Y154.289
G0 F5400 X156.482 Y154.219
G1 F900 X68.042 Y65.78 E205.22713
G0 X67.972 Y65.71
G0 F5400 X68.608 Y65.78
G1 F900 X157.047 Y154.219 E211.46698
G0 X157.117 Y154.289
G0 F5400 X157.613 Y154.219
G1 F900 X69.174 Y65.78 E217.70682
G0 X69.104 Y65.71
G0 F5400 X69.739 Y65.78
G1 F900 X158.179 Y154.219 E223.94671
G0 X158.249 Y154.289
G0 F5400 X158.744 Y154.219
G1 F900 X70.305 Y65.78 E230.18656
G0 X70.235 Y65.71
G0 F5400 X70.871 Y65.78
G1 F900 X159.31 Y154.219 E236.42641
G0 X159.38 Y154.289
G0 F5400 X159.876 Y154.219
G1 F900 X71.436 Y65.78 E242.66629
G0 X71.366 Y65.71
G0 F5400 X72.002 Y65.78
G1 F900 X160.441 Y154.219 E248.90614
G0 X160.511 Y154.289
G0 F5400 X161.007 Y154.219
G1 F900 X72.568 Y65.78 E255.14599
G0 X72.498 Y65.71
G0 F5400 X73.133 Y65.78
G1 F900 X161.573 Y154.219 E261.38587
G0 X161.643 Y154.289
G0 F5400 X162.138 Y154.219
G1 F900 X73.699 Y65.78 E267.62572
G0 X73.629 Y65.71
G0 F5400 X74.265 Y65.78
G1 F900 X162.704 Y154.219 E273.86557
G0 X162.774 Y154.289
G0 F5400 X162.719 Y153.668
G1 F900 X74.83 Y65.78 E280.06658
G0 X74.76 Y65.71
G0 F5400 X75.396 Y65.78
G1 F900 X162.719 Y153.102 E286.22766
G0 X162.789 Y153.172
G0 F5400 X162.719 Y152.537
G1 F900 X75.962 Y65.78 E292.34883
G0 X75.892 Y65.71
G0 F5400 X76.528 Y65.78
G1 F900 X162.719 Y151.971 E298.43007
G0 X162.789 Y152.041
G0 F5400 X162.719 Y151.405
G1 F900 X77.093 Y65.78 E304.47141
G0 X77.023 Y65.71
G0 F5400 X77.659 Y65.78
G1 F900 X162.719 Y150.84 E310.47285
G0 X162.789 Y150.91
G0 F5400 X162.719 Y150.274
G1 F900 X78.225 Y65.78 E316.43436
G0 X78.155 Y65.71
G0 F5400 X78.79 Y65.78
G1 F900 X162.719 Y149.708 E322.35597
G0 X162.789 Y149.778
G0 F5400 X162.719 Y149.142
G1 F900 X79.356 Y65.78 E328.23765
G0 X79.286 Y65.71
G0 F5400 X79.922 Y65.78
G1 F900 X162.719 Y148.577 E334.07942
G0 X162.789 Y148.647
G0 F5400 X162.719 Y148.011
G1 F900 X80.487 Y65.78 E339.8813
G0 X80.417 Y65.71
G0 F5400 X81.053 Y65.78
G1 F900 X162.719 Y147.445 E345.64324
G0 X162.789 Y147.515
G0 F5400 X162.719 Y146.88
G1 F900 X81.619 Y65.78 E351.36528
G0 X81.549 Y65.71
G0 F5400 X82.184 Y65.78
G1 F900 X162.719 Y146.314 E357.04743
G0 X162.789 Y146.384
G0 F5400 X162.719 Y145.748
G1 F900 X82.75 Y65.78 E362.68964
G0 X82.68 Y65.71
G0 F5400 X83.316 Y65.78
G1 F900 X162.719 Y145.183 E368.29195
G0 X162.789 Y145.253
G0 F5400 X162.719 Y144.617
G1 F900 X83.881 Y65.78 E373.85436
G0 X83.811 Y65.71
G0 F5400 X84.447 Y65.78
G1 F900 X162.719 Y144.051 E379.37684
G0 X162.789 Y144.121
G0 F5400 X162.719 Y143.486
G1 F900 X85.013 Y65.78 E384.85941
G0 X84.943 Y65.71
G0 F5400 X85.579 Y65.78
G1 F900 X162.719 Y142.92 E390.30206
G0 X162.789 Y142.99
G0 F5400 X162.719 Y142.354
G1 F900 X86.144 Y65.78 E395.7048
G0 X86.074 Y65.71
G0 F5400 X86.71 Y65.78
G1 F900 X162.719 Y141.789 E401.06765
G0 X162.789 Y141.859
G0 F5400 X162.719 Y141.223
G1 F900 X87.276 Y65.78 E406.39056
G0 X87.206 Y65.71
G0 F5400 X87.841 Y65.78
G1 F900 X162.719 Y140.657 E411.67357
G0 X162.789 Y140.727
G0 F5400 X162.719 Y140.091
G1 F900 X88.407 Y65.78 E416.91665
G0 X88.337 Y65.71
G0 F5400 X88.973 Y65.78
G1 F900 X162.719 Y139.526 E422.11983
G0 X162.789 Y139.596
G0 F5400 X162.719 Y138.96
G1 F900 X89.538 Y65.78 E427.28311
G0 X89.468 Y65.71
G0 F5400 X90.104 Y65.78
G1 F900 X162.719 Y138.394 E432.40645
G0 X162.789 Y138.464
G0 F5400 X162.719 Y137.829
G1 F900 X90.67 Y65.78 E437.4899
G0 X90.6 Y65.71
G0 F5400 X91.235 Y65.78
G1 F900 X162.719 Y137.263 E442.53344
G0 X162.789 Y137.333
G0 F5400 X162.719 Y136.697
G1 F900 X91.801 Y65.78 E447.53706
G0 X91.731 Y65.71
G0 F5400 X92.367 Y65.78
G1 F900 X162.719 Y136.132 E452.50077
G0 X162.789 Y136.202
G0 F5400 X162.719 Y135.566
G1 F900 X92.932 Y65.78 E457.42459
G0 X92.862 Y65.71
G0 F5400 X93.498 Y65.78
G1 F900 X162.719 Y135 E462.30847
G0 X162.789 Y135.07
G0 F5400 X162.719 Y134.435
G1 F900 X94.064 Y65.78 E467.15245
G0 X93.994 Y65.71
G0 F5400 X94.629 Y65.78
G1 F900 X162.719 Y133.869 E471.95653
G0 X162.789 Y133.939
G0 F5400 X162.719 Y133.303
G1 F900 X95.195 Y65.78 E476.72068
G0 X95.125 Y65.71
G0 F5400 X95.761 Y65.78
G1 F900 X162.719 Y132.738 E481.44493
G0 X162.789 Y132.808
G0 F5400 X162.719 Y132.172
G1 F900 X96.327 Y65.78 E486.12924
G0 X96.257 Y65.71
G0 F5400 X96.892 Y65.78
G1 F900 X162.719 Y131.606 E490.77365
G0 X162.789 Y131.676
G0 F5400 X162.719 Y131.041
G1 F900 X97.458 Y65.78 E495.37817
G0 X97.388 Y65.71
G0 F5400 X98.024 Y65.78
G1 F900 X162.719 Y130.475 E499.94275
G0 X162.789 Y130.545
G0 F5400 X162.719 Y129.909
G1 F900 X98.589 Y65.78 E504.46743
G0 X98.519 Y65.71
G0 F5400 X99.155 Y65.78
G1 F900 X162.719 Y129.343 E508.95218
G0 X162.789 Y129.413
G0 F5400 X162.719 Y128.778
G1 F900 X99.721 Y65.78 E513.39703
G0 X99.651 Y65.71
G0 F5400 X100.286 Y65.78
G1 F900 X162.719 Y128.212 E517.80198
G0 X162.789 Y128.282
G0 F5400 X162.719 Y127.646
G1 F900 X100.852 Y65.78 E522.167
G0 X100.782 Y65.71
G0 F5400 X101.418 Y65.78
G1 F900 X162.719 Y127.081 E526.49211
G0 X162.789 Y127.151
G0 F5400 X162.719 Y126.515
G1 F900 X101.983 Y65.78 E530.77733
G0 X101.913 Y65.71
G0 F5400 X102.549 Y65.78
G1 F900 X162.719 Y125.949 E535.02262
G0 X162.789 Y126.019
G0 F5400 X162.719 Y125.384
G1 F900 X103.115 Y65.78 E539.228
G0 X103.045 Y65.71
G0 F5400 X103.68 Y65.78
G1 F900 X162.719 Y124.818 E543.39348
G0 X162.789 Y124.888
G0 F5400 X162.719 Y124.252
G1 F900 X104.246 Y65.78 E547.51904
G0 X104.176 Y65.71
G0 F5400 X104.812 Y65.78
G1 F900 X162.719 Y123.687 E551.60469
G0 X162.789 Y123.757
G0 F5400 X162.719 Y123.121
G1 F900 X105.378 Y65.78 E555.6504
G0 X105.308 Y65.71
G0 F5400 X105.943 Y65.78
G1 F900 X162.719 Y122.555 E559.65622
G0 X162.789 Y122.625
G0 F5400 X162.719 Y121.99
G1 F900 X106.509 Y65.78 E563.62214
G0 X106.439 Y65.71
G0 F5400 X107.075 Y65.78
G1 F900 X162.719 Y121.424 E567.54813
G0 X162.789 Y121.494
G0 F5400 X162.719 Y120.858
G1 F900 X107.64 Y65.78 E571.43421
G0 X107.57 Y65.71
G0 F5400 X108.206 Y65.78
G1 F900 X162.719 Y120.293 E575.2804
G0 X162.789 Y120.363
G0 F5400 X162.719 Y119.727
G1 F900 X108.772 Y65.78 E579.08665
G0 X108.702 Y65.71
G0 F5400 X109.337 Y65.78
G1 F900 X162.719 Y119.161 E582.853
G0 X162.789 Y119.231
G0 F5400 X162.719 Y118.595
G1 F900 X109.903 Y65.78 E586.57942
G0 X109.833 Y65.71
G0 F5400 X110.469 Y65.78
G1 F900 X162.719 Y118.03 E590.26594
G0 X162.789 Y118.1
G0 F5400 X162.719 Y117.464
G1 F900 X111.034 Y65.78 E593.91256
G0 X110.964 Y65.71
G0 F5400 X111.6 Y65.78
G1 F900 X162.719 Y116.898 E597.51925
G0 X162.789 Y116.968
G0 F5400 X162.719 Y116.333
G1 F900 X112.166 Y65.78 E601.08604
G0 X112.096 Y65.71
G0 F5400 X112.731 Y65.78
G1 F900 X162.719 Y115.767 E604.61292
G0 X162.789 Y115.837
G0 F5400 X162.719 Y115.201
G1 F900 X113.297 Y65.78 E608.09988
G0 X113.227 Y65.71
G0 F5400 X113.863 Y65.78
G1 F900 X162.719 Y114.636 E611.54693
G0 X162.789 Y114.706
G0 F5400 X162.719 Y114.07
G1 F900 X114.428 Y65.78 E614.95409
G0 X114.358 Y65.71
G0 F5400 X114.994 Y65.78
G1 F900 X162.719 Y113.504 E618.32131
G0 X162.789 Y113.574
G0 F5400 X162.719 Y112.939
G1 F900 X115.56 Y65.78 E621.64863
G0 X115.49 Y65.71
G0 F5400 X116.126 Y65.78
G1 F900 X162.719 Y112.373 E624.93602
G0 X162.789 Y112.443
G0 F5400 X162.719 Y111.807
G1 F900 X116.691 Y65.78 E628.18351
G0 X116.621 Y65.71
G0 F5400 X117.257 Y65.78
G1 F900 X162.719 Y111.242 E631.3911
G0 X162.789 Y111.312
G0 F5400 X162.719 Y110.676
G1 F900 X117.823 Y65.78 E634.55875
G0 X117.753 Y65.71
G0 F5400 X118.388 Y65.78
G1 F900 X162.719 Y110.11 E637.68651
G0 X162.789 Y110.18
G0 F5400 X162.719 Y109.544
G1 F900 X118.954 Y65.78 E640.77433
G0 X118.884 Y65.71
G0 F5400 X119.52 Y65.78
G1 F900 X162.719 Y108.979 E643.82225
G0 X162.789 Y109.049
G0 F5400 X162.719 Y108.413
G1 F900 X120.085 Y65.78 E646.83028
G0 X120.015 Y65.71
G0 F5400 X120.651 Y65.78
G1 F900 X162.719 Y107.847 E649.79837
G0 X162.789 Y107.917
G0 F5400 X162.719 Y107.282
G1 F900 X121.217 Y65.78 E652.72656
G0 X121.147 Y65.71
G0 F5400 X121.782 Y65.78
G1 F900 X162.719 Y106.716 E655.61485
G0 X162.789 Y106.786
G0 F5400 X162.719 Y106.15
G1 F900 X122.348 Y65.78 E658.46321
G0 X122.278 Y65.71
G0 F5400 X122.914 Y65.78
G1 F900 X162.719 Y105.585 E661.27166
G0 X162.789 Y105.655
G0 F5400 X162.719 Y105.019
G1 F900 X123.479 Y65.78 E664.04022
G0 X123.409 Y65.71
G0 F5400 X124.045 Y65.78
G1 F900 X162.719 Y104.453 E666.76885
G0 X162.789 Y104.523
G0 F5400 X162.719 Y103.888
G1 F900 X124.611 Y65.78 E669.45757
G0 X124.541 Y65.71
G0 F5400 X125.176 Y65.78
G1 F900 X162.719 Y103.322 E672.1064
G0 X162.789 Y103.392
G0 F5400 X162.719 Y102.756
G1 F900 X125.742 Y65.78 E674.71529
G0 X125.672 Y65.71
G0 F5400 X126.308 Y65.78
G1 F900 X162.719 Y102.191 E677.28428
G0 X162.789 Y102.261
G0 F5400 X162.719 Y101.625
G1 F900 X126.874 Y65.78 E679.81334
G0 X126.804 Y65.71
G0 F5400 X127.439 Y65.78
G1 F900 X162.719 Y101.059 E682.3025
G0 X162.789 Y101.129
G0 F5400 X162.719 Y100.494
G1 F900 X128.005 Y65.78 E684.75176
G0 X127.935 Y65.71
G0 F5400 X128.571 Y65.78
G1 F900 X162.719 Y99.928 E687.16109
G0 X162.789 Y99.998
G0 F5400 X162.719 Y99.362
G1 F900 X129.136 Y65.78 E689.53051
G0 X129.066 Y65.71
G0 F5400 X129.702 Y65.78
G1 F900 X162.719 Y98.796 E691.86
G0 X162.789 Y98.866
G0 F5400 X162.719 Y98.231
G1 F900 X130.268 Y65.78 E694.1496
G0 X130.198 Y65.71
G0 F5400 X130.833 Y65.78
G1 F900 X162.719 Y97.665 E696.39929
G0 X162.789 Y97.735
G0 F5400 X162.719 Y97.099
G1 F900 X131.399 Y65.78 E698.60905
G0 X131.329 Y65.71
G0 F5400 X131.965 Y65.78
G1 F900 X162.719 Y96.534 E700.77891
G0 X162.789 Y96.604
G0 F5400 X162.719 Y95.968
G1 F900 X132.53 Y65.78 E702.90887
G0 X132.46 Y65.71
G0 F5400 X133.096 Y65.78
G1 F900 X162.719 Y95.402 E704.9989
G0 X162.789 Y95.472
G0 F5400 X162.719 Y94.837
G1 F900 X133.662 Y65.78 E707.04903
G0 X133.592 Y65.71
G0 F5400 X134.227 Y65.78
G1 F900 X162.719 Y94.271 E709.05926
G0 X162.789 Y94.341
G0 F5400 X162.719 Y93.705
G1 F900 X134.793 Y65.78 E711.02955
G0 X134.723 Y65.71
G0 F5400 X135.359 Y65.78
G1 F900 X162.719 Y93.14 E712.95995
G0 X162.789 Y93.21
G0 F5400 X162.719 Y92.574
G1 F900 X135.925 Y65.78 E714.85041
G0 X135.855 Y65.71
G0 F5400 X136.49 Y65.78
G1 F900 X162.719 Y92.008 E716.70097
G0 X162.789 Y92.078
G0 F5400 X162.719 Y91.443
G1 F900 X137.056 Y65.78 E718.51164
G0 X136.986 Y65.71
G0 F5400 X137.622 Y65.78
G1 F900 X162.719 Y90.877 E720.28237
G0 X162.789 Y90.947
G0 F5400 X162.719 Y90.311
G1 F900 X138.187 Y65.78 E722.0132
G0 X138.117 Y65.71
G0 F5400 X138.753 Y65.78
G1 F900 X162.719 Y89.745 E723.70409
G0 X162.789 Y89.815
G0 F5400 X162.719 Y89.18
G1 F900 X139.319 Y65.78 E725.35509
G0 X139.249 Y65.71
G0 F5400 X139.884 Y65.78
G1 F900 X162.719 Y88.614 E726.96619
G0 X162.789 Y88.684
G0 F5400 X162.719 Y88.048
G1 F900 X140.45 Y65.78 E728.53735
G0 X140.38 Y65.71
G0 F5400 X141.016 Y65.78
G1 F900 X162.719 Y87.483 E730.06861
G0 X162.789 Y87.553
G0 F5400 X162.719 Y86.917
G1 F900 X141.581 Y65.78 E731.55998
G0 X141.511 Y65.71
G0 F5400 X142.147 Y65.78
G1 F900 X162.719 Y86.351 E733.01141
G0 X162.789 Y86.421
G0 F5400 X162.719 Y85.786
G1 F900 X142.713 Y65.78 E734.42294
G0 X142.643 Y65.71
G0 F5400 X143.278 Y65.78
G1 F900 X162.719 Y85.22 E735.79457
G0 X162.789 Y85.29
G0 F5400 X162.719 Y84.654
G1 F900 X143.844 Y65.78 E737.12627
G0 X143.774 Y65.71
G0 F5400 X144.41 Y65.78
G1 F900 X162.719 Y84.089 E738.41807
G0 X162.789 Y84.159
G0 F5400 X162.719 Y83.523
G1 F900 X144.975 Y65.78 E739.66997
