;FLAVOR:RepRap
;TIME:24916
;Generated with Cura_SteamEngine 2.3.1
M190 S60
M104 S210
M109 S210
G28 ;Home
G1 Z15.0 F6000 ;Move the platform down 15mm
;Prime the extruder
G92 E0
G1 F200 E3
G92 E0
;LAYER_COUNT:95
;LAYER:0
M107
G1 F1500 E-6.5
G0 F5400 X54.258 Y62.2 Z.3
;TYPE:SKIRT
G1 F1500 E0
G1 F900 X54.701 Y61.897 E0.02678
G1 X55.183 Y61.662 E0.05353
G1 X55.695 Y61.502 E0.08029
G1 X56.225 Y61.42 E0.10705
G1 X56.51 Y61.409 E0.12128
G1 X128.891 Y61.4 E3.73238
G1 X134.439 Y61.243 E4.00928
G1 X138.175 Y60.976 E4.19615
G1 X138.612 Y60.972 E4.21795
G1 X141.772 Y61.131 E4.3758
G1 X147.293 Y61.212 E4.65128
G1 X153.658 Y60.976 E4.96905
G1 X154.032 Y60.982 E4.98771
G1 X158.988 Y61.314 E5.23552
G1 X162.163 Y61.382 E5.39395
G1 X163.565 Y61.411 E5.46392
G1 X164.099 Y61.462 E5.49068
G1 X164.62 Y61.591 E5.51746
G1 X165.115 Y61.797 E5.5442
G1 X165.574 Y62.074 E5.57095
G1 X165.987 Y62.416 E5.5977
G1 X166.345 Y62.816 E5.62448
G1 X166.639 Y63.264 E5.65122
G1 X166.864 Y63.751 E5.67798
G1 X167.013 Y64.266 E5.70473
G1 X167.091 Y65.01 E5.74205
G1 X167.091 Y154.991 E10.23122
G1 X167.051 Y155.526 E10.25799
G1 X166.932 Y156.049 E10.28475
G1 X166.737 Y156.548 E10.31148
G1 X166.469 Y157.013 E10.33825
G1 X166.136 Y157.433 E10.36499
G1 X165.744 Y157.799 E10.39175
G1 X165.302 Y158.102 E10.41848
G1 X164.819 Y158.337 E10.44528
G1 X164.308 Y158.497 E10.472
G1 X163.778 Y158.58 E10.49876
G1 X163.491 Y158.591 E10.51309
G1 X56.509 Y158.591 E15.85044
G1 X55.974 Y158.551 E15.87721
G1 X55.451 Y158.432 E15.90397
G1 X54.952 Y158.237 E15.9307
G1 X54.487 Y157.969 E15.95747
G1 X54.067 Y157.636 E15.98421
G1 X53.701 Y157.244 E16.01097
G1 X53.398 Y156.802 E16.03771
G1 X53.163 Y156.319 E16.0645
G1 X53.003 Y155.808 E16.09122
G1 X52.92 Y155.278 E16.11798
G1 X52.909 Y154.992 E16.13226
G1 X52.9 Y110.609 E18.34654
G1 X52.743 Y105.062 E18.62339
G1 X52.476 Y101.333 E18.80991
G1 X52.467 Y101.071 E18.82299
G1 X52.474 Y95.705 E19.0907
G1 X52.482 Y95.47 E19.10243
G1 X52.814 Y90.513 E19.35029
G1 X52.9 Y86.429 E19.55408
G1 X52.91 Y65.007 E20.62283
G1 X52.95 Y64.473 E20.64955
G1 X53.069 Y63.95 E20.67631
G1 X53.265 Y63.45 E20.7031
G1 X53.532 Y62.986 E20.72981
G1 X53.866 Y62.566 E20.75658
G1 X54.258 Y62.2 E20.78334
G0 F5400 X54.647 Y62.407
G1 F900 X55.08 Y62.146 E20.80856
G1 X55.549 Y61.957 E20.83379
G1 X56.042 Y61.843 E20.85903
G1 X56.51 Y61.809 E20.88244
G1 X128.902 Y61.8 E24.49409
G1 X134.456 Y61.643 E24.77129
G1 X138.204 Y61.375 E24.95876
G1 X138.592 Y61.371 E24.97812
G1 X141.774 Y61.531 E25.13707
G1 X147.303 Y61.612 E25.41294
G1 X153.673 Y61.376 E25.73096
G1 X154.005 Y61.381 E25.74753
G1 X158.975 Y61.714 E25.99604
G1 X162.155 Y61.782 E26.15472
G1 X163.557 Y61.811 E26.22469
G1 X164.06 Y61.861 E26.2499
G1 X164.549 Y61.99 E26.27513
G1 X165.011 Y62.194 E26.30033
G1 X165.436 Y62.469 E26.32559
G1 X165.812 Y62.807 E26.35081
G1 X166.13 Y63.2 E26.37603
G1 X166.382 Y63.638 E26.40124
G1 X166.562 Y64.111 E26.42649
G1 X166.665 Y64.605 E26.45167
G1 X166.691 Y65.01 E26.47191
G1 X166.691 Y154.991 E30.96108
G1 X166.651 Y155.495 E30.98631
G1 X166.532 Y155.986 E31.01151
G1 X166.338 Y156.453 E31.03674
G1 X166.072 Y156.883 E31.06197
G1 X165.742 Y157.266 E31.08719
G1 X165.355 Y157.592 E31.11244
G1 X164.922 Y157.853 E31.13766
G1 X164.454 Y158.043 E31.16286
G1 X163.961 Y158.156 E31.18809
G1 X163.491 Y158.191 E31.21161
G1 X56.509 Y158.191 E36.54896
G1 X56.005 Y158.151 E36.57418
G1 X55.514 Y158.032 E36.59939
G1 X55.047 Y157.838 E36.62462
G1 X54.617 Y157.572 E36.64984
G1 X54.234 Y157.242 E36.67507
G1 X53.908 Y156.855 E36.70031
G1 X53.647 Y156.422 E36.72553
G1 X53.457 Y155.954 E36.75073
G1 X53.344 Y155.461 E36.77597
G1 X53.309 Y154.992 E36.79943
G1 X53.3 Y110.598 E39.01426
G1 X53.143 Y105.046 E39.29136
G1 X52.875 Y101.305 E39.47847
G1 X52.867 Y101.072 E39.49011
G1 X52.874 Y95.706 E39.75782
G1 X52.881 Y95.496 E39.7683
G1 X53.214 Y90.526 E40.01681
G1 X53.3 Y86.437 E40.22086
G1 X53.31 Y65.008 E41.28995
G1 X53.35 Y64.504 E41.31518
G1 X53.469 Y64.012 E41.34043
G1 X53.664 Y63.546 E41.36563
G1 X53.93 Y63.116 E41.39086
G1 X54.261 Y62.733 E41.41611
G1 X54.647 Y62.407 E41.44132
G1 F1500 E34.94132
G0 F5400 X57.128 Y64.335
G0 X57.128 Y65.628
G0 X57.17 Y65.67
G0 X57.1 Y65.6
;TYPE:WALL-INNER
G1 F1500 E41.44132
G1 F900 X162.9 Y65.6 E46.7197
G1 X162.9 Y154.4 E51.14995
G1 X57.1 Y154.4 E56.42834
G1 X57.1 Y65.6 E60.85859
G0 F5400 X56.7 Y65.2
;TYPE:WALL-OUTER
G1 F900 X163.3 Y65.2 E66.17688
G1 X163.3 Y154.8 E70.64705
G1 X56.7 Y154.8 E75.96534
G1 X56.7 Y65.2 E80.4355
G0 F5400 X57.17 Y65.67
G0 X57.294 Y65.78
;TYPE:SKIN
G1 F900 X145.734 Y154.219 E86.67539
G0 X145.804 Y154.289
G0 F5400 X146.299 Y154.219
G1 F900 X57.86 Y65.78 E92.91524
G0 X57.79 Y65.71
G0 F5400 X58.426 Y65.78
G1 F900 X146.865 Y154.219 E99.15509
G0 X146.935 Y154.289
G0 F5400 X147.431 Y154.219
G1 F900 X58.991 Y65.78 E105.39497
G0 X58.921 Y65.71
G0 F5400 X59.557 Y65.78
G1 F900 X147.996 Y154.219 E111.63482
G0 X148.066 Y154.289
G0 F5400 X148.562 Y154.219
G1 F900 X60.123 Y65.78 E117.87467
G0 X60.053 Y65.71
G0 F5400 X60.688 Y65.78
G1 F900 X149.128 Y154.219 E124.11455
G0 X149.198 Y154.289
G0 F5400 X149.693 Y154.219
G1 F900 X61.254 Y65.78 E130.3544
G0 X61.184 Y65.71
G0 F5400 X61.82 Y65.78
G1 F900 X150.259 Y154.219 E136.59425
G0 X150.329 Y154.289
G0 F5400 X150.825 Y154.219
G1 F900 X62.385 Y65.78 E142.83414
G0 X62.315 Y65.71
G0 F5400 X62.951 Y65.78
G1 F900 X151.39 Y154.219 E149.07398
G0 X151.46 Y154.289
G0 F5400 X151.956 Y154.219
G1 F900 X63.517 Y65.78 E155.31383
G0 X63.447 Y65.71
G0 F5400 X64.082 Y65.78
G1 F900 X152.522 Y154.219 E161.55372
G0 X152.592 Y154.289
G0 F5400 X153.087 Y154.219
G1 F900 X64.648 Y65.78 E167.79357
G0 X64.578 Y65.71
G0 F5400 X65.214 Y65.78
G1 F900 X153.653 Y154.219 E174.03342
G0 X153.723 Y154.289
G0 F5400 X154.219 Y154.219
G1 F900 X65.78 Y65.78 E180.27327
G0 X65.71 Y65.71
G0 F5400 X66.345 Y65.78
G1 F900 X154.784 Y154.219 E186.51311
G0 X154.854 Y154.289
G0 F5400 X155.35 Y154.219
G1 F900 X66.911 Y65.78 E192.75296
G0 X66.841 Y65.71
G0 F5400 X67.477 Y65.78
G1 F900 X155.916 Y154.219 E198.99281
G0 X155.986 Y154.289
G0 F5400 X156.482 Y154.219
G1 F900 X68.042 Y65.78 E205.2327
G0 X67.972 Y65.71
G0 F5400 X68.608 Y65.78
G1 F900 X157.047 Y154.219 E211.47255
G0 X157.117 Y154.289
G0 F5400 X157.613 Y154.219
G1 F900 X69.174 Y65.78 E217.7124
G0 X69.104 Y65.71
G0 F5400 X69.739 Y65.78
G1 F900 X158.179 Y154.219 E223.95228
G0 X158.249 Y154.289
G0 F5400 X158.744 Y154.219
G1 F900 X70.305 Y65.78 E230.19213
G0 X70.235 Y65.71
G0 F5400 X70.871 Y65.78
G1 F900 X159.31 Y154.219 E236.43198
G0 X159.38 Y154.289
G0 F5400 X159.876 Y154.219
G1 F900 X71.436 Y65.78 E242.67186
G0 X71.366 Y65.71
G0 F5400 X72.002 Y65.78
G1 F900 X160.441 Y154.219 E248.91171
G0 X160.511 Y154.289
G0 F5400 X161.007 Y154.219
G1 F900 X72.568 Y65.78 E255.15156
G0 X72.498 Y65.71
G0 F5400 X73.133 Y65.78
G1 F900 X161.573 Y154.219 E261.39144
G0 X161.643 Y154.289
G0 F5400 X162.138 Y154.219
G1 F900 X73.699 Y65.78 E267.63129
G0 X73.629 Y65.71
G0 F5400 X74.265 Y65.78
G1 F900 X162.704 Y154.219 E273.87114
G0 X162.774 Y154.289
G0 F5400 X162.719 Y153.668
G1 F900 X74.83 Y65.78 E280.07215
G0 X74.76 Y65.71
G0 F5400 X75.396 Y65.78
G1 F900 X162.719 Y153.102 E286.23323
G0 X162.789 Y153.172
G0 F5400 X162.719 Y152.537
G1 F900 X75.962 Y65.78 E292.3544
G0 X75.892 Y65.71
G0 F5400 X76.528 Y65.78
G1 F900 X162.719 Y151.971 E298.43564
G0 X162.789 Y152.041
G0 F5400 X162.719 Y151.405
G1 F900 X77.093 Y65.78 E304.47698
G0 X77.023 Y65.71
G0 F5400 X77.659 Y65.78
G1 F900 X162.719 Y150.84 E310.47842
G0 X162.789 Y150.91
G0 F5400 X162.719 Y150.274
G1 F900 X78.225 Y65.78 E316.43993
G0 X78.155 Y65.71
G0 F5400 X78.79 Y65.78
G1 F900 X162.719 Y149.708 E322.36154
G0 X162.789 Y149.778
G0 F5400 X162.719 Y149.142
G1 F900 X79.356 Y65.78 E328.24322
G0 X79.286 Y65.71
G0 F5400 X79.922 Y65.78
G1 F900 X162.719 Y148.577 E334.08499
G0 X162.789 Y148.647
G0 F5400 X162.719 Y148.011
G1 F900 X80.487 Y65.78 E339.88687
G0 X80.417 Y65.71
G0 F5400 X81.053 Y65.78
G1 F900 X162.719 Y147.445 E345.64881
G0 X162.789 Y147.515
G0 F5400 X162.719 Y146.88
G1 F900 X81.619 Y65.78 E351.37085
G0 X81.549 Y65.71
G0 F5400 X82.184 Y65.78
G1 F900 X162.719 Y146.314 E357.053
G0 X162.789 Y146.384
G0 F5400 X162.719 Y145.748
G1 F900 X82.75 Y65.78 E362.69521
G0 X82.68 Y65.71
G0 F5400 X83.316 Y65.78
G1 F900 X162.719 Y145.183 E368.29752
G0 X162.789 Y145.253
G0 F5400 X162.719 Y144.617
G1 F900 X83.881 Y65.78 E373.85993
G0 X83.811 Y65.71
G0 F5400 X84.447 Y65.78
G1 F900 X162.719 Y144.051 E379.38241
G0 X162.789 Y144.121
G0 F5400 X162.719 Y143.486
G1 F900 X85.013 Y65.78 E384.86498
G0 X84.943 Y65.71
G0 F5400 X85.579 Y65.78
G1 F900 X162.719 Y142.92 E390.30763
G0 X162.789 Y142.99
G0 F5400 X162.719 Y142.354
G1 F900 X86.144 Y65.78 E395.71037
G0 X86.074 Y65.71
G0 F5400 X86.71 Y65.78
G1 F900 X162.719 Y141.789 E401.07322
G0 X162.789 Y141.859
G0 F5400 X162.719 Y141.223
G1 F900 X87.276 Y65.78 E406.39613
G0 X87.206 Y65.71
G0 F5400 X87.841 Y65.78
G1 F900 X162.719 Y140.657 E411.67914
G0 X162.789 Y140.727
G0 F5400 X162.719 Y140.091
G1 F900 X88.407 Y65.78 E416.92222
G0 X88.337 Y65.71
G0 F5400 X88.973 Y65.78
G1 F900 X162.719 Y139.526 E422.1254
G0 X162.789 Y139.596
G0 F5400 X162.719 Y138.96
G1 F900 X89.538 Y65.78 E427.28868
G0 X89.468 Y65.71
G0 F5400 X90.104 Y65.78
G1 F900 X162.719 Y138.394 E432.41202
G0 X162.789 Y138.464
G0 F5400 X162.719 Y137.829
G1 F900 X90.67 Y65.78 E437.49547
G0 X90.6 Y65.71
G0 F5400 X91.235 Y65.78
G1 F900 X162.719 Y137.263 E442.53902
G0 X162.789 Y137.333
G0 F5400 X162.719 Y136.697
G1 F900 X91.801 Y65.78 E447.54263
G0 X91.731 Y65.71
G0 F5400 X92.367 Y65.78
G1 F900 X162.719 Y136.132 E452.50634
G0 X162.789 Y136.202
G0 F5400 X162.719 Y135.566
G1 F900 X92.932 Y65.78 E457.43016
G0 X92.862 Y65.71
G0 F5400 X93.498 Y65.78
G1 F900 X162.719 Y135 E462.31404
G0 X162.789 Y135.07
G0 F5400 X162.719 Y134.435
G1 F900 X94.064 Y65.78 E467.15802
G0 X93.994 Y65.71
G0 F5400 X94.629 Y65.78
G1 F900 X162.719 Y133.869 E471.9621
G0 X162.789 Y133.939
G0 F5400 X162.719 Y133.303
G1 F900 X95.195 Y65.78 E476.72625
G0 X95.125 Y65.71
G0 F5400 X95.761 Y65.78
G1 F900 X162.719 Y132.738 E481.4505
G0 X162.789 Y132.808
G0 F5400 X162.719 Y132.172
G1 F900 X96.327 Y65.78 E486.13481
G0 X96.257 Y65.71
G0 F5400 X96.892 Y65.78
G1 F900 X162.719 Y131.606 E490.77922
G0 X162.789 Y131.676
G0 F5400 X162.719 Y131.041
G1 F900 X97.458 Y65.78 E495.38374
G0 X97.388 Y65.71
G0 F5400 X98.024 Y65.78
G1 F900 X162.719 Y130.475 E499.94832
G0 X162.789 Y130.545
G0 F5400 X162.719 Y129.909
G1 F900 X98.589 Y65.78 E504.473
G0 X98.519 Y65.71
G0 F5400 X99.155 Y65.78
G1 F900 X162.719 Y129.343 E508.95775
G0 X162.789 Y129.413
G0 F5400 X162.719 Y128.778
G1 F900 X99.721 Y65.78 E513.4026
G0 X99.651 Y65.71
G0 F5400 X100.286 Y65.78
G1 F900 X162.719 Y128.212 E517.80755
G0 X162.789 Y128.282
G0 F5400 X162.719 Y127.646
G1 F900 X100.852 Y65.78 E522.17257
G0 X100.782 Y65.71
G0 F5400 X101.418 Y65.78
G1 F900 X162.719 Y127.081 E526.49768
G0 X162.789 Y127.151
G0 F5400 X162.719 Y126.515
G1 F900 X101.983 Y65.78 E530.7829
G0 X101.913 Y65.71
G0 F5400 X102.549 Y65.78
G1 F900 X162.719 Y125.949 E535.02819
G0 X162.789 Y126.019
G0 F5400 X162.719 Y125.384
G1 F900 X103.115 Y65.78 E539.23357
G0 X103.045 Y65.71
G0 F5400 X103.68 Y65.78
G1 F900 X162.719 Y124.818 E543.39905
G0 X162.789 Y124.888
G0 F5400 X162.719 Y124.252
G1 F900 X104.246 Y65.78 E547.52461
G0 X104.176 Y65.71
G0 F5400 X104.812 Y65.78
G1 F900 X162.719 Y123.687 E551.61026
G0 X162.789 Y123.757
G0 F5400 X162.719 Y123.121
G1 F900 X105.378 Y65.78 E555.65597
G0 X105.308 Y65.71
G0 F5400 X105.943 Y65.78
G1 F900 X162.719 Y122.555 E559.66179
G0 X162.789 Y122.625
G0 F5400 X162.719 Y121.99
G1 F900 X106.509 Y65.78 E563.62771
G0 X106.439 Y65.71
G0 F5400 X107.075 Y65.78
G1 F900 X162.719 Y121.424 E567.5537
G0 X162.789 Y121.494
G0 F5400 X162.719 Y120.858
G1 F900 X107.64 Y65.78 E571.43978
G0 X107.57 Y65.71
G0 F5400 X108.206 Y65.78
G1 F900 X162.719 Y120.293 E575.28597
G0 X162.789 Y120.363
G0 F5400 X162.719 Y119.727
G1 F900 X108.772 Y65.78 E579.09222
G0 X108.702 Y65.71
G0 F5400 X109.337 Y65.78
G1 F900 X162.719 Y119.161 E582.85857
G0 X162.789 Y119.231
G0 F5400 X162.719 Y118.595
G1 F900 X109.903 Y65.78 E586.58499
G0 X109.833 Y65.71
G0 F5400 X110.469 Y65.78
G1 F900 X162.719 Y118.03 E590.27151
G0 X162.789 Y118.1
G0 F5400 X162.719 Y117.464
G1 F900 X111.034 Y65.78 E593.91813
G0 X110.964 Y65.71
G0 F5400 X111.6 Y65.78
G1 F900 X162.719 Y116.898 E597.52482
G0 X162.789 Y116.968
G0 F5400 X162.719 Y116.333
G1 F900 X112.166 Y65.78 E601.09161
G0 X112.096 Y65.71
G0 F5400 X112.731 Y65.78
G1 F900 X162.719 Y115.767 E604.61849
G0 X162.789 Y115.837
G0 F5400 X162.719 Y115.201
G1 F900 X113.297 Y65.78 E608.10545
G0 X113.227 Y65.71
G0 F5400 X113.863 Y65.78
G1 F900 X162.719 Y114.636 E611.5525
G0 X162.789 Y114.706
G0 F5400 X162.719 Y114.07
G1 F900 X114.428 Y65.78 E614.95966
G0 X114.358 Y65.71
G0 F5400 X114.994 Y65.78
G1 F900 X162.719 Y113.504 E618.32688
G0 X162.789 Y113.574
G0 F5400 X162.719 Y112.939
G1 F900 X115.56 Y65.78 E621.6542
G0 X115.49 Y65.71
G0 F5400 X116.126 Y65.78
G1 F900 X162.719 Y112.373 E624.94159
G0 X162.789 Y112.443
G0 F5400 X162.719 Y111.807
G1 F900 X116.691 Y65.78 E628.18908
G0 X116.621 Y65.71
G0 F5400 X117.257 Y65.78
G1 F900 X162.719 Y111.242 E631.39667
G0 X162.789 Y111.312
G0 F5400 X162.719 Y110.676
G1 F900 X117.823 Y65.78 E634.56432
G0 X117.753 Y65.71
G0 F5400 X118.388 Y65.78
G1 F900 X162.719 Y110.11 E637.69208
G0 X162.789 Y110.18
G0 F5400 X162.719 Y109.544
G1 F900 X118.954 Y65.78 E640.7799
G0 X118.884 Y65.71
G0 F5400 X119.52 Y65.78
G1 F900 X162.719 Y108.979 E643.82782
G0 X162.789 Y109.049
G0 F5400 X162.719 Y108.413
G1 F900 X120.085 Y65.78 E646.83585
G0 X120.015 Y65.71
G0 F5400 X120.651 Y65.78
G1 F900 X162.719 Y107.847 E649.80394
G0 X162.789 Y107.917
G0 F5400 X162.719 Y107.282
G1 F900 X121.217 Y65.78 E652.73213
G0 X121.147 Y65.71
G0 F5400 X121.782 Y65.78
G1 F900 X162.719 Y106.716 E655.62042
G0 X162.789 Y106.786
G0 F5400 X162.719 Y106.15
G1 F900 X122.348 Y65.78 E658.46878
G0 X122.278 Y65.71
G0 F5400 X122.914 Y65.78
G1 F900 X162.719 Y105.585 E661.27723
G0 X162.789 Y105.655
G0 F5400 X162.719 Y105.019
G1 F900 X123.479 Y65.78 E664.04579
G0 X123.409 Y65.71
G0 F5400 X124.045 Y65.78
G1 F900 X162.719 Y104.453 E666.77442
G0 X162.789 Y104.523
G0 F5400 X162.719 Y103.888
G1 F900 X124.611 Y65.78 E669.46314
G0 X124.541 Y65.71
G0 F5400 X125.176 Y65.78
G1 F900 X162.719 Y103.322 E672.11197
G0 X162.789 Y103.392
G0 F5400 X162.719 Y102.756
G1 F900 X125.742 Y65.78 E674.72086
G0 X125.672 Y65.71
G0 F5400 X126.308 Y65.78
G1 F900 X162.719 Y102.191 E677.28985
G0 X162.789 Y102.261
G0 F5400 X162.719 Y101.625
G1 F900 X126.874 Y65.78 E679.81891
G0 X126.804 Y65.71
G0 F5400 X127.439 Y65.78
G1 F900 X162.719 Y101.059 E682.30807
G0 X162.789 Y101.129
G0 F5400 X162.719 Y100.494
G1 F900 X128.005 Y65.78 E684.75733
G0 X127.935 Y65.71
G0 F5400 X128.571 Y65.78
G1 F900 X162.719 Y99.928 E687.16666
G0 X162.789 Y99.998
G0 F5400 X162.719 Y99.362
G1 F900 X129.136 Y65.78 E689.53608
G0 X129.066 Y65.71
G0 F5400 X129.702 Y65.78
G1 F900 X162.719 Y98.796 E691.86557
G0 X162.789 Y98.866
G0 F5400 X162.719 Y98.231
G1 F900 X130.268 Y65.78 E694.15517
G0 X130.198 Y65.71
G0 F5400 X130.833 Y65.78
G1 F900 X162.719 Y97.665 E696.40486
G0 X162.789 Y97.735
G0 F5400 X162.719 Y97.099
G1 F900 X131.399 Y65.78 E698.61462
G0 X131.329 Y65.71
G0 F5400 X131.965 Y65.78
G1 F900 X162.719 Y96.534 E700.78448
G0 X162.789 Y96.604
G0 F5400 X162.719 Y95.968
G1 F900 X132.53 Y65.78 E702.91444
G0 X132.46 Y65.71
G0 F5400 X133.096 Y65.78
G1 F900 X162.719 Y95.402 E705.00447
G0 X162.789 Y95.472
G0 F5400 X162.719 Y94.837
G1 F900 X133.662 Y65.78 E707.0546
G0 X133.592 Y65.71
G0 F5400 X134.227 Y65.78
G1 F900 X162.719 Y94.271 E709.06483
G0 X162.789 Y94.341
G0 F5400 X162.719 Y93.705
G1 F900 X134.793 Y65.78 E711.03512
G0 X134.723 Y65.71
G0 F5400 X135.359 Y65.78
G1 F900 X162.719 Y93.14 E712.96552
G0 X162.789 Y93.21
G0 F5400 X162.719 Y92.574
G1 F900 X135.925 Y65.78 E714.85598
G0 X135.855 Y65.71
G0 F5400 X136.49 Y65.78
G1 F900 X162.719 Y92.008 E716.70654
G0 X162.789 Y92.078
G0 F5400 X162.719 Y91.443
G1 F900 X137.056 Y65.78 E718.51721
G0 X136.986 Y65.71
G0 F5400 X137.622 Y65.78
G1 F900 X162.719 Y90.877 E720.28794
G0 X162.789 Y90.947
