;FLAVOR:RepRap
;TIME:9391
;Generated with Cura_SteamEngine 2.3.1
M190 S60
M104 S210
M109 S210
G28 ;Home
G1 Z15.0 F6000 ;Move the platform down 15mm
;Prime the extruder
G92 E0
G1 F200 E3
G92 E0
;LAYER_COUNT:95
;LAYER:0
M107
G1 F1500 E-6.5
G0 F3600 X54.881 Y62.889 Z.3
;TYPE:SKIRT
G1 F1500 E0
G1 F1800 X55.292 Y62.545 E0.02674
G1 X55.75 Y62.265 E0.05352
G1 X56.244 Y62.057 E0.08026
G1 X57.017 Y61.889 E0.11973
G1 X57.857 Y61.801 E0.16186
G1 X58.578 Y61.798 E0.19784
G1 X63.633 Y62.286 E0.4512
G1 X69.128 Y62.52 E0.7256
G1 X122.387 Y62.529 E3.3827
G1 X127.91 Y62.373 E3.65835
G1 X133.332 Y61.911 E3.92984
G1 X138.362 Y61.21 E4.18321
G1 X139.005 Y61.179 E4.21533
G1 X145.028 Y61.424 E4.51607
G1 X147.7 Y61.413 E4.64937
G1 X152.982 Y61.187 E4.91313
G1 X153.484 Y61.201 E4.93819
G1 X156.247 Y61.469 E5.07668
G1 X162.693 Y61.835 E5.39879
G1 X163.225 Y61.905 E5.42556
G1 X163.74 Y62.053 E5.4523
G1 X164.228 Y62.277 E5.47909
G1 X164.476 Y62.427 E5.49355
G1 X164.893 Y62.703 E5.51849
G1 X165.317 Y63.031 E5.54524
G1 X165.687 Y63.419 E5.57199
G1 X165.996 Y63.858 E5.59877
G1 X166.271 Y64.426 E5.63025
G1 X166.488 Y64.997 E5.66073
G1 X166.641 Y65.511 E5.68748
G1 X166.715 Y66.042 E5.71423
G1 X166.709 Y66.595 E5.74182
G1 X166.21 Y72.202 E6.02266
G1 X166.058 Y74.894 E6.15718
G1 X165.97 Y79.022 E6.36317
G1 X166.01 Y143.807 E9.59531
G1 X166.319 Y149.253 E9.86745
G1 X166.706 Y153.068 E10.05876
G1 X166.716 Y153.671 E10.08885
G1 X166.684 Y154.152 E10.1129
G1 X166.609 Y154.683 E10.13965
G1 X166.374 Y155.393 E10.17696
G1 X166.217 Y155.741 E10.19601
G1 X165.96 Y156.213 E10.22282
G1 X165.637 Y156.64 E10.24953
G1 X165.114 Y157.127 E10.28519
G1 X164.726 Y157.422 E10.3095
G1 X164.276 Y157.714 E10.33627
G1 X163.788 Y157.935 E10.36299
G1 X163.272 Y158.082 E10.38976
G1 X162.849 Y158.143 E10.41108
G1 X162.052 Y158.21 E10.45099
G1 X161.403 Y158.206 E10.48337
G1 X156.32 Y157.714 E10.73814
G1 X150.827 Y157.48 E11.01244
G1 X70.662 Y157.471 E15.01189
G1 X65.128 Y157.628 E15.28809
G1 X58.019 Y158.206 E15.64393
G1 X57.483 Y158.21 E15.67067
G1 X56.952 Y158.134 E15.69743
G1 X56.405 Y157.966 E15.72598
G1 X55.901 Y157.767 E15.75302
G1 X55.418 Y157.534 E15.77977
G1 X54.975 Y157.231 E15.80655
G1 X54.583 Y156.866 E15.83327
G1 X54.394 Y156.645 E15.84778
G1 X54.132 Y156.312 E15.86892
G1 X53.832 Y155.867 E15.89569
G1 X53.603 Y155.383 E15.9224
G1 X53.447 Y154.869 E15.9492
G1 X53.378 Y154.433 E15.97123
G1 X53.298 Y153.607 E16.01263
G1 X53.298 Y152.914 E16.0472
G1 X53.79 Y147.816 E16.30272
G1 X53.942 Y145.123 E16.43729
G1 X54.03 Y141 E16.64304
G1 X53.99 Y114.378 E17.97121
G1 X53.682 Y108.938 E18.24305
G1 X53.062 Y103.478 E18.5172
G1 X52.711 Y101.189 E18.63274
G1 X52.669 Y100.633 E18.66055
G1 X52.681 Y96.372 E18.87314
G1 X52.711 Y95.921 E18.89569
G1 X53.597 Y89.052 E19.24122
G1 X53.959 Y83.615 E19.51308
G1 X54.029 Y79.128 E19.73696
G1 X53.874 Y73.649 E20.01042
G1 X53.287 Y66.588 E20.36391
G1 X53.283 Y66.052 E20.39065
G1 X53.384 Y65.411 E20.42302
G1 X53.49 Y64.99 E20.44468
G1 X53.659 Y64.481 E20.47144
G1 X53.902 Y64.003 E20.49819
G1 X54.214 Y63.566 E20.52498
G1 X54.47 Y63.289 E20.5438
G1 X54.881 Y62.889 E20.57241
G0 F3600 X55.16 Y63.176
G1 F1800 X55.549 Y62.853 E20.59764
G1 X55.984 Y62.595 E20.62287
G1 X56.454 Y62.409 E20.64809
G1 X57.059 Y62.286 E20.67889
G1 X57.899 Y62.198 E20.72102
G1 X58.539 Y62.196 E20.75295
G1 X63.614 Y62.686 E21.00732
G1 X69.111 Y62.92 E21.28182
G1 X122.398 Y62.929 E23.94032
G1 X127.938 Y62.772 E24.21682
G1 X133.383 Y62.308 E24.48946
G1 X138.417 Y61.607 E24.74303
G1 X138.989 Y61.579 E24.7716
G1 X145.013 Y61.824 E25.07239
G1 X147.719 Y61.813 E25.20739
G1 X152.999 Y61.587 E25.47105
G1 X153.445 Y61.599 E25.49331
G1 X156.21 Y61.867 E25.6319
G1 X162.67 Y62.234 E25.95472
G1 X163.171 Y62.303 E25.97995
G1 X163.655 Y62.449 E26.00517
G1 X164.255 Y62.761 E26.03891
G1 X164.672 Y63.037 E26.06386
G1 X165.07 Y63.348 E26.08905
G1 X165.415 Y63.718 E26.11429
G1 X165.696 Y64.138 E26.13951
G1 X165.897 Y64.568 E26.16319
G1 X166.114 Y65.139 E26.19366
G1 X166.256 Y65.625 E26.21892
G1 X166.319 Y66.126 E26.24411
G1 X166.31 Y66.56 E26.26577
G1 X165.813 Y72.146 E26.54556
G1 X165.658 Y74.89 E26.68267
G1 X165.57 Y78.992 E26.88737
G1 X165.61 Y143.812 E30.12126
G1 X165.921 Y149.295 E30.39524
G1 X166.308 Y153.109 E30.5865
G1 X166.317 Y153.644 E30.6132
G1 X166.285 Y154.125 E30.63725
G1 X166.212 Y154.626 E30.66251
G1 X166.009 Y155.229 E30.69425
G1 X165.852 Y155.577 E30.71329
G1 X165.608 Y156.02 E30.73853
G1 X165.298 Y156.419 E30.76374
G1 X164.872 Y156.808 E30.79252
G1 X164.484 Y157.103 E30.81683
G1 X164.058 Y157.377 E30.8421
G1 X163.595 Y157.579 E30.8673
G1 X163.106 Y157.707 E30.89252
G1 X162.815 Y157.745 E30.90716
G1 X162.018 Y157.812 E30.94707
G1 X161.442 Y157.808 E30.9758
G1 X156.339 Y157.314 E31.23158
G1 X150.844 Y157.08 E31.50598
G1 X70.651 Y157.071 E35.50682
G1 X65.102 Y157.228 E35.78378
G1 X57.986 Y157.807 E36.13997
G1 X57.481 Y157.809 E36.16516
G1 X56.981 Y157.73 E36.19042
G1 X56.552 Y157.594 E36.21287
G1 X56.048 Y157.395 E36.2399
G1 X55.594 Y157.173 E36.26512
G1 X55.18 Y156.882 E36.29036
G1 X54.708 Y156.398 E36.32409
G1 X54.446 Y156.065 E36.34523
G1 X54.166 Y155.644 E36.37046
G1 X53.955 Y155.184 E36.3957
G1 X53.82 Y154.697 E36.42092
G1 X53.776 Y154.394 E36.43619
G1 X53.696 Y153.568 E36.47759
G1 X53.696 Y152.953 E36.50828
G1 X54.188 Y147.853 E36.7639
G1 X54.342 Y145.127 E36.90012
G1 X54.43 Y141.008 E37.10566
G1 X54.39 Y114.372 E38.43454
G1 X54.08 Y108.907 E38.70763
G1 X53.458 Y103.422 E38.98303
G1 X53.106 Y101.128 E39.09881
G1 X53.069 Y100.634 E39.12353
G1 X53.081 Y96.373 E39.33611
G1 X53.107 Y95.973 E39.35611
G1 X53.996 Y89.083 E39.7027
G1 X54.359 Y83.628 E39.97546
G1 X54.429 Y79.123 E40.20024
G1 X54.273 Y73.623 E40.47475
G1 X53.686 Y66.555 E40.82858
G1 X53.684 Y66.049 E40.85383
G1 X53.772 Y65.509 E40.88112
G1 X53.878 Y65.088 E40.90278
G1 X54.04 Y64.609 E40.92801
G1 X54.275 Y64.161 E40.95325
G1 X54.749 Y63.576 E40.99081
G1 X55.16 Y63.176 E41.01943
G1 F1500 E34.51943
G0 F3600 X57.384 Y65.708
G0 X57.527 Y65.93
;TYPE:SUPPORT
G1 F1500 E41.01943
G1 F1800 X57.401 Y66.071 E41.02886
G1 X57.295 Y66.243 E41.03894
G1 X57.23 Y66.51 E41.05265
G1 X57.23 Y66.612 E41.05774
G1 X57.065 Y66.588 E41.06606
G1 X57.065 Y66.308 E41.08003
G1 X57.08 Y66.256 E41.08273
G1 X57.096 Y66.136 E41.08877
G1 X57.132 Y65.995 E41.09603
G1 X57.209 Y65.86 E41.10378
G1 X57.32 Y65.74 E41.11194
G1 X57.463 Y65.647 E41.12045
G1 X57.643 Y65.59 E41.12987
G1 X57.728 Y65.586 E41.13411
G1 X57.82 Y65.571 E41.13876
G1 X58.061 Y65.571 E41.15079
G1 X58.076 Y65.73 E41.15875
G1 X58.03 Y65.73 E41.16105
G1 X57.853 Y65.763 E41.17003
G1 X57.684 Y65.829 E41.17908
G1 X57.527 Y65.93 E41.1884
G1 F1500 E34.6884
G0 F3600 X57.187 Y65.914
G0 X57.049 Y66.14
G0 X56.966 Y66.478
G0 X56.965 Y153.471
G0 X57.23 Y153.471
G1 F1500 E41.1884
G1 F1800 X57.263 Y153.645 E41.19723
G1 X57.327 Y153.816 E41.20634
G1 X57.435 Y153.975 E41.21593
G1 X57.573 Y154.101 E41.22525
G1 X57.739 Y154.198 E41.23484
G1 X58.005 Y154.271 E41.24861
G1 X58.112 Y154.271 E41.25394
G1 X58.088 Y154.435 E41.26221
G1 X57.811 Y154.435 E41.27603
G1 X57.759 Y154.419 E41.27875
G1 X57.634 Y154.403 E41.28503
G1 X57.503 Y154.372 E41.29175
G1 X57.38 Y154.301 E41.29884
G1 X57.254 Y154.192 E41.30715
G1 X57.154 Y154.053 E41.31569
G1 X57.091 Y153.863 E41.32568
G1 X57.087 Y153.767 E41.33047
G1 X57.071 Y153.671 E41.33533
G1 X57.071 Y153.437 E41.347
G1 X57.23 Y153.422 E41.35497
G1 X57.23 Y153.471 E41.35741
G1 F1500 E34.85741
G0 F3600 X56.97 Y153.519
G0 X57.092 Y153.937
G0 X57.415 Y154.315
G0 X57.97 Y154.535
G0 X161.891 Y154.535
G0 X161.89 Y154.27
G1 F1500 E41.35741
G1 F1800 X161.997 Y154.27 E41.36275
G1 X162.261 Y154.198 E41.3764
G1 X162.427 Y154.101 E41.386
G1 X162.565 Y153.975 E41.39532
G1 X162.673 Y153.816 E41.40491
G1 X162.737 Y153.645 E41.41402
G1 X162.77 Y153.471 E41.42285
G1 X162.77 Y153.439 E41.42445
G1 X162.93 Y153.469 E41.43257
G1 X162.93 Y153.67 E41.4426
G1 X162.904 Y153.813 E41.44985
G1 X162.903 Y153.883 E41.45334
G1 X162.854 Y154.039 E41.4615
G1 X162.765 Y154.172 E41.46948
G1 X162.64 Y154.289 E41.47803
G1 X162.503 Y154.369 E41.48594
G1 X162.366 Y154.404 E41.493
G1 X162.249 Y154.419 E41.49888
G1 X162.201 Y154.433 E41.50138
G1 X161.914 Y154.433 E41.51569
G1 X161.89 Y154.27 E41.52391
G1 F1500 E35.02391
G0 F3600 X161.891 Y154.535
G0 X162.364 Y154.443
G0 X162.767 Y154.148
G0 X162.993 Y153.716
G0 X163.034 Y153.495
G0 X163.035 Y66.532
G0 X162.77 Y66.532
G1 F1500 E41.52391
G1 F1800 X162.743 Y66.376 E41.53181
G1 X162.659 Y66.156 E41.54356
G1 X162.489 Y65.943 E41.55716
G1 X162.32 Y65.83 E41.5673
G1 X162.151 Y65.762 E41.57639
G1 X161.971 Y65.729 E41.58552
G1 X161.913 Y65.729 E41.58841
G1 X161.933 Y65.57 E41.59641
G1 X162.173 Y65.57 E41.60838
G1 X162.27 Y65.59 E41.61332
G1 X162.387 Y65.597 E41.61917
G1 X162.53 Y65.645 E41.62669
G1 X162.655 Y65.724 E41.63407
G1 X162.778 Y65.846 E41.64272
G1 X162.866 Y65.987 E41.65101
G1 X162.911 Y66.152 E41.65954
G1 X162.914 Y66.235 E41.66368
G1 X162.933 Y66.296 E41.66687
G1 X162.933 Y66.566 E41.68034
G1 X162.77 Y66.593 E41.68858
G1 X162.77 Y66.532 E41.69163
G1 F1500 E35.19163
G0 F3600 X161.742 Y66.757
G0 X161.67 Y66.929
G0 X161.77 Y66.929
;TYPE:WALL-INNER
G1 F1500 E41.69163
G1 F1800 X161.77 Y153.27 E45.9992
G1 X58.43 Y153.271 E51.15485
G1 X58.23 Y153.271 E51.16483
G1 X58.23 Y153.071 E51.17129
G1 X58.23 Y66.73 E55.47886
G1 X161.57 Y66.729 E60.63451
G1 X161.77 Y66.729 E60.64449
G1 X161.77 Y66.929 E60.65095
G0 F3600 X162.17 Y66.605
;TYPE:WALL-OUTER
G1 F1800 X162.17 Y153.416 E64.98197
G1 X162.158 Y153.481 E64.98527
G1 X162.136 Y153.537 E64.98827
G1 X162.107 Y153.581 E64.9909
G1 X162.07 Y153.615 E64.99341
G1 X162.027 Y153.64 E64.99589
G1 X161.916 Y153.67 E65.00162
G1 X58.105 Y153.671 E70.18078
G1 X58.086 Y153.671 E70.18172
G1 X57.973 Y153.64 E70.18757
G1 X57.93 Y153.615 E70.19005
G1 X57.893 Y153.581 E70.19256
G1 X57.864 Y153.537 E70.19519
G1 X57.842 Y153.481 E70.19819
G1 X57.83 Y153.416 E70.20149
G1 X57.83 Y153.397 E70.20243
G1 X57.83 Y66.582 E74.53365
G1 X57.856 Y66.477 E74.53905
G1 X57.884 Y66.431 E74.54174
G1 X57.92 Y66.391 E74.54442
G1 X57.959 Y66.366 E74.54673
G1 X58.019 Y66.342 E74.54996
G1 X58.084 Y66.33 E74.55325
G1 X161.897 Y66.329 E79.73251
G1 X161.917 Y66.329 E79.7335
G1 X161.982 Y66.341 E79.7368
G1 X162.038 Y66.364 E79.73982
G1 X162.079 Y66.391 E79.74227
G1 X162.131 Y66.456 E79.74642
G1 X162.161 Y66.536 E79.75069
G1 X162.17 Y66.585 E79.75317
G1 X162.17 Y66.605 E79.75417
G0 F3600 X161.589 Y67.119
;TYPE:SKIN
G1 F1800 X161.378 Y66.909 E79.76902
G0 F3600 X160.813 Y66.909
G1 F1800 X161.589 Y67.685 E79.82377
G0 X161.659 Y67.755
G0 F3600 X161.589 Y68.251
G1 F1800 X160.247 Y66.909 E79.91846
G0 X160.177 Y66.839
G0 F3600 X159.681 Y66.909
G1 F1800 X161.589 Y68.817 E80.05308
G0 X161.659 Y68.887
G0 F3600 X161.589 Y69.382
G1 F1800 X159.115 Y66.909 E80.2276
G0 X159.045 Y66.839
G0 F3600 X158.55 Y66.909
G1 F1800 X161.589 Y69.948 E80.44201
G0 X161.659 Y70.018
G0 F3600 X161.589 Y70.514
G1 F1800 X157.984 Y66.909 E80.69637
G0 X157.914 Y66.839
G0 F3600 X157.418 Y66.909
G1 F1800 X161.589 Y71.079 E80.99062
G0 X161.659 Y71.149
G0 F3600 X161.589 Y71.645
G1 F1800 X156.853 Y66.909 E81.32477
G0 X156.783 Y66.839
G0 F3600 X156.287 Y66.909
G1 F1800 X161.589 Y72.211 E81.69885
G0 X161.659 Y72.281
G0 F3600 X161.589 Y72.776
G1 F1800 X155.721 Y66.909 E82.11284
G0 X155.651 Y66.839
G0 F3600 X155.156 Y66.909
G1 F1800 X161.589 Y73.342 E82.56672
G0 X161.659 Y73.412
G0 F3600 X161.589 Y73.908
G1 F1800 X154.59 Y66.909 E83.06054
G0 X154.52 Y66.839
G0 F3600 X154.024 Y66.909
G1 F1800 X161.589 Y74.473 E83.59425
G0 X161.659 Y74.543
G0 F3600 X161.589 Y75.039
G1 F1800 X153.459 Y66.909 E84.16787
G0 X153.389 Y66.839
G0 F3600 X152.893 Y66.909
G1 F1800 X161.589 Y75.605 E84.78142
G0 X161.659 Y75.675
G0 F3600 X161.589 Y76.17
G1 F1800 X152.327 Y66.909 E85.43487
G0 X152.257 Y66.839
G0 F3600 X151.762 Y66.909
G1 F1800 X161.589 Y76.736 E86.12821
G0 X161.659 Y76.806
G0 F3600 X161.589 Y77.302
G1 F1800 X151.196 Y66.909 E86.8615
G0 X151.126 Y66.839
G0 F3600 X150.63 Y66.909
G1 F1800 X161.589 Y77.868 E87.63471
G0 X161.659 Y77.938
G0 F3600 X161.589 Y78.433
G1 F1800 X150.065 Y66.909 E88.44779
G0 X149.995 Y66.839
G0 F3600 X149.499 Y66.909
G1 F1800 X161.589 Y78.999 E89.30081
G0 X161.659 Y79.069
G0 F3600 X161.589 Y79.565
G1 F1800 X148.933 Y66.909 E90.19376
G0 X148.863 Y66.839
G0 F3600 X148.367 Y66.909
G1 F1800 X161.589 Y80.13 E91.12661
G0 X161.659 Y80.2
G0 F3600 X161.589 Y80.696
G1 F1800 X147.802 Y66.909 E92.09935
G0 X147.732 Y66.839
G0 F3600 X147.236 Y66.909
G1 F1800 X161.589 Y81.262 E93.11203
G0 X161.659 Y81.332
G0 F3600 X161.589 Y81.827
G1 F1800 X146.67 Y66.909 E94.16462
G0 X146.6 Y66.839
G0 F3600 X146.105 Y66.909
G1 F1800 X161.589 Y82.393 E95.2571
G0 X161.659 Y82.463
G0 F3600 X161.589 Y82.959
G1 F1800 X145.539 Y66.909 E96.38951
G0 X145.469 Y66.839
G0 F3600 X144.973 Y66.909
G1 F1800 X161.589 Y83.524 E97.56182
G0 X161.659 Y83.594
G0 F3600 X161.589 Y84.09
G1 F1800 X144.408 Y66.909 E98.77404
G0 X144.338 Y66.839
G0 F3600 X143.842 Y66.909
G1 F1800 X161.589 Y84.656 E100.02618
G0 X161.659 Y84.726
G0 F3600 X161.589 Y85.221
G1 F1800 X143.276 Y66.909 E101.31823
G0 X143.206 Y66.839
G0 F3600 X142.711 Y66.909
G1 F1800 X161.589 Y85.787 E102.65017
G0 X161.659 Y85.857
G0 F3600 X161.589 Y86.353
G1 F1800 X142.145 Y66.909 E104.02205
G0 X142.075 Y66.839
G0 F3600 X141.579 Y66.909
G1 F1800 X161.589 Y86.918 E105.43383
G0 X161.659 Y86.988
G0 F3600 X161.589 Y87.484
G1 F1800 X141.014 Y66.909 E106.88551
G0 X140.944 Y66.839
G0 F3600 X140.448 Y66.909
G1 F1800 X161.589 Y88.05 E108.37712
G0 X161.659 Y88.12
G0 F3600 X161.589 Y88.616
G1 F1800 X139.882 Y66.909 E109.90867
G0 X139.812 Y66.839
G0 F3600 X139.317 Y66.909
G1 F1800 X161.589 Y89.181 E111.48008
G0 X161.659 Y89.251
G0 F3600 X161.589 Y89.747
G1 F1800 X138.751 Y66.909 E113.09142
G0 X138.681 Y66.839
G0 F3600 X138.185 Y66.909
G1 F1800 X161.589 Y90.313 E114.7427
G0 X161.659 Y90.383
G0 F3600 X161.589 Y90.878
G1 F1800 X137.619 Y66.909 E116.43388
G0 X137.549 Y66.839
G0 F3600 X137.054 Y66.909
G1 F1800 X161.589 Y91.444 E118.16495
G0 X161.659 Y91.514
G0 F3600 X161.589 Y92.01
G1 F1800 X136.488 Y66.909 E119.93596
G0 X136.418 Y66.839
G0 F3600 X135.922 Y66.909
G1 F1800 X161.589 Y92.575 E121.74687
G0 X161.659 Y92.645
G0 F3600 X161.589 Y93.141
G1 F1800 X135.357 Y66.909 E123.59768
G0 X135.287 Y66.839
G0 F3600 X134.791 Y66.909
G1 F1800 X161.589 Y93.707 E125.48843
G0 X161.659 Y93.777
G0 F3600 X161.589 Y94.272
G1 F1800 X134.225 Y66.909 E127.41907
G0 X134.155 Y66.839
G0 F3600 X133.66 Y66.909
G1 F1800 X161.589 Y94.838 E129.38961
G0 X161.659 Y94.908
G0 F3600 X161.589 Y95.404
G1 F1800 X133.094 Y66.909 E131.40009
G0 X133.024 Y66.839
G0 F3600 X132.528 Y66.909
G1 F1800 X161.589 Y95.969 E133.45046
G0 X161.659 Y96.039
G0 F3600 X161.589 Y96.535
G1 F1800 X131.963 Y66.909 E135.54074
G0 X131.893 Y66.839
G0 F3600 X131.397 Y66.909
G1 F1800 X161.589 Y97.101 E137.67095
G0 X161.659 Y97.171
G0 F3600 X161.589 Y97.667
G1 F1800 X130.831 Y66.909 E139.84109
G0 X130.761 Y66.839
G0 F3600 X130.266 Y66.909
G1 F1800 X161.589 Y98.232 E142.0511
G0 X161.659 Y98.302
G0 F3600 X161.589 Y98.798
G1 F1800 X129.7 Y66.909 E144.30104
G0 X129.63 Y66.839
G0 F3600 X129.134 Y66.909
G1 F1800 X161.589 Y99.364 E146.59091
G0 X161.659 Y99.434
G0 F3600 X161.589 Y99.929
G1 F1800 X128.568 Y66.909 E148.92069
G0 X128.498 Y66.839
G0 F3600 X128.003 Y66.909
G1 F1800 X161.589 Y100.495 E151.29036
G0 X161.659 Y100.565
G0 F3600 X161.589 Y101.061
G1 F1800 X127.437 Y66.909 E153.69997
G0 X127.367 Y66.839
G0 F3600 X126.871 Y66.909
G1 F1800 X161.589 Y101.626 E156.14948
G0 X161.659 Y101.696
G0 F3600 X161.589 Y102.192
G1 F1800 X126.306 Y66.909 E158.63888
G0 X126.236 Y66.839
G0 F3600 X125.74 Y66.909
G1 F1800 X161.589 Y102.758 E161.16822
G0 X161.659 Y102.828
G0 F3600 X161.589 Y103.323
G1 F1800 X125.174 Y66.909 E163.73746
G0 X125.104 Y66.839
G0 F3600 X124.609 Y66.909
G1 F1800 X161.589 Y103.889 E166.3466
G0 X161.659 Y103.959
G0 F3600 X161.589 Y104.455
G1 F1800 X124.043 Y66.909 E168.99567
G0 X123.973 Y66.839
G0 F3600 X123.477 Y66.909
G1 F1800 X161.589 Y105.02 E171.68465
G0 X161.659 Y105.09
G0 F3600 X161.589 Y105.586
G1 F1800 X122.912 Y66.909 E174.41352
G0 X122.842 Y66.839
