;FLAVOR:RepRap
;TIME:21532
;Generated with Cura_SteamEngine 2.3.1
M190 S60
M104 S200
M109 S200
G28 ;Home
G1 Z15.0 F6000 ;Move the platform down 15mm
;Prime the extruder
G92 E0
G1 F200 E3
G92 E0
;LAYER_COUNT:102
;LAYER:0
M107
G1 F1500 E-6.5
G0 F2100 X55.25 Y63.019 Z.3
;TYPE:SKIRT
G1 F1500 E0
G1 F900 X55.67 Y62.737 E0.02524
G1 X56.315 Y62.463 E0.0602
G1 X56.674 Y62.355 E0.0789
G1 X57.168 Y62.248 E0.10412
G1 X57.596 Y62.219 E0.12552
G1 X127.574 Y62.213 E3.61674
G1 X133.109 Y62.056 E3.89299
G1 X138.914 Y61.555 E4.18368
G1 X139.397 Y61.55 E4.20778
G1 X141.881 Y61.711 E4.33197
G1 X147.416 Y61.845 E4.60819
G1 X150.1 Y61.795 E4.74212
G1 X154.624 Y61.547 E4.96816
G1 X155.114 Y61.558 E4.99261
G1 X160.62 Y62.103 E5.26865
G1 X162.751 Y62.243 E5.3752
G1 X163.251 Y62.316 E5.40041
G1 X163.636 Y62.429 E5.42043
G1 X163.82 Y62.496 E5.4302
G1 X164.28 Y62.706 E5.45542
G1 X164.701 Y62.986 E5.48065
G1 X164.977 Y63.23 E5.49903
G1 X165.198 Y63.449 E5.51455
G1 X165.528 Y63.832 E5.53977
G1 X165.852 Y64.382 E5.57162
G1 X165.983 Y64.666 E5.58722
G1 X166.158 Y65.14 E5.61243
G1 X166.256 Y65.636 E5.63765
G1 X166.277 Y66.007 E5.65619
G1 X166.255 Y154.071 E10.04972
G1 X166.215 Y154.575 E10.07495
G1 X166.096 Y155.066 E10.10015
G1 X165.968 Y155.394 E10.11772
G1 X165.863 Y155.625 E10.13038
G1 X165.618 Y156.067 E10.15559
G1 X165.307 Y156.466 E10.18083
G1 X164.936 Y156.81 E10.20607
G1 X164.603 Y157.041 E10.22629
G1 X164.147 Y157.316 E10.25286
G1 X163.694 Y157.542 E10.27811
G1 X163.212 Y157.694 E10.30333
G1 X162.494 Y157.776 E10.33938
G1 X57.415 Y157.761 E15.5818
G1 X56.911 Y157.721 E15.60702
G1 X56.419 Y157.602 E15.63227
G1 X55.953 Y157.407 E15.65747
G1 X55.464 Y157.097 E15.68636
G1 X55.065 Y156.79 E15.71148
G1 X54.69 Y156.451 E15.7367
G1 X54.373 Y156.057 E15.76193
G1 X54.121 Y155.618 E15.78718
G1 X54.003 Y155.331 E15.80266
G1 X53.914 Y155.082 E15.81585
G1 X53.782 Y154.594 E15.84108
G1 X53.727 Y154.005 E15.87059
G1 X53.724 Y66 E20.26118
G1 X53.764 Y65.496 E20.2864
G1 X53.883 Y65.005 E20.3116
G1 X54.077 Y64.538 E20.33683
G1 X54.255 Y64.234 E20.35441
G1 X54.568 Y63.761 E20.38271
G1 X54.88 Y63.363 E20.40794
G1 X55.25 Y63.019 E20.43314
G1 F1500 E13.93314
G0 F2100 X56.874 Y64.953
G0 X57.582 Y66.059
G0 X57.62 Y66.111
G0 X57.604 Y66.013
;TYPE:WALL-INNER
G1 F1500 E20.43314
G1 F900 X162.396 Y66.013 E25.66124
G1 X162.446 Y66.03 E25.66387
G1 X162.487 Y66.125 E25.66903
G1 X162.487 Y153.895 E30.0479
G1 X162.47 Y153.946 E30.05058
G1 X162.375 Y153.987 E30.05574
G1 X57.734 Y153.988 E35.2763
G1 X57.587 Y153.988 E35.28363
G1 X57.512 Y153.914 E35.28889
G1 X57.512 Y153.767 E35.29622
G1 X57.513 Y66.125 E39.6687
G1 X57.555 Y66.03 E39.67388
G1 X57.604 Y66.013 E39.67647
G0 F2100 X57.34 Y65.681
;TYPE:WALL-OUTER
G1 F900 X57.535 Y65.613 E39.68677
G1 X162.465 Y65.613 E44.92175
G1 X162.662 Y65.682 E44.93217
G1 X162.698 Y65.705 E44.9343
G1 X162.789 Y65.818 E44.94154
G1 X162.887 Y66.041 E44.95369
G1 X162.887 Y153.965 E49.34024
G1 X162.818 Y154.162 E49.35065
G1 X162.795 Y154.198 E49.35278
G1 X162.682 Y154.289 E49.36002
G1 X162.459 Y154.387 E49.37217
G1 X57.519 Y154.388 E54.60765
G1 X57.451 Y154.374 E54.61111
G1 X57.378 Y154.344 E54.61505
G1 X57.156 Y154.123 E54.63068
G1 X57.128 Y154.053 E54.63444
G1 X57.112 Y153.978 E54.63827
G1 X57.113 Y66.041 E59.02546
G1 X57.21 Y65.819 E59.03755
G1 X57.301 Y65.706 E59.04479
G1 X57.34 Y65.681 E59.0471
G0 F2100 X57.707 Y66.192
;TYPE:SKIN
G1 F900 X145.321 Y153.807 E65.22877
G0 X145.391 Y153.877
G0 F2100 X144.756 Y153.807
G1 F900 X57.692 Y66.743 E71.37161
G0 X57.622 Y66.673
G0 F2100 X57.692 Y67.308
G1 F900 X144.19 Y153.807 E77.47454
G0 X144.26 Y153.877
G0 F2100 X143.624 Y153.807
G1 F900 X57.692 Y67.874 E83.53755
G0 X57.622 Y67.804
G0 F2100 X57.692 Y68.44
G1 F900 X143.059 Y153.807 E89.56065
G0 X143.129 Y153.877
G0 F2100 X142.493 Y153.807
G1 F900 X57.692 Y69.005 E95.54385
G0 X57.622 Y68.935
G0 F2100 X57.692 Y69.571
G1 F900 X141.927 Y153.807 E101.48712
G0 X141.997 Y153.877
G0 F2100 X141.361 Y153.807
G1 F900 X57.692 Y70.137 E107.39046
G0 X57.622 Y70.067
G0 F2100 X57.692 Y70.702
G1 F900 X140.796 Y153.807 E113.25393
G0 X140.866 Y153.877
G0 F2100 X140.23 Y153.807
G1 F900 X57.692 Y71.268 E119.07747
G0 X57.622 Y71.198
G0 F2100 X57.692 Y71.834
G1 F900 X139.664 Y153.807 E124.86107
G0 X139.734 Y153.877
G0 F2100 X139.099 Y153.807
G1 F900 X57.692 Y72.399 E130.60481
G0 X57.622 Y72.329
G0 F2100 X57.692 Y72.965
G1 F900 X138.533 Y153.807 E136.30861
G0 X138.603 Y153.877
G0 F2100 X137.967 Y153.807
G1 F900 X57.692 Y73.531 E141.97248
G0 X57.622 Y73.461
G0 F2100 X57.692 Y74.097
G1 F900 X137.402 Y153.807 E147.59645
G0 X137.472 Y153.877
G0 F2100 X136.836 Y153.807
G1 F900 X57.692 Y74.662 E153.18053
G0 X57.622 Y74.592
G0 F2100 X57.692 Y75.228
G1 F900 X136.27 Y153.807 E158.72466
G0 X136.34 Y153.877
G0 F2100 X135.705 Y153.807
G1 F900 X57.692 Y75.794 E164.2289
G0 X57.622 Y75.724
G0 F2100 X57.692 Y76.359
G1 F900 X135.139 Y153.807 E169.69324
G0 X135.209 Y153.877
G0 F2100 X134.573 Y153.807
G1 F900 X57.692 Y76.925 E175.11765
G0 X57.622 Y76.855
G0 F2100 X57.692 Y77.491
G1 F900 X134.008 Y153.807 E180.50215
G0 X134.078 Y153.877
G0 F2100 X133.442 Y153.807
G1 F900 X57.692 Y78.056 E185.84676
G0 X57.622 Y77.986
G0 F2100 X57.692 Y78.622
G1 F900 X132.876 Y153.807 E191.15143
G0 X132.946 Y153.877
G0 F2100 X132.31 Y153.807
G1 F900 X57.692 Y79.188 E196.41617
G0 X57.622 Y79.118
G0 F2100 X57.692 Y79.753
G1 F900 X131.745 Y153.807 E201.64104
G0 X131.815 Y153.877
G0 F2100 X131.179 Y153.807
G1 F900 X57.692 Y80.319 E206.82598
G0 X57.622 Y80.249
G0 F2100 X57.692 Y80.885
G1 F900 X130.613 Y153.807 E211.97099
G0 X130.683 Y153.877
G0 F2100 X130.048 Y153.807
G1 F900 X57.692 Y81.45 E217.07613
G0 X57.622 Y81.38
G0 F2100 X57.692 Y82.016
G1 F900 X129.482 Y153.807 E222.14134
G0 X129.552 Y153.877
G0 F2100 X128.916 Y153.807
G1 F900 X57.692 Y82.582 E227.16661
G0 X57.622 Y82.512
G0 F2100 X57.692 Y83.147
G1 F900 X128.351 Y153.807 E232.15202
G0 X128.421 Y153.877
G0 F2100 X127.785 Y153.807
G1 F900 X57.692 Y83.713 E237.0975
G0 X57.622 Y83.643
G0 F2100 X57.692 Y84.279
G1 F900 X127.219 Y153.807 E242.00304
G0 X127.289 Y153.877
G0 F2100 X126.654 Y153.807
G1 F900 X57.692 Y84.845 E246.86868
G0 X57.622 Y84.775
G0 F2100 X57.692 Y85.41
G1 F900 X126.088 Y153.807 E251.69442
G0 X126.158 Y153.877
G0 F2100 X125.522 Y153.807
G1 F900 X57.692 Y85.976 E256.48023
G0 X57.622 Y85.906
G0 F2100 X57.692 Y86.542
G1 F900 X124.957 Y153.807 E261.22614
G0 X125.027 Y153.877
G0 F2100 X124.391 Y153.807
G1 F900 X57.692 Y87.107 E265.93215
G0 X57.622 Y87.037
G0 F2100 X57.692 Y87.673
G1 F900 X123.825 Y153.807 E270.59822
G0 X123.895 Y153.877
G0 F2100 X123.26 Y153.807
G1 F900 X57.692 Y88.239 E275.2244
G0 X57.622 Y88.169
G0 F2100 X57.692 Y88.804
G1 F900 X122.694 Y153.807 E279.81068
G0 X122.764 Y153.877
G0 F2100 X122.128 Y153.807
G1 F900 X57.692 Y89.37 E284.35702
G0 X57.622 Y89.3
G0 F2100 X57.692 Y89.936
G1 F900 X121.562 Y153.807 E288.86343
G0 X121.632 Y153.877
G0 F2100 X120.997 Y153.807
G1 F900 X57.692 Y90.501 E293.32998
G0 X57.622 Y90.431
G0 F2100 X57.692 Y91.067
G1 F900 X120.431 Y153.807 E297.75659
G0 X120.501 Y153.877
G0 F2100 X119.865 Y153.807
G1 F900 X57.692 Y91.633 E302.14326
G0 X57.622 Y91.563
G0 F2100 X57.692 Y92.198
G1 F900 X119.3 Y153.807 E306.49007
G0 X119.37 Y153.877
G0 F2100 X118.734 Y153.807
G1 F900 X57.692 Y92.764 E310.79695
G0 X57.622 Y92.694
G0 F2100 X57.692 Y93.33
G1 F900 X118.168 Y153.807 E315.0639
G0 X118.238 Y153.877
G0 F2100 X117.603 Y153.807
G1 F900 X57.692 Y93.896 E319.29094
G0 X57.622 Y93.826
G0 F2100 X57.692 Y94.461
G1 F900 X117.037 Y153.807 E323.47809
G0 X117.107 Y153.877
G0 F2100 X116.471 Y153.807
G1 F900 X57.692 Y95.027 E327.6253
G0 X57.622 Y94.957
G0 F2100 X57.692 Y95.593
G1 F900 X115.906 Y153.807 E331.73261
G0 X115.976 Y153.877
G0 F2100 X115.34 Y153.807
G1 F900 X57.692 Y96.158 E335.80002
G0 X57.622 Y96.088
G0 F2100 X57.692 Y96.724
G1 F900 X114.774 Y153.807 E339.8275
G0 X114.844 Y153.877
G0 F2100 X114.209 Y153.807
G1 F900 X57.692 Y97.29 E343.81508
G0 X57.622 Y97.22
G0 F2100 X57.692 Y97.855
G1 F900 X113.643 Y153.807 E347.76276
G0 X113.713 Y153.877
G0 F2100 X113.077 Y153.807
G1 F900 X57.692 Y98.421 E351.67051
G0 X57.622 Y98.351
G0 F2100 X57.692 Y98.987
G1 F900 X112.512 Y153.807 E355.53835
G0 X112.582 Y153.877
G0 F2100 X111.946 Y153.807
G1 F900 X57.692 Y99.552 E359.3663
G0 X57.622 Y99.482
G0 F2100 X57.692 Y100.118
G1 F900 X111.38 Y153.807 E363.15432
G0 X111.45 Y153.877
G0 F2100 X110.814 Y153.807
G1 F900 X57.692 Y100.684 E366.9024
G0 X57.622 Y100.614
G0 F2100 X57.692 Y101.249
G1 F900 X110.249 Y153.807 E370.61061
G0 X110.319 Y153.877
G0 F2100 X109.683 Y153.807
G1 F900 X57.692 Y101.815 E374.27889
G0 X57.622 Y101.745
G0 F2100 X57.692 Y102.381
G1 F900 X109.117 Y153.807 E377.90724
G0 X109.187 Y153.877
G0 F2100 X108.552 Y153.807
G1 F900 X57.692 Y102.946 E381.49572
G0 X57.622 Y102.876
G0 F2100 X57.692 Y103.512
G1 F900 X107.986 Y153.807 E385.04427
G0 X108.056 Y153.877
G0 F2100 X107.42 Y153.807
G1 F900 X57.692 Y104.078 E388.55288
G0 X57.622 Y104.008
G0 F2100 X57.692 Y104.644
G1 F900 X106.855 Y153.807 E392.0216
G0 X106.925 Y153.877
G0 F2100 X106.289 Y153.807
G1 F900 X57.692 Y105.209 E395.45042
G0 X57.622 Y105.139
G0 F2100 X57.692 Y105.775
G1 F900 X105.723 Y153.807 E398.8393
G0 X105.793 Y153.877
G0 F2100 X105.158 Y153.807
G1 F900 X57.692 Y106.341 E402.18828
G0 X57.622 Y106.271
G0 F2100 X57.692 Y106.906
G1 F900 X104.592 Y153.807 E405.49736
G0 X104.662 Y153.877
G0 F2100 X104.026 Y153.807
G1 F900 X57.692 Y107.472 E408.76651
G0 X57.622 Y107.402
G0 F2100 X57.692 Y108.038
G1 F900 X103.461 Y153.807 E411.99576
G0 X103.531 Y153.877
G0 F2100 X102.895 Y153.807
G1 F900 X57.692 Y108.603 E415.18511
G0 X57.622 Y108.533
G0 F2100 X57.692 Y109.169
G1 F900 X102.329 Y153.807 E418.33453
G0 X102.399 Y153.877
G0 F2100 X101.763 Y153.807
G1 F900 X57.692 Y109.735 E421.44401
G0 X57.622 Y109.665
G0 F2100 X57.692 Y110.3
G1 F900 X101.198 Y153.807 E424.51363
G0 X101.268 Y153.877
G0 F2100 X100.632 Y153.807
G1 F900 X57.692 Y110.866 E427.54332
G0 X57.622 Y110.796
G0 F2100 X57.692 Y111.432
G1 F900 X100.066 Y153.807 E430.53307
G0 X100.136 Y153.877
G0 F2100 X99.501 Y153.807
G1 F900 X57.692 Y111.997 E433.48295
G0 X57.622 Y111.927
G0 F2100 X57.692 Y112.563
G1 F900 X98.935 Y153.807 E436.3929
G0 X99.005 Y153.877
G0 F2100 X98.369 Y153.807
G1 F900 X57.692 Y113.129 E439.26292
G0 X57.622 Y113.059
G0 F2100 X57.692 Y113.694
G1 F900 X97.804 Y153.807 E442.09307
G0 X97.874 Y153.877
G0 F2100 X97.238 Y153.807
G1 F900 X57.692 Y114.26 E444.88329
G0 X57.622 Y114.19
G0 F2100 X57.692 Y114.826
G1 F900 X96.672 Y153.807 E447.63358
G0 X96.742 Y153.877
G0 F2100 X96.107 Y153.807
G1 F900 X57.692 Y115.392 E450.34396
G0 X57.622 Y115.322
G0 F2100 X57.692 Y115.957
G1 F900 X95.541 Y153.807 E453.01445
G0 X95.611 Y153.877
G0 F2100 X94.975 Y153.807
G1 F900 X57.692 Y116.523 E455.645
G0 X57.622 Y116.453
G0 F2100 X57.692 Y117.089
G1 F900 X94.41 Y153.807 E458.23566
G0 X94.48 Y153.877
G0 F2100 X93.844 Y153.807
G1 F900 X57.692 Y117.654 E460.78641
G0 X57.622 Y117.584
G0 F2100 X57.692 Y118.22
G1 F900 X93.278 Y153.807 E463.29723
G0 X93.348 Y153.877
G0 F2100 X92.713 Y153.807
G1 F900 X57.692 Y118.786 E465.76815
G0 X57.622 Y118.716
G0 F2100 X57.692 Y119.351
G1 F900 X92.147 Y153.807 E468.19917
G0 X92.217 Y153.877
G0 F2100 X91.581 Y153.807
G1 F900 X57.692 Y119.917 E470.59026
G0 X57.622 Y119.847
G0 F2100 X57.692 Y120.483
G1 F900 X91.015 Y153.807 E472.94141
G0 X91.085 Y153.877
G0 F2100 X90.45 Y153.807
G1 F900 X57.692 Y121.048 E475.2527
G0 X57.622 Y120.978
G0 F2100 X57.692 Y121.614
G1 F900 X89.884 Y153.807 E477.52406
G0 X89.954 Y153.877
G0 F2100 X89.318 Y153.807
G1 F900 X57.692 Y122.18 E479.75548
G0 X57.622 Y122.11
G0 F2100 X57.692 Y122.745
G1 F900 X88.753 Y153.807 E481.94703
G0 X88.823 Y153.877
G0 F2100 X88.187 Y153.807
G1 F900 X57.692 Y123.311 E484.09866
G0 X57.622 Y123.241
G0 F2100 X57.692 Y123.877
G1 F900 X87.621 Y153.807 E486.21034
G0 X87.691 Y153.877
G0 F2100 X87.056 Y153.807
G1 F900 X57.692 Y124.443 E488.28213
G0 X57.622 Y124.373
G0 F2100 X57.692 Y125.008
G1 F900 X86.49 Y153.807 E490.31402
G0 X86.56 Y153.877
G0 F2100 X85.924 Y153.807
G1 F900 X57.692 Y125.574 E492.30598
G0 X57.622 Y125.504
G0 F2100 X57.692 Y126.14
G1 F900 X85.359 Y153.807 E494.25803
G0 X85.429 Y153.877
G0 F2100 X84.793 Y153.807
G1 F900 X57.692 Y126.705 E496.17019
G0 X57.622 Y126.635
G0 F2100 X57.692 Y127.271
G1 F900 X84.227 Y153.807 E498.04241
G0 X84.297 Y153.877
G0 F2100 X83.662 Y153.807
G1 F900 X57.692 Y127.837 E499.87474
G0 X57.622 Y127.767
G0 F2100 X57.692 Y128.402
G1 F900 X83.096 Y153.807 E501.66716
G0 X83.166 Y153.877
G0 F2100 X82.53 Y153.807
G1 F900 X57.692 Y128.968 E503.41965
G0 X57.622 Y128.898
G0 F2100 X57.692 Y129.534
G1 F900 X81.964 Y153.807 E505.13221
G0 X82.034 Y153.877
G0 F2100 X81.399 Y153.807
G1 F900 X57.692 Y130.099 E506.8049
G0 X57.622 Y130.029
G0 F2100 X57.692 Y130.665
G1 F900 X80.833 Y153.807 E508.43766
G0 X80.903 Y153.877
G0 F2100 X80.267 Y153.807
G1 F900 X57.692 Y131.231 E510.03048
G0 X57.622 Y131.161
G0 F2100 X57.692 Y131.796
G1 F900 X79.702 Y153.807 E511.58344
G0 X79.772 Y153.877
G0 F2100 X79.136 Y153.807
G1 F900 X57.692 Y132.362 E513.09647
G0 X57.622 Y132.292
G0 F2100 X57.692 Y132.928
G1 F900 X78.57 Y153.807 E514.56956
G0 X78.64 Y153.877
G0 F2100 X78.005 Y153.807
G1 F900 X57.692 Y133.493 E516.00279
G0 X57.622 Y133.423
G0 F2100 X57.692 Y134.059
G1 F900 X77.439 Y153.807 E517.39608
G0 X77.509 Y153.877
G0 F2100 X76.873 Y153.807
G1 F900 X57.692 Y134.625 E518.74944
G0 X57.622 Y134.555
G0 F2100 X57.692 Y135.191
G1 F900 X76.308 Y153.807 E520.0629
G0 X76.378 Y153.877
G0 F2100 X75.742 Y153.807
G1 F900 X57.692 Y135.756 E521.33646
G0 X57.622 Y135.686
G0 F2100 X57.692 Y136.322
G1 F900 X75.176 Y153.807 E522.57008
G0 X75.246 Y153.877
G0 F2100 X74.611 Y153.807
G1 F900 X57.692 Y136.888 E523.76381
G0 X57.622 Y136.818
G0 F2100 X57.692 Y137.453
G1 F900 X74.045 Y153.807 E524.91764
G0 X74.115 Y153.877
G0 F2100 X73.479 Y153.807
G1 F900 X57.692 Y138.019 E526.03153
G0 X57.622 Y137.949
G0 F2100 X57.692 Y138.585
G1 F900 X72.914 Y153.807 E527.10552
G0 X72.984 Y153.877
G0 F2100 X72.348 Y153.807
G1 F900 X57.692 Y139.15 E528.13962
G0 X57.622 Y139.08
G0 F2100 X57.692 Y139.716
G1 F900 X71.782 Y153.807 E529.13378
G0 X71.852 Y153.877
G0 F2100 X71.216 Y153.807
G1 F900 X57.692 Y140.282 E530.08801
G0 X57.622 Y140.212
G0 F2100 X57.692 Y140.847
G1 F900 X70.651 Y153.807 E531.00237
G0 X70.721 Y153.877
G0 F2100 X70.085 Y153.807
G1 F900 X57.692 Y141.413 E531.8768
G0 X57.622 Y141.343
G0 F2100 X57.692 Y141.979
G1 F900 X69.519 Y153.807 E532.71129
G0 X69.589 Y153.877
G0 F2100 X68.954 Y153.807
G1 F900 X57.692 Y142.544 E533.50592
G0 X57.622 Y142.474
G0 F2100 X57.692 Y143.11
G1 F900 X68.388 Y153.807 E534.26062
G0 X68.458 Y153.877
G0 F2100 X67.822 Y153.807
G1 F900 X57.692 Y143.676 E534.97538
G0 X57.622 Y143.606
G0 F2100 X57.692 Y144.242
G1 F900 X67.257 Y153.807 E535.65024
G0 X67.327 Y153.877
G0 F2100 X66.691 Y153.807
G1 F900 X57.692 Y144.807 E536.28521
G0 X57.622 Y144.737
G0 F2100 X57.692 Y145.373
G1 F900 X66.125 Y153.807 E536.88023
G0 X66.195 Y153.877
G0 F2100 X65.56 Y153.807
G1 F900 X57.692 Y145.939 E537.43536
G0 X57.622 Y145.869
G0 F2100 X57.692 Y146.504
G1 F900 X64.994 Y153.807 E537.9506
G0 X65.064 Y153.877
G0 F2100 X64.428 Y153.807
G1 F900 X57.692 Y147.07 E538.42589
G0 X57.622 Y147
G0 F2100 X57.692 Y147.636
G1 F900 X63.863 Y153.807 E538.86129
G0 X63.933 Y153.877
G0 F2100 X63.297 Y153.807
G1 F900 X57.692 Y148.201 E539.25679
G0 X57.622 Y148.131
G0 F2100 X57.692 Y148.767
G1 F900 X62.731 Y153.807 E539.61235
G0 X62.801 Y153.877
G0 F2100 X62.165 Y153.807
G1 F900 X57.692 Y149.333 E539.92798
G0 X57.622 Y149.263
G0 F2100 X57.692 Y149.898
G1 F900 X61.6 Y153.807 E540.20375
G0 X61.67 Y153.877
G0 F2100 X61.034 Y153.807
G1 F900 X57.692 Y150.464 E540.43958
G0 X57.622 Y150.394
G0 F2100 X57.692 Y151.03
G1 F900 X60.468 Y153.807 E540.63548
G0 X60.538 Y153.877
G0 F2100 X59.903 Y153.807
G1 F900 X57.692 Y151.595 E540.79151
G0 X57.622 Y151.525
G0 F2100 X57.692 Y152.161
G1 F900 X59.337 Y153.807 E540.90761
G0 X59.407 Y153.877
G0 F2100 X58.771 Y153.807
G1 F900 X57.692 Y152.727 E540.98377
G0 X57.622 Y152.657
G0 F2100 X57.692 Y153.292
G1 F900 X58.206 Y153.807 E541.02007
