;FLAVOR:RepRap
;TIME:3707
;Generated with Cura_SteamEngine 2.3.1
M190 S60
M104 S200
M109 S200
G28 ;Home
G1 Z15.0 F6000 ;Move the platform down 15mm
;Prime the extruder
G92 E0
G1 F200 E3
G92 E0
;LAYER_COUNT:50
;LAYER:0
M107
G1 F1500 E-6.5
G0 F3600 X85.741 Y88.664 Z.3
;TYPE:SKIRT
G1 F1500 E0
G1 F1200 X86.782 Y87.656 E0.07229
G1 X87.298 Y87.241 E0.10533
G1 X91.931 Y84.171 E0.38261
G1 X96.24 Y81.062 E0.6477
G1 X96.62 Y80.822 E0.67013
G1 X97.365 Y80.415 E0.71248
G1 X97.965 Y80.155 E0.7451
G1 X99.577 Y79.624 E0.82978
G1 X100.292 Y79.467 E0.8663
G1 X108.899 Y78.477 E1.29853
G1 X111.651 Y78.104 E1.43709
G1 X112.275 Y78.074 E1.46826
G1 X113.1 Y78.106 E1.50945
G1 X113.741 Y78.189 E1.54169
G1 X115.398 Y78.557 E1.62637
G1 X115.969 Y78.734 E1.6562
G1 X120.832 Y80.704 E1.91797
G1 X125.836 Y82.482 E2.18291
G1 X126.418 Y82.749 E2.21485
G1 X127.842 Y83.563 E2.29669
G1 X128.462 Y84.011 E2.33485
G1 X129.454 Y84.903 E2.4014
G1 X129.817 Y85.281 E2.42755
G1 X131.264 Y87.024 E2.54057
G1 X134.98 Y91.229 E2.82054
G1 X137.052 Y93.496 E2.97376
G1 X137.504 Y94.111 E3.01184
G1 X138.178 Y95.266 E3.07856
G1 X138.427 Y95.782 E3.10714
G1 X138.744 Y96.602 E3.151
G1 X138.897 Y97.105 E3.17723
G1 X140.118 Y102.494 E3.4529
G1 X141.505 Y107.642 E3.7189
G1 X141.593 Y108.072 E3.74079
G1 X141.718 Y108.951 E3.78509
G1 X141.754 Y109.41 E3.80806
G1 X141.766 Y110.307 E3.85281
G1 X141.729 Y110.87 E3.88096
G1 X141.545 Y112.142 E3.94508
G1 X141.457 Y112.567 E3.96674
G1 X140.101 Y117.576 E4.22563
G1 X138.826 Y123.111 E4.50901
G1 X138.588 Y123.81 E4.54584
G1 X138.036 Y125.008 E4.61165
G1 X137.757 Y125.504 E4.64004
G1 X137.252 Y126.258 E4.68532
G1 X136.938 Y126.662 E4.71085
G1 X131.295 Y132.94 E5.13199
G1 X129.676 Y134.87 E5.25767
G1 X129.253 Y135.296 E5.28762
G1 X128.237 Y136.162 E5.35422
G1 X127.602 Y136.596 E5.3926
G1 X126.153 Y137.372 E5.4746
G1 X125.62 Y137.604 E5.5036
G1 X123.362 Y138.378 E5.62269
G1 X118.166 Y140.349 E5.89994
G1 X115.497 Y141.416 E6.04335
G1 X114.774 Y141.62 E6.08082
G1 X113.38 Y141.861 E6.1514
G1 X112.797 Y141.914 E6.18061
G1 X111.966 Y141.921 E6.22207
G1 X111.44 Y141.887 E6.24837
G1 X105.743 Y141.095 E6.53532
G1 X100.642 Y140.591 E6.79105
G1 X100.206 Y140.52 E6.81309
G1 X99.277 Y140.311 E6.8606
G1 X98.823 Y140.177 E6.88421
G1 X98.011 Y139.878 E6.92738
G1 X97.603 Y139.698 E6.94963
G1 X96.819 Y139.293 E6.99366
G1 X96.37 Y139.018 E7.01993
G1 X91.977 Y135.861 E7.28982
G1 X87.381 Y132.824 E7.56465
G1 X87.014 Y132.546 E7.58762
G1 X86.351 Y131.974 E7.63131
G1 X85.894 Y131.5 E7.66416
G1 X84.859 Y130.209 E7.74671
G1 X84.453 Y129.577 E7.78418
G1 X81.781 Y124.273 E8.08048
G1 X79.372 Y119.929 E8.3283
G1 X79.184 Y119.536 E8.35003
G1 X78.842 Y118.693 E8.39542
G1 X78.699 Y118.266 E8.41789
G1 X78.485 Y117.462 E8.4594
G1 X78.396 Y117.016 E8.48209
G1 X78.273 Y116.101 E8.52815
G1 X78.242 Y115.555 E8.55543
G1 X78.346 Y109.899 E8.83766
G1 X78.232 Y104.647 E9.09974
G1 X78.263 Y104.09 E9.12757
G1 X78.435 Y102.81 E9.19201
G1 X78.549 Y102.275 E9.2193
G1 X78.789 Y101.457 E9.26183
G1 X79.026 Y100.855 E9.29411
G1 X79.932 Y99.051 E9.39482
G1 X80 Y98.922 E9.4021
G1 X81.986 Y95.338 E9.60652
G1 X84.288 Y90.7 E9.86484
G1 X84.559 Y90.244 E9.89131
G1 X85.291 Y89.193 E9.95521
G1 X85.741 Y88.664 E9.98986
G0 F3600 X86.019 Y88.951
G1 F1200 X87.06 Y87.943 E10.06215
G1 X87.518 Y87.574 E10.09149
G1 X92.169 Y84.492 E10.36985
G1 X96.474 Y81.386 E10.6347
G1 X96.812 Y81.173 E10.65463
G1 X97.557 Y80.766 E10.69698
G1 X98.09 Y80.535 E10.72596
G1 X99.702 Y80.004 E10.81064
G1 X100.337 Y79.864 E10.84308
G1 X108.955 Y78.873 E11.27586
G1 X111.705 Y78.5 E11.41432
G1 X112.259 Y78.473 E11.44199
G1 X113.084 Y78.505 E11.48318
G1 X113.654 Y78.579 E11.51186
G1 X115.311 Y78.947 E11.59654
G1 X115.819 Y79.105 E11.62308
G1 X120.689 Y81.078 E11.88523
G1 X125.702 Y82.859 E12.15064
G1 X126.219 Y83.096 E12.17902
G1 X127.643 Y83.91 E12.26085
G1 X128.195 Y84.309 E12.29483
G1 X129.187 Y85.201 E12.36139
G1 X129.509 Y85.536 E12.38457
G1 X130.969 Y87.295 E12.49862
G1 X134.668 Y91.48 E12.77727
G1 X136.757 Y93.766 E12.93177
G1 X137.159 Y94.312 E12.9656
G1 X137.833 Y95.467 E13.03231
G1 X138.054 Y95.926 E13.05773
G1 X138.371 Y96.746 E13.10159
G1 X138.507 Y97.193 E13.1249
G1 X139.729 Y102.589 E13.40092
G1 X141.119 Y107.746 E13.66739
G1 X141.197 Y108.128 E13.68684
G1 X141.322 Y109.007 E13.73114
G1 X141.354 Y109.415 E13.75155
G1 X141.366 Y110.312 E13.79631
G1 X141.333 Y110.813 E13.82136
G1 X141.149 Y112.085 E13.88548
G1 X141.071 Y112.463 E13.90474
G1 X139.71 Y117.491 E14.16461
G1 X138.436 Y123.021 E14.44773
G1 X138.224 Y123.642 E14.48047
G1 X137.672 Y124.84 E14.54628
G1 X137.425 Y125.282 E14.57154
G1 X136.92 Y126.036 E14.61681
G1 X136.641 Y126.394 E14.63946
G1 X131.001 Y132.668 E15.06035
G1 X129.37 Y134.613 E15.18699
G1 X128.994 Y134.991 E15.21359
G1 X127.978 Y135.857 E15.28019
G1 X127.413 Y136.243 E15.31433
G1 X125.964 Y137.019 E15.39633
G1 X125.491 Y137.225 E15.42207
G1 X123.235 Y137.998 E15.54105
G1 X117.995 Y139.986 E15.82065
G1 X115.349 Y141.044 E15.96283
G1 X114.706 Y141.226 E15.99617
G1 X113.312 Y141.467 E16.06674
G1 X112.794 Y141.514 E16.09269
G1 X111.963 Y141.521 E16.13415
G1 X111.496 Y141.491 E16.1575
G1 X105.766 Y140.695 E16.44612
G1 X100.681 Y140.192 E16.70105
G1 X100.294 Y140.13 E16.7206
G1 X99.365 Y139.921 E16.76811
G1 X98.961 Y139.802 E16.78912
G1 X98.149 Y139.503 E16.83229
G1 X97.786 Y139.343 E16.85208
G1 X97.002 Y138.938 E16.8961
G1 X96.604 Y138.694 E16.91939
G1 X92.187 Y135.52 E17.19075
G1 X87.602 Y132.49 E17.46494
G1 X87.276 Y132.243 E17.48534
G1 X86.613 Y131.671 E17.52903
G1 X86.206 Y131.25 E17.55824
G1 X85.171 Y129.959 E17.64079
G1 X84.81 Y129.397 E17.67412
G1 X82.14 Y124.097 E17.97019
G1 X79.721 Y119.735 E18.21904
G1 X79.555 Y119.386 E18.23832
G1 X79.213 Y118.543 E18.28371
G1 X79.086 Y118.163 E18.3037
G1 X78.872 Y117.359 E18.3452
G1 X78.793 Y116.962 E18.3654
G1 X78.67 Y116.047 E18.41146
G1 X78.642 Y115.562 E18.4357
G1 X78.746 Y109.887 E18.71887
G1 X78.632 Y104.638 E18.98081
G1 X78.66 Y104.143 E19.00554
G1 X78.832 Y102.863 E19.06997
G1 X78.932 Y102.388 E19.09419
G1 X79.172 Y101.57 E19.13672
G1 X79.383 Y101.035 E19.16541
G1 X80.289 Y99.231 E19.26613
G1 X80.35 Y99.116 E19.27262
G1 X82.346 Y95.514 E19.47807
G1 X84.647 Y90.878 E19.73629
G1 X84.887 Y90.472 E19.75982
G1 X85.619 Y89.421 E19.82372
G1 X86.019 Y88.951 E19.85451
G1 F1500 E13.35451
G0 F3600 X87.893 Y90.622
G0 X88.839 Y91.518
G0 X88.884 Y91.558
G0 X88.81 Y91.492
;TYPE:WALL-INNER
G1 F1500 E19.85451
G1 F1200 X89.068 Y91.22 E19.87321
G1 X89.374 Y90.933 E19.89414
G1 X89.686 Y90.676 E19.91431
G1 X90.026 Y90.43 E19.93525
G1 X90.334 Y90.236 E19.95341
G1 X90.7 Y90.036 E19.97421
G1 X91.074 Y89.86 E19.99484
G1 X91.441 Y89.716 E20.0145
G1 X91.812 Y89.598 E20.03393
G1 X92.223 Y89.493 E20.05509
G1 X92.611 Y89.42 E20.07479
G1 X93.006 Y89.371 E20.09465
G1 X93.412 Y89.346 E20.11494
G1 X93.808 Y89.347 E20.1347
G1 X94.213 Y89.374 E20.15495
G1 X94.607 Y89.424 E20.17476
G1 X95.42 Y89.583 E20.21609
G1 X95.619 Y89.621 E20.2262
G1 X95.653 Y89.421 E20.2327
G1 X95.795 Y88.612 E20.27368
G1 X95.888 Y88.222 E20.29368
G1 X96.009 Y87.826 E20.31434
G1 X96.146 Y87.462 E20.33374
G1 X96.313 Y87.091 E20.35404
G1 X96.503 Y86.729 E20.37444
G1 X96.707 Y86.398 E20.39383
G1 X96.951 Y86.049 E20.41508
G1 X97.204 Y85.733 E20.43527
G1 X97.454 Y85.457 E20.45385
G1 X97.746 Y85.174 E20.47414
G1 X98.055 Y84.91 E20.49442
G1 X98.382 Y84.663 E20.51486
G1 X98.707 Y84.449 E20.53428
G1 X99.063 Y84.245 E20.55475
G1 X99.423 Y84.069 E20.57474
G1 X99.807 Y83.909 E20.59549
G1 X100.157 Y83.789 E20.61395
G1 X100.574 Y83.674 E20.63553
G1 X100.954 Y83.594 E20.65491
G1 X101.352 Y83.537 E20.67497
G1 X101.753 Y83.506 E20.69503
G1 X102.147 Y83.498 E20.71469
G1 X102.563 Y83.519 E20.73547
G1 X102.969 Y83.562 E20.75584
G1 X103.346 Y83.627 E20.77493
G1 X103.759 Y83.726 E20.79612
G1 X104.132 Y83.84 E20.81557
G1 X104.499 Y83.979 E20.83515
G1 X104.871 Y84.147 E20.85552
G1 X105.23 Y84.335 E20.87574
G1 X105.561 Y84.537 E20.89508
G1 X105.903 Y84.777 E20.91593
G1 X106.547 Y85.291 E20.95703
G1 X106.705 Y85.417 E20.96712
G1 X106.828 Y85.256 E20.97361
G1 X107.338 Y84.591 E21.01542
G1 X107.591 Y84.301 E21.03462
G1 X107.871 Y84.018 E21.05448
G1 X108.191 Y83.733 E21.07586
G1 X108.478 Y83.509 E21.09402
G1 X108.825 Y83.27 E21.11504
G1 X109.169 Y83.064 E21.13505
G1 X109.539 Y82.874 E21.1558
G1 X109.884 Y82.722 E21.17461
G1 X110.274 Y82.58 E21.19531
G1 X110.659 Y82.466 E21.21535
G1 X111.051 Y82.377 E21.2354
G1 X111.445 Y82.312 E21.25532
G1 X111.84 Y82.273 E21.27513
G1 X112.251 Y82.257 E21.29565
G1 X112.663 Y82.269 E21.31621
G1 X113.042 Y82.303 E21.33519
G1 X113.443 Y82.365 E21.35544
G1 X113.839 Y82.451 E21.37566
G1 X114.233 Y82.564 E21.3961
G1 X114.593 Y82.69 E21.41513
G1 X114.984 Y82.858 E21.43636
G1 X115.335 Y83.035 E21.45598
G1 X115.685 Y83.239 E21.47619
G1 X116.015 Y83.461 E21.49603
G1 X116.331 Y83.704 E21.51592
G1 X116.628 Y83.962 E21.53555
G1 X116.927 Y84.259 E21.55657
G1 X117.194 Y84.559 E21.57661
G1 X117.438 Y84.87 E21.59633
G1 X117.662 Y85.196 E21.61606
G1 X117.874 Y85.552 E21.63673
G1 X118.053 Y85.898 E21.65617
G1 X118.385 Y86.658 E21.69755
G1 X118.466 Y86.845 E21.70771
G1 X118.651 Y86.76 E21.71423
G1 X119.396 Y86.417 E21.75515
G1 X119.768 Y86.272 E21.77507
G1 X120.173 Y86.144 E21.79626
G1 X120.534 Y86.054 E21.81482
G1 X120.952 Y85.978 E21.83602
G1 X121.352 Y85.93 E21.85611
G1 X121.743 Y85.908 E21.87565
G1 X122.143 Y85.912 E21.89561
G1 X122.561 Y85.94 E21.91651
G1 X122.935 Y85.991 E21.93534
G1 X123.358 Y86.074 E21.95685
G1 X123.713 Y86.169 E21.97518
G1 X124.121 Y86.304 E21.99662
G1 X124.476 Y86.447 E22.01572
G1 X124.848 Y86.626 E22.03631
G1 X125.2 Y86.823 E22.05644
G1 X125.531 Y87.037 E22.0761
G1 X125.865 Y87.282 E22.09677
G1 X126.153 Y87.524 E22.11553
G1 X126.463 Y87.819 E22.13688
G1 X126.739 Y88.117 E22.15715
G1 X126.974 Y88.405 E22.17569
G1 X127.216 Y88.743 E22.19643
G1 X127.434 Y89.092 E22.21696
G1 X127.626 Y89.449 E22.23719
G1 X127.797 Y89.816 E22.25739
G1 X127.936 Y90.177 E22.27668
G1 X128.056 Y90.557 E22.29657
G1 X128.158 Y90.962 E22.3174
G1 X128.227 Y91.341 E22.33662
G1 X128.277 Y91.759 E22.35762
G1 X128.298 Y92.145 E22.37691
G1 X128.295 Y92.548 E22.39702
G1 X128.237 Y93.376 E22.43843
G1 X128.224 Y93.578 E22.44853
G1 X128.426 Y93.588 E22.45502
G1 X129.239 Y93.631 E22.49564
G1 X129.652 Y93.677 E22.51637
G1 X130.049 Y93.749 E22.5365
G1 X130.434 Y93.842 E22.55626
G1 X130.826 Y93.964 E22.57674
G1 X131.197 Y94.107 E22.59658
G1 X131.563 Y94.273 E22.61663
G1 X131.899 Y94.452 E22.63562
G1 X132.256 Y94.672 E22.65654
G1 X132.589 Y94.908 E22.6769
G1 X132.9 Y95.16 E22.69687
G1 X133.186 Y95.422 E22.71623
G1 X133.483 Y95.729 E22.73754
G1 X133.729 Y96.02 E22.75655
G1 X133.969 Y96.343 E22.77662
G1 X134.199 Y96.694 E22.79756
G1 X134.382 Y97.018 E22.81612
G1 X134.565 Y97.396 E22.83708
G1 X134.721 Y97.774 E22.85748
G1 X134.846 Y98.144 E22.87696
G1 X134.951 Y98.531 E22.89697
G1 X135.032 Y98.927 E22.91713
G1 X135.088 Y99.324 E22.93713
G1 X135.118 Y99.718 E22.95685
G1 X135.123 Y100.114 E22.97661
G1 X135.102 Y100.54 E22.99789
G1 X135.058 Y100.925 E23.01722
G1 X134.986 Y101.328 E23.03764
G1 X134.889 Y101.725 E23.05803
G1 X134.775 Y102.095 E23.07735
G1 X134.631 Y102.473 E23.09753
G1 X134.457 Y102.852 E23.11833
G1 X134.281 Y103.184 E23.13708
G1 X133.839 Y103.903 E23.17919
G1 X133.733 Y104.075 E23.18927
G1 X133.907 Y104.178 E23.19576
G1 X134.606 Y104.59 E23.23624
G1 X134.948 Y104.822 E23.25686
G1 X135.266 Y105.069 E23.27695
G1 X135.574 Y105.341 E23.29745
G1 X135.847 Y105.614 E23.31671
G1 X136.123 Y105.927 E23.33753
G1 X136.365 Y106.239 E23.35723
G1 X136.59 Y106.571 E23.37724
G1 X136.799 Y106.924 E23.3977
G1 X136.977 Y107.273 E23.41725
G1 X137.135 Y107.639 E23.43714
G1 X137.271 Y108.015 E23.45709
G1 X137.388 Y108.416 E23.47793
G1 X137.47 Y108.783 E23.49669
G1 X137.537 Y109.207 E23.5181
G1 X137.573 Y109.58 E23.5368
G1 X137.587 Y109.994 E23.55746
G1 X137.573 Y110.412 E23.57833
G1 X137.538 Y110.792 E23.59737
G1 X137.471 Y111.212 E23.61859
G1 X137.391 Y111.572 E23.63699
G1 X137.27 Y111.986 E23.6585
G1 X137.14 Y112.349 E23.67774
G1 X136.978 Y112.725 E23.69817
G1 X136.799 Y113.076 E23.71782
G1 X136.59 Y113.429 E23.73829
G1 X136.365 Y113.761 E23.7583
G1 X136.123 Y114.073 E23.778
G1 X135.847 Y114.386 E23.79882
G1 X135.574 Y114.659 E23.81808
G1 X135.266 Y114.931 E23.83858
G1 X134.939 Y115.184 E23.85921
G1 X134.617 Y115.403 E23.87864
G1 X133.907 Y115.822 E23.91977
G1 X133.733 Y115.925 E23.92985
G1 X133.839 Y116.097 E23.93634
G1 X134.281 Y116.816 E23.97845
G1 X134.453 Y117.139 E23.9967
G1 X134.626 Y117.516 E24.0174
G1 X134.775 Y117.906 E24.03823
G1 X134.893 Y118.286 E24.05808
G1 X134.983 Y118.652 E24.07688
G1 X135.058 Y119.073 E24.09822
G1 X135.103 Y119.462 E24.11775
G1 X135.123 Y119.861 E24.13768
G1 X135.118 Y120.274 E24.15829
G1 X135.089 Y120.669 E24.17805
G1 X135.034 Y121.062 E24.19785
G1 X134.953 Y121.462 E24.21821
G1 X134.846 Y121.855 E24.23853
G1 X134.721 Y122.226 E24.25806
G1 X134.57 Y122.593 E24.27786
G1 X134.388 Y122.968 E24.29866
G1 X134.195 Y123.311 E24.31829
G1 X133.969 Y123.657 E24.33891
G1 X133.729 Y123.979 E24.35895
G1 X133.483 Y124.271 E24.37799
G1 X133.194 Y124.571 E24.39878
G1 X132.897 Y124.843 E24.41887
G1 X132.573 Y125.104 E24.43963
G1 X132.254 Y125.33 E24.45913
G1 X131.913 Y125.539 E24.47908
G1 X131.552 Y125.732 E24.49951
G1 X131.198 Y125.892 E24.51889
G1 X130.797 Y126.046 E24.54032
G1 X130.429 Y126.16 E24.55954
G1 X130.042 Y126.253 E24.5794
G1 X129.645 Y126.324 E24.59952
G1 X129.231 Y126.369 E24.62029
G1 X128.426 Y126.412 E24.66051
G1 X128.224 Y126.422 E24.6706
G1 X128.237 Y126.624 E24.6771
G1 X128.295 Y127.452 E24.71851
G1 X128.298 Y127.855 E24.73862
G1 X128.277 Y128.239 E24.7578
G1 X128.229 Y128.641 E24.778
G1 X128.154 Y129.053 E24.7989
G1 X128.063 Y129.418 E24.81766
G1 X127.932 Y129.833 E24.83937
G1 X127.797 Y130.184 E24.85814
G1 X127.626 Y130.551 E24.87834
G1 X127.434 Y130.908 E24.89856
G1 X127.223 Y131.246 E24.91844
G1 X126.976 Y131.592 E24.93965
G1 X126.745 Y131.876 E24.95791
G1 X126.449 Y132.194 E24.97959
G1 X126.175 Y132.456 E24.9985
G1 X125.859 Y132.723 E25.01914
G1 X125.532 Y132.962 E25.03935
G1 X125.2 Y133.177 E25.05908
G1 X124.848 Y133.374 E25.0792
G1 X124.478 Y133.552 E25.09969
G1 X124.12 Y133.696 E25.11894
G1 X123.713 Y133.831 E25.14033
G1 X123.358 Y133.926 E25.15867
G1 X122.935 Y134.009 E25.18017
G1 X122.561 Y134.06 E25.199
G1 X122.143 Y134.088 E25.21991
G1 X121.743 Y134.092 E25.23986
G1 X121.352 Y134.07 E25.2594
G1 X120.952 Y134.022 E25.2795
G1 X120.534 Y133.946 E25.3007
G1 X120.173 Y133.856 E25.31926
G1 X119.768 Y133.728 E25.34045
G1 X119.396 Y133.583 E25.36037
G1 X118.651 Y133.24 E25.40129
G1 X118.466 Y133.155 E25.41144
G1 X118.385 Y133.342 E25.41797
G1 X118.057 Y134.093 E25.45885
G1 X117.874 Y134.448 E25.47878
G1 X117.665 Y134.8 E25.4992
G1 X117.445 Y135.12 E25.51857
G1 X117.187 Y135.449 E25.53943
G1 X116.927 Y135.741 E25.55894
G1 X116.637 Y136.029 E25.57933
G1 X116.325 Y136.301 E25.59998
G1 X116.018 Y136.537 E25.6193
G1 X115.685 Y136.761 E25.63932
G1 X115.335 Y136.965 E25.65953
G1 X114.984 Y137.142 E25.67914
G1 X114.593 Y137.31 E25.70038
G1 X114.233 Y137.436 E25.7194
G1 X113.839 Y137.549 E25.73985
G1 X113.443 Y137.635 E25.76007
G1 X113.042 Y137.697 E25.78031
G1 X112.663 Y137.731 E25.7993
G1 X112.251 Y137.743 E25.81986
G1 X111.84 Y137.727 E25.84038
G1 X111.445 Y137.688 E25.86019
G1 X111.051 Y137.623 E25.88011
G1 X110.659 Y137.534 E25.90016
G1 X110.274 Y137.42 E25.92019
G1 X109.884 Y137.278 E25.9409
G1 X109.539 Y137.126 E25.95971
G1 X109.169 Y136.936 E25.98046
G1 X108.825 Y136.73 E26.00047
G1 X108.478 Y136.491 E26.02149
G1 X108.177 Y136.256 E26.04054
G1 X107.881 Y135.992 E26.06033
G1 X107.591 Y135.699 E26.08089
G1 X107.338 Y135.409 E26.10009
G1 X106.828 Y134.744 E26.1419
G1 X106.705 Y134.583 E26.15201
G1 X106.547 Y134.709 E26.15849
G1 X105.903 Y135.223 E26.1996
G1 X105.571 Y135.456 E26.21983
G1 X105.229 Y135.665 E26.23983
G1 X104.871 Y135.853 E26.26
G1 X104.499 Y136.021 E26.28037
G1 X104.132 Y136.16 E26.29994
G1 X103.759 Y136.274 E26.3194
G1 X103.345 Y136.373 E26.34064
G1 X102.969 Y136.438 E26.35968
G1 X102.563 Y136.481 E26.38005
G1 X102.147 Y136.502 E26.40083
